alpha8332/robot-data-analysis/ideal_sim.csv
timestamp,robot_state,joint_position_1,joint_position_2,joint_position_3,joint_position_4,joint_position_5,joint_position_6,joint_velocity_1,joint_velocity_2,joint_velocity_3,joint_velocity_4,joint_velocity_5,joint_velocity_6,joint_torque_1,joint_torque_2,joint_torque_3,joint_torque_4,joint_torque_5,joint_torque_6
0.0,2,0.0,0.17453292519943295,-0.3490658503988659,0.5235987755982988,-0.2617993877991494,0.08726646259971647,0.03141075907812829,0.03141075907812929,0.031410759078126516,0.03141075907813207,0.031410759078126516,0.0314107590781279,0.09423227723438488,0.09423227723438787,0.07852689769531629,0.07852689769533017,0.06282151815625303,0.0628215181562558
0.01,2,0.00031410759078128294,0.17484703279021424,-0.34875174280808463,0.5239128831890801,-0.26148528020836814,0.08758057019049775,0.03141075907812829,0.03141075907812929,0.031410759078126516,0.03141075907813207,0.031410759078126516,0.0314107590781279,0.10679658086563619,0.10522604291173313,0.08795012541875424,0.08637958746486318,0.06910366997187833,0.06753313201797499
0.02,2,0.0006279051952931338,0.17516083039472607,-0.34843794520357274,0.5242266807935919,-0.26117148260385625,0.0878943677950096,0.03137976045118508,0.0313797604511834,0.031379760451188954,0.03137976045117785,0.031379760451188954,0.03137976045118479,0.1192554891652806,0.11611596318880965,0.09728655698676703,0.09414703101027211,0.075317624808241,0.07217809883176649
0.03,2,0.0009410831331851431,0.1754740083326181,-0.34812476726568076,0.524539858731484,-0.26085830466596427,0.08820754573290161,0.03131779378920094,0.03131779378920119,0.03131779378919841,0.031317793789209514,0.03131779378919841,0.03131779378920119,0.13159670669500853,0.12689129102908342,0.10652697846855019,0.10182156280265364,0.0814572502420996,0.07675183457617946
0.04,2,0.0012533323356430427,0.17578625753507598,-0.34781251806322283,0.5248521079339419,-0.26054605546350634,0.08851979493535951,0.03122492024578995,0.031224920245789822,0.031224920245792598,0.031224920245787047,0.031224920245792598,0.031224920245789822,0.14380805416309156,0.13754139248487576,0.11566227068377344,0.10939560900554424,0.08751648720444649,0.0812498255262252
0.05,2,0.0015643446504023087,0.17609726984983526,-0.3475015057484636,0.5251631202487012,-0.2602350431487471,0.08883080725011878,0.0311012314759266,0.03110123147592736,0.03110123147592181,0.03110123147592736,0.03110123147592181,0.03110123147592736,0.15587748044387215,0.14805575719186295,0.12468341820187301,0.11686169494987686,0.09348935595988928,0.08566763270788938
0.06,2,0.001873813145857246,0.1764067383452902,-0.3471920372530086,0.525472588744156,-0.25992557465329214,0.08914027574557372,0.03094684954549373,0.030946849545493427,0.030946849545498978,0.030946849545487876,0.030946849545498978,0.030946849545493427,0.16779307447077102,0.15842400874148385,0.13358151823946562,0.12421245251015012,0.09936996200814341,0.09000089627884553
0.07,2,0.002181432413965426,0.17671435761339838,-0.3468844179849005,0.5257802080122642,-0.259617955385184,0.0894478950136819,0.030761926810817984,0.030761926810818352,0.0307619268108128,0.030761926810818352,0.0307619268108128,0.030761926810818352,0.17954307699107097,0.16863591492124505,0.14234778944599402,0.1314406273761809,0.10515250190093361,0.09424533983111813
0.08,2,0.002486898871648548,0.1770198240710815,-0.34657895152721735,0.5260856744699474,-0.25931248892750086,0.08975336147136502,0.03054664576831222,0.030546645768311786,0.030546645768314562,0.030546645768314562,0.030546645768314562,0.030546645768311786,0.1911158921708786,0.17868139781263448,0.1509735805702428,0.13853908621200006,0.11083126896960005,0.09839677461135177
0.09,2,0.0027899110603922927,0.17732283625982523,-0.3462759393384736,0.5263886866586911,-0.2590094767387571,0.09005637366010877,0.030301218874374466,0.030301218874373426,0.030301218874373426,0.030301218874373426,0.030301218874373426,0.030301218874374813,0.2025000990388151,0.1885505437368501,0.15945037899770198,0.14550082369574058,0.11640065895659246,0.10245110365463404
0.1,2,0.0030901699437494742,0.17762309514318242,-0.3459756804551164,0.5266889455420483,-0.2587092178553999,0.09035663254346595,0.030025888335718152,0.030025888335719064,0.03002588833572184,0.03002588833571629,0.03002588833572184,0.030025888335717676,0.21368446275713343,0.19823361303838868,0.16776981915178957,0.1523189694330268,0.12185517554643366,0.10640432582767742
0.11,2,0.0033873792024529136,0.17792030440188586,-0.345678471196413,0.5269861548007517,-0.2584120085966965,0.09065384180216939,0.02972092587034394,0.029720925870344028,0.029720925870341253,0.029720925870346804,0.029720925870341253,0.029720925870344028,0.22465794570914838,0.20772104969688399,0.17592369074944048,0.1589867947371898,0.12718943578974073,0.11025253977748173
0.12,2,0.0036812455268467794,0.17821417072627974,-0.3453846048720191,0.5272800211251456,-0.2581181422723026,0.09094770812656325,0.029386632439386575,0.02938663243938766,0.02938663243938766,0.02938663243938766,0.02938663243938766,0.029386632439386273,0.2354097183920309,0.21700349075780057,0.1839039469038728,0.16549771926963885,0.13239817541571108,0.11399194778147416
0.13,2,0.003971478906347806,0.17850440410578075,-0.3450943714925181,0.5275702545046467,-0.2578279088928016,0.09123794150606428,0.029023337950102694,0.02902333795010148,0.02902333795010148,0.02902333795010703,0.02902333795010148,0.029023337950102868,0.24592917010422033,0.22607177557247754,0.19170271206568779,0.17184531753396404,0.13747625402715902,0.11761885949542278
0.14,2,0.004257792915650727,0.17879071811508368,-0.3448080574832152,0.5278565685139496,-0.2575415948834987,0.0915242555153672,0.02863140093029206,0.028631400930292927,0.028631400930290152,0.028631400930290152,0.028631400930290152,0.028631400930292927,0.25620591941690524,0.2349169548386544,0.1993122897952465,0.17802332521699438,0.1424186601735944,0.12112969559534684
0.15,2,0.004539904997395467,0.1790728301968284,-0.3445259454014704,0.5281386805956942,-0.2572594828017539,0.09180636759711194,0.028211208174474048,0.028211208174472313,0.028211208174477864,0.028211208174466762,0.028211208174477864,0.0282112081744737,0.26622982441924087,0.24353029943225787,0.20672517035805915,0.1840256453710526,0.1472205162968654,0.12452099130987944
0.16,2,0.004817536741017154,0.1793504619404501,-0.34424831365784875,0.528416312339316,-0.25698185105813226,0.09208399934073362,0.027763174362168633,0.02776317436216924,0.027763174362166465,0.027763174362172016,0.027763174362166465,0.027763174362167853,0.2759909927271921,0.2519033090221079,0.2139340381359306,0.18984635443085873,0.15187708354467588,0.12778939983959292
0.17,2,0.005090414157503713,0.17962333935693667,-0.3439754362413622,0.5286891897558025,-0.2567089736416457,0.09235687675722018,0.027287741648655914,0.027287741648657216,0.027287741648657216,0.027287741648651664,0.027287741648657216,0.027287741648655828,0.2854797912461163,0.26002772045860184,0.22093177884675463,0.19547970805922077,0.15638376644738883,0.13093169565986723
0.18,2,0.005358267949789967,0.17989119314922292,-0.34370758244907595,0.5289570435480888,-0.25644111984935947,0.09262473054950644,0.026785379228625415,0.026785379228624895,0.02678537922862212,0.02678537922863322,0.02678537922862212,0.026785379228626283,0.29468685567747493,0.26789551592852356,0.22771148656525353,0.20092014681633297,0.16073611745304306,0.1339447777041021
0.19,2,0.005620833778521306,0.18015375897795424,-0.3434450166203446,0.5292196093768201,-0.2561785540206281,0.09288729637823778,0.026256582873133896,0.026256582873132595,0.02625658287313537,0.02625658287312982,0.02625658287313537,0.026256582873133982,0.3036030997602539,0.2754989308676431,0.23426647053847727,0.20616230164585692,0.16492984131669663,0.1368256724240876
0.2,2,0.0058778525229247315,0.18041077772235767,-0.3431879978759412,0.5294766281212235,-0.2559215352762247,0.09314431512264121,0.025701874440342554,0.025701874440342554,0.025701874440342554,0.025701874440342554,0.025701874440342554,0.025701874440342554,0.3122197242380169,0.28283046162339287,0.240590261788598,0.2112009991739744,0.1689607993391795,0.13957153672455613
0.21,2,0.006129070536529764,0.1806619957359627,-0.3429367798623361,0.5297278461348286,-0.25567031726261963,0.09339553313624624,0.025121801360503213,0.025121801360503127,0.025121801360505902,0.025121801360505902,0.025121801360505902,0.025121801360503127,0.3205282255427002,0.28988287286005066,0.24667661949715813,0.21603126681450924,0.1728250134516074,0.14217966076895272
0.22,2,0.006374239897486897,0.18090716509691984,-0.342691610501379,0.5299730154957857,-0.2554251479016625,0.09364070249720337,0.024516936095713305,0.02451693609571426,0.02451693609571426,0.024516936095708708,0.02451693609571426,0.02451693609571287,0.32852040418661577,0.2966492046991841,0.2525195371638933,0.22064833767644343,0.17651867014116696,0.14464747065372915
0.23,2,0.006613118653236518,0.18114604385266947,-0.3424527317456294,0.5302118942515354,-0.2551862691459129,0.093879581252953,0.02388787557496214,0.023887875574962747,0.023887875574957196,0.023887875574968298,0.023887875574957196,0.023887875574962747,0.33618837285434716,0.30312277958816647,0.2581132485344878,0.22504765526833448,0.18003812421464427,0.14697253094847332
0.24,2,0.006845471059286887,0.18137839625871982,-0.342220379339579,0.5304442466575857,-0.2549539167398625,0.09411193365900336,0.023235240605036858,0.023235240605035123,0.023235240605040675,0.023235240605035123,0.023235240605040675,0.02323524060503651,0.34352456418658606,0.3092972088901459,0.2634522332912087,0.22922487799476032,0.18337990239581936,0.1491525470993763
0.25,2,0.007071067811865476,0.18160399301129843,-0.34199478258700045,0.5306698434101643,-0.25472831998728396,0.09433753041158195,0.02255967525785895,0.022559675257860512,0.02255967525785496,0.022559675257860512,0.02255967525785496,0.022559675257859124,0.3505217382481959,0.31516639918887324,0.2685312225006009,0.23317588344128892,0.18654070675301893,0.15118536769370042
0.26,2,0.007289686274214116,0.18182261147364706,-0.3417761641246518,0.5308884618725129,-0.2545097015249353,0.09455614887393059,0.02186184623486397,0.021861846234863536,0.02186184623486631,0.02186184623486076,0.02186184623486631,0.021861846234863536,0.3571729896731566,0.3207245583020846,0.2733452038135892,0.23689677244250473,0.1895174179540149,0.15306898658293877
0.27,2,0.0075011106963045965,0.18203403589573755,-0.3415647397025613,0.5310998862946034,-0.2542982771028448,0.09476757329602108,0.02114244220904806,0.02114244220904893,0.02114244220904893,0.021142442209043377,0.02114244220904893,0.02114244220904893,0.36347175447932806,0.3259662009978079,0.2778894264117604,0.24038387293022212,0.1923070983441899,0.1548015448626669
0.28,2,0.007705132427757892,0.18223805762719084,-0.341360717971108,0.5313039080260568,-0.2540942553713915,0.09497159502747436,0.02040217314532959,0.02040217314532855,0.02040217314532855,0.020402173145339653,0.02040217314532855,0.02040217314532855,0.36941181654630445,0.33088615440751173,0.282159405696058,0.24363374355729772,0.19490699484581486,0.15638133270702542
0.29,2,0.007901550123756903,0.18243447532318985,-0.34116430027510897,0.5315003257220557,-0.2538978376753925,0.09516801272347337,0.01964176959990101,0.01964176959990127,0.019641769599904046,0.019641769599898495,0.019641769599904046,0.01964176959990127,0.3749873137499791,0.3354795631311953,0.286150927712468,0.24664317709366945,0.19731454167494666,0.15780679105615605
0.3,2,0.008090169943749474,0.18262309514318242,-0.34097568045511645,0.5316889455420483,-0.25370921785539996,0.09535663254346595,0.018861981999257135,0.018861981999257482,0.01886198199925193,0.01886198199925193,0.01886198199925193,0.018861981999257482,0.38019274374775036,0.3397418940290041,0.28986005331061326,0.24940920359186602,0.19952736287349282,0.1590765131547571
0.31,2,0.008270805742745618,0.18280373094217856,-0.34079504465612026,0.5318695813410445,-0.2535285820564038,0.0955372683424621,0.018063579899614372,0.018063579899613158,0.01806357989961871,0.01806357989961871,0.01806357989961871,0.018063579899614546,0.38502296940866787,0.3436689406949357,0.2932831220314158,0.25192909331768765,0.20154327465415012,0.1601892459404134
0.32,2,0.00844327925502015,0.1829762044544531,-0.34062257114384575,0.532042054853319,-0.25335610854412927,0.09570974185473663,0.017247351227453293,0.017247351227453467,0.01724735122745069,0.017247351227456242,0.01724735122745069,0.017247351227453467,0.3894732238831659,0.34725682760806537,0.296416755719231,0.25420035944414554,0.20336028755530422,0.16114389128020928
0.33,2,0.008607420270039436,0.1831403454694724,-0.3404584301288265,0.5322061958683383,-0.25319196752911,0.09587388286975591,0.016414101501928575,0.01641410150192979,0.016414101501927014,0.016414101501927014,0.016414101501927014,0.016414101501928402,0.3935391153073632,0.35050201395716973,0.2992578618559999,0.2562207605058042,0.20497660840464227,0.1619395070544484
0.34,2,0.008763066800438637,0.1832959919998716,-0.34030278359842725,0.5323618423987374,-0.25303632099871076,0.0960295294001551,0.015564653039920086,0.015564653039920606,0.015564653039923382,0.01556465303991228,0.015564653039923382,0.015564653039919218,0.39721663113730576,0.3534012971351144,0.30180363661296783,0.25798830261074546,0.20639064208861968,0.1625753080864179
0.35000000000000003,2,0.008910065241883678,0.18344299044131662,-0.3401557851569822,0.5325088408401825,-0.2528893225572657,0.09617652784160015,0.014699844144504086,0.014699844144502872,0.014699844144505647,0.014699844144505647,0.014699844144505647,0.01469984414450426,0.40050214210885937,0.35595181589943725,0.3040515676177752,0.2595012414083553,0.20760099312668534,0.16305066691726364
0.36,2,0.009048270524660196,0.18358119572409315,-0.3400175798742057,0.532647046122959,-0.25275111727448923,0.09631473312437668,0.01382052827765181,0.013820528277652677,0.013820528277647126,0.013820528277652677,0.013820528277647126,0.013820528277652677,0.40339240581936325,0.3581510531960651,0.305999436433923,0.26075808381063603,0.20860646704849772,0.16336511442520837
0.37,2,0.009177546256839812,0.18371047145627276,-0.3398883041420261,0.5327763218551387,-0.2526218415423096,0.09644400885655628,0.012927573217961542,0.012927573217960675,0.01292757321796345,0.012927573217969002,0.01292757321796345,0.012927573217960675,0.40588456992747707,0.3599968386432753,0.30764532075010287,0.2617575894659191,0.20940607157272306,0.16351834028851847
0.38,2,0.009297764858882514,0.18383069005831545,-0.3397680855399834,0.5328965404571814,-0.2525016229402669,0.096564227458599,0.012021860204270221,0.012021860204269874,0.012021860204269874,0.012021860204269874,0.012021860204269874,0.012021860204271262,0.4079761749681112,0.36148735067369736,0.3089875962771499,0.26249877198273874,0.20999901758618988,0.16351019329178035
0.39,2,0.009408807689542255,0.1839417328889752,-0.3396570427093236,0.533007583287841,-0.25239058010960713,0.09667527028925874,0.011104283065974108,0.011104283065974108,0.011104283065976883,0.011104283065965781,0.011104283065976883,0.011104283065974108,0.4096651567796125,0.362621118331901,0.3100249383512105,0.26298089990346996,0.21038471992279928,0.16334068147508213
0.4,2,0.009510565162951536,0.1840434903623845,-0.3395552852359144,0.5331093407612504,-0.2522888226361979,0.09677702776266801,0.010175747340928146,0.010175747340929187,0.010175747340923635,0.010175747340934738,0.010175747340923635,0.010175747340927799,0.41094984854084593,0.3633970227260914,0.31075632324085445,0.26320349742612603,0.2105627979408775,0.1630099721261287
0.41000000000000003,2,0.00960293685676943,0.1841358620562024,-0.33946291354209646,0.5332017124550682,-0.25219645094237997,0.0968693994564859,0.009237169381789458,0.009237169381789978,0.009237169381792754,0.009237169381781651,0.009237169381792754,0.00923716938178859,0.41182898241614563,0.3638142981323003,0.31118102915756507,0.26316634487368873,0.2105330758989743,0.16251839161511855
0.42,2,0.00968583161128631,0.18421875681071925,-0.33938001878757956,0.5332846072095851,-0.2521135561878631,0.09695229421100278,0.008289475451687955,0.008289475451686568,0.008289475451689343,0.008289475451694894,0.008289475451689343,0.008289475451687955,0.4123016908065163,0.36387253275008036,0.31129863696781335,0.26286947891139556,0.21029558312910535,0.1618664250726705
0.43,2,0.009759167619387473,0.18429209281882042,-0.3393066827794784,0.5333579432176863,-0.2520402201797619,0.09702563021910394,0.007333600810116234,0.007333600810116581,0.007333600810116581,0.0073336008101110295,0.007333600810116581,0.007333600810116581,0.4123675072058476,0.36357166910891126,0.3111090306069164,0.26231319250996366,0.20985055400798314,0.16105471591104523
0.44,2,0.009822872507286886,0.18435579770671984,-0.33924297789157903,0.5334216481055857,-0.25197651529186255,0.09708933510700336,0.006370488789941321,0.006370488789941842,0.0063704887899362905,0.006370488789941842,0.0063704887899362905,0.006370488789941842,0.41202636666129944,0.3629120041248667,0.3106123971934466,0.26149803465702615,0.20919842772560981,0.16008406518918702
0.45,2,0.009876883405951378,0.18440980860538433,-0.3391889669929145,0.5334756590042502,-0.251922504393198,0.09714334600566785,0.005401089866449195,0.005401089866449715,0.005401089866452491,0.005401089866452491,0.005401089866452491,0.0054010898664483276,0.4112786058374027,0.3618941888076477,0.3098092268446728,0.2604248098149159,0.2083398478519327,0.15895543082216723
0.46,2,0.009921147013144779,0.18445407221257773,-0.3391447033857211,0.5335199226114435,-0.2518782407860046,0.09718760961286126,0.004426360719340071,0.0044263607193395504,0.0044263607193395504,0.004426360719333999,0.0044263607193395504,0.004426360719340938,0.4101249626838114,0.360519227618086,0.30870031219269234,0.25909457712695316,0.20727566170157474,0.1576699266358536
0.47000000000000003,2,0.0099556196460308,0.18448854484546376,-0.3391102307528351,0.5335543952443296,-0.2518437681531186,0.09722208224574727,0.0034472632886022037,0.0034472632886028975,0.0034472632886028975,0.0034472632886028975,0.0034472632886028975,0.0034472632886015098,0.4085665757070386,0.3587884774768871,0.3072867476024316,0.25750864937227613,0.20600691949782202,0.15622882126766496
0.48,2,0.009980267284282716,0.18451319248371567,-0.3390855831145832,0.5335790428825815,-0.2518191205148667,0.09724672988399918,0.0024647638251915766,0.0024647638251912296,0.002464763825188454,0.002464763825194005,0.002464763825188454,0.0024647638251912296,0.4066049828468834,0.35670364642546903,0.305569928091452,0.2556685916700524,0.20453487333603082,0.15463353691462312
0.49,2,0.009995065603657316,0.18452799080309026,-0.3390707847952086,0.5335938412019561,-0.2518043221954921,0.09726152820337379,0.0014798319374599578,0.0014798319374592639,0.0014798319374620394,0.0014798319374564883,0.0014798319374620394,0.0014798319374606517,0.40424211995867254,0.35426679194038385,0.3035515479533746,0.25357621993507273,0.2028609759480704,0.15288564792978104
0.5,2,0.01,0.18453292519943296,-0.3390658503988659,0.5335987755982988,-0.2517993877991494,0.09726646259971647,0.0004934396342684208,0.0004934396342692882,0.0004934396342692882,0.0004934396342748393,0.0004934396342692882,0.0004934396342679004,0.4014803189028053,0.3514803189028082,0.3012335990856735,0.2512335990856873,0.20098687926853875,0.1509868792685357
0.51,2,0.009995065603657316,0.18452799080309026,-0.3390707847952086,0.5335938412019561,-0.2518043221954921,0.09726152820337379,-0.0004934396342684208,-0.0004934396342692882,-0.0004934396342692882,-0.0004934396342748393,-0.0004934396342692882,-0.0004934396342679004,0.3983223052434874,0.3483469772251982,0.29861836902404626,0.24864304100574441,0.19891443280460774,0.14893910478632394
0.52,2,0.009980267284282716,0.18451319248371567,-0.3390855831145832,0.5335790428825815,-0.2518191205148667,0.09724672988399918,-0.0014798319374599578,-0.0014798319374592639,-0.0014798319374620394,-0.0014798319374564883,-0.0014798319374620394,-0.0014798319374606517,0.3947711955589288,0.34486985913751755,0.29570843868482577,0.24580710226342617,0.19664568181072983,0.14674434538931935
0.53,2,0.0099556196460308,0.18448854484546376,-0.3391102307528351,0.5335543952443296,-0.2518437681531186,0.09722208224574727,-0.0024647638251915766,-0.0024647638251912296,-0.002464763825188454,-0.002464763825194005,-0.002464763825188454,-0.0024647638251912296,0.39083049436565725,0.3410523961355047,0.2925066798179532,0.24272858158778388,0.1941828652702393,0.14440476704007948
0.54,2,0.009921147013144779,0.18445407221257773,-0.3391447033857211,0.5335199226114435,-0.2518782407860046,0.09718760961286126,-0.0034472632886022037,-0.0034472632886028975,-0.0034472632886028975,-0.0034472632886028975,-0.0034472632886028975,-0.0034472632886015098,0.3865040906599846,0.3368983555942587,0.2890162521728362,0.23941051710711092,0.19152841368568985,0.1419226786199687
0.55,2,0.009876883405951376,0.18440980860538433,-0.3391889669929145,0.5334756590042502,-0.251922504393198,0.09714334600566785,-0.004426360719340244,-0.0044263607193395504,-0.0044263607193395504,-0.004426360719333999,-0.0044263607193395504,-0.004426360719340938,0.38179625408003426,0.3324118370502799,0.2852406003801927,0.23585618335044967,0.18868494668034863,0.1393005296505887
0.56,2,0.009822872507286886,0.18435579770671984,-0.33924297789157903,0.5334216481055857,-0.25197651529186255,0.09708933510700336,-0.0054010898664490214,-0.005401089866449715,-0.005401089866452491,-0.005401089866452491,-0.005401089866452491,-0.0054010898664483276,0.37671163069212843,0.327597268155692,0.2811834505524746,0.23206908801604031,0.18565527041283225,0.1365409078764067
0.5700000000000001,2,0.009759167619387474,0.18429209281882042,-0.3393066827794784,0.5333579432176863,-0.2520402201797619,0.09702563021910394,-0.006370488789941148,-0.006370488789941842,-0.0063704887899362905,-0.006370488789941842,-0.0063704887899362905,-0.006370488789941842,0.37125523840567554,0.322459400308736,0.27684880660678424,0.22805296850983148,0.1824423748078774,0.13364653671092838
0.58,2,0.009685831611286312,0.18421875681071925,-0.33938001878757956,0.5332846072095851,-0.2521135561878631,0.09695229421100279,-0.007333600810116234,-0.007333600810116581,-0.007333600810116581,-0.0073336008101110295,-0.007333600810116581,-0.007333600810115193,0.3654324620211038,0.3170033039646709,0.27224094631329854,0.22381178825688075,0.1790494306054935,0.1306202725490644
0.59,2,0.00960293685676943,0.1841358620562024,-0.33946291354209646,0.5332017124550682,-0.25219645094237997,0.0968693994564859,-0.008289475451688129,-0.008289475451686568,-0.008289475451689343,-0.008289475451694894,-0.008289475451689343,-0.008289475451689343,0.3592490479157129,0.3112343636318707,0.26736441707385983,0.21934973278999736,0.1754797862320101,0.12746510194816268
0.6,2,0.009510565162951536,0.1840434903623845,-0.3395552852359144,0.5331093407612504,-0.2522888226361979,0.09677702776266801,-0.009237169381789458,-0.009237169381789978,-0.009237169381792754,-0.009237169381781651,-0.009237169381792754,-0.00923716938178859,0.3527110983726931,0.30515827255793393,0.2622240314340635,0.21467120561933506,0.17173696449544473,0.12418413868069592
0.61,2,0.009408807689542255,0.1839417328889752,-0.3396570427093236,0.533007583287841,-0.25239058010960713,0.09667527028925874,-0.010175747340928146,-0.010175747340929187,-0.010175747340923635,-0.010175747340934738,-0.010175747340923635,-0.010175747340927799,0.34582506555890574,0.29878102711119114,0.2568248623339592,0.20978082388621866,0.16782465910899824,0.12078062066127832
0.62,2,0.009297764858882515,0.18383069005831545,-0.3397680855399834,0.5328965404571814,-0.2525016229402669,0.096564227458599,-0.011104283065973934,-0.011104283065974108,-0.011104283065976883,-0.011104283065965781,-0.011104283065976883,-0.011104283065974108,0.3385977451573788,0.2921089208629654,0.251172238101533,0.2046834138071496,0.16374673104569637,0.11725790675128961
0.63,2,0.009177546256839813,0.18371047145627276,-0.3398883041420261,0.5327763218551387,-0.2526218415423096,0.09644400885655628,-0.012021860204270221,-0.012021860204269874,-0.012021860204269874,-0.012021860204269874,-0.012021860204269874,-0.012021860204271262,0.33103626966078187,0.28514853837658366,0.24527173719451956,0.1993840059103219,0.1595072047282564,0.1136194734440546
0.64,2,0.009048270524660194,0.18358119572409315,-0.3400175798742057,0.532647046122959,-0.25275111727448923,0.09631473312437666,-0.01292757321796189,-0.012927573217960675,-0.01292757321796345,-0.012927573217969002,-0.01292757321796345,-0.012927573217962063,0.3231481013325221,0.27790674870922505,0.23912918269489658,0.19388783007158183,0.15511026405727657,0.1098689114339787
0.65,2,0.00891006524188368,0.18344299044131662,-0.3401557851569822,0.5325088408401825,-0.2528893225572657,0.09617652784160015,-0.013820528277651463,-0.013820528277652677,-0.013820528277647126,-0.013820528277652677,-0.013820528277647126,-0.01382052827765129,0.31494102484239284,0.2703906986329706,0.23275063656239325,0.18820031035295948,0.1505602482823798,0.10600992207295254
0.66,2,0.008763066800438635,0.1832959919998716,-0.34030278359842725,0.5323618423987374,-0.25303632099871076,0.0960295294001551,-0.014699844144504433,-0.014699844144502872,-0.014699844144505647,-0.014699844144505647,-0.014699844144505647,-0.01469984414450426,0.3064231395840321,0.262607805581844,0.22614239365189526,0.18232705964970064,0.14586164771976162,0.10204631371757095
0.67,2,0.008607420270039436,0.1831403454694724,-0.3404584301288265,0.5322061958683383,-0.25319196752911,0.09587388286975591,-0.015564653039919912,-0.015564653039920606,-0.015564653039923382,-0.01556465303991228,-0.015564653039923382,-0.015564653039919218,0.29760285168181777,0.25456575033161855,0.2193109755013739,0.176273874151206,0.14101909932094148,0.09798199797075316
0.68,2,0.00844327925502015,0.1829762044544531,-0.34062257114384575,0.532042054853319,-0.25335610854412927,0.09570974185473663,-0.016414101501928575,-0.01641410150192979,-0.016414101501927014,-0.016414101501927014,-0.016414101501927014,-0.016414101501928402,0.2884888656950203,0.2462724694199156,0.21226312389578672,0.1700467276206874,0.1360373820965488,0.09382098582144555
0.6900000000000001,2,0.008270805742745618,0.18280373094217856,-0.34079504465612026,0.5318695813410445,-0.2535285820564038,0.0955372683424621,-0.017247351227453293,-0.017247351227453467,-0.01724735122745069,-0.017247351227456242,-0.01724735122745069,-0.017247351227453467,0.27909017602746483,0.23773614731373582,0.20500579421374232,0.16365176550000027,0.13092141240001132,0.08956738368627738
0.7000000000000001,2,0.008090169943749474,0.18262309514318242,-0.34097568045511645,0.5316889455420483,-0.25370921785539996,0.09535663254346595,-0.018063579899614372,-0.018063579899613158,-0.01806357989961871,-0.01806357989961871,-0.01806357989961871,-0.018063579899614546,0.26941605805113583,0.2289652083323922,0.19754614856343666,0.15709529884468942,0.12567623907575154,0.08522538935701304
0.71,2,0.007901550123756906,0.18243447532318985,-0.34116430027510897,0.5315003257220557,-0.2538978376753925,0.09516801272347337,-0.01886198199925679,-0.018861981999257482,-0.01886198199925193,-0.01886198199925193,-0.01886198199925193,-0.018861981999257482,0.2594760589525059,0.21996830833371905,0.18989154871457803,0.1503837980957934,0.12030703847663471,0.08079928785783855
0.72,2,0.007705132427757892,0.18223805762719084,-0.341360717971108,0.5313039080260568,-0.2540942553713915,0.09497159502747436,-0.019641769599901358,-0.01964176959990127,-0.019641769599904046,-0.019641769599898495,-0.019641769599904046,-0.01964176959990127,0.2492799883106116,0.21075432617182227,0.18204954883297653,0.14352388669420235,0.11481910935534967,0.07629344721656578
0.73,2,0.0075011106963045965,0.18203403589573755,-0.3415647397025613,0.5310998862946034,-0.2542982771028448,0.09476757329602108,-0.02040217314532959,-0.02040217314532855,-0.02040217314532855,-0.020402173145339653,-0.02040217314532855,-0.02040217314532855,0.23883790841619512,0.20133235493467544,0.1740278880258167,0.13652233454426455,0.10921786763543495,0.07171231415391194
0.74,2,0.007289686274214114,0.18182261147364706,-0.3417761641246518,0.5308884618725129,-0.2545097015249353,0.09455614887393059,-0.021142442209048234,-0.02114244220904893,-0.02114244220904893,-0.021142442209043377,-0.02114244220904893,-0.02114244220904893,0.22816012434141988,0.19171169297034718,0.16583448270380108,0.1293860513327444,0.10350884106618441,0.06706040969511384
0.75,2,0.007071067811865476,0.18160399301129843,-0.34199478258700045,0.5306698434101643,-0.25472831998728396,0.09433753041158195,-0.021861846234863796,-0.021861846234863536,-0.02186184623486631,-0.02186184623486076,-0.02186184623486631,-0.021861846234863536,0.21725717377002768,0.18190183471070112,0.15747741876879773,0.12212207970948574,0.09769766376757638,0.0623423247082551
0.76,2,0.0068454710592868884,0.18137839625871985,-0.342220379339579,0.5304442466575857,-0.2549539167398625,0.09411193365900336,-0.022559675257858777,-0.022559675257857736,-0.02255967525785496,-0.022559675257860512,-0.02255967525785496,-0.022559675257859124,0.2061398165978992,0.1719124613014683,0.14896494363396962,0.11473758833752123,0.09179007067002809,0.05756271537358505
0.77,2,0.006613118653236518,0.18114604385266947,-0.3424527317456294,0.5302118942515354,-0.2551862691459129,0.093879581252953,-0.02323524060503703,-0.0232352406050379,-0.023235240605040675,-0.023235240605035123,-0.023235240605040675,-0.02323524060503651,0.19481902431434966,0.16175343104816456,0.14030545808449313,0.10723986481832593,0.08579189185464853,0.0527262985884748
0.78,2,0.0063742398974868985,0.18090716509691984,-0.342691610501379,0.5299730154957857,-0.2554251479016625,0.09364070249720337,-0.023887875574961966,-0.023887875574962747,-0.023887875574957196,-0.023887875574968298,-0.023887875574957196,-0.023887875574962747,0.18330596917459002,0.15143476968715305,0.13150750798721467,0.09963630849975091,0.07970904679982405,0.04783784731237792
0.79,2,0.006129070536529764,0.1806619957359627,-0.3429367798623361,0.5297278461348286,-0.25567031726261963,0.09339553313624624,-0.02451693609571348,-0.02451693609571426,-0.02451693609571426,-0.024516936095708708,-0.02451693609571426,-0.02451693609571287,0.17161201317405012,0.14096666049139853,0.12257977585660773,0.09193442317397271,0.07354753853916707,0.04290218585652074
0.8,1,0.0,0.17453292519943295,-0.3490658503988659,0.5235987755982988,-0.2617993877991494,0.08726646259971647,-0.6129070536529764,-0.6129070536529752,-0.6129070536529779,-0.6129070536529779,-0.6129070536529779,-0.6129070536529765,-1.8387211609589291,-1.8387211609589253,-1.5322676341324448,-1.5322676341324448,-1.2258141073059559,-1.225814107305953
0.81,1,-0.00021167841656840892,0.17436358246617822,-0.34893884334892483,0.5237469504898967,-0.2616935485908652,0.08718179123308911,-0.02116784165684089,-0.01693427332547237,0.01270070499410636,0.014817489159790753,0.010583920828421967,-0.008467136662736185,-0.07197066163325902,-0.05672981564033244,0.03556197398349781,0.04074809518942457,0.023284625822528326,-0.0182043438248828
0.8200000000000001,1,-0.0008385721887133121,0.1738620674484623,-0.3485627070856379,0.5241857761303982,-0.26138010170479276,0.08693103372423115,-0.06268937721449032,-0.050151501771592,0.03761362632869192,0.04388256405014612,0.031344688607243265,-0.025075750885796,-0.22161101919200346,-0.17393452659874853,0.10912836521856928,0.12438142342784952,0.07107509910161958,-0.05518293490387183
0.8300000000000001,1,-0.001868469100094225,0.17303814991935756,-0.3479447689388094,0.5249067039683648,-0.2608651532491023,0.08651907495967878,-0.10298969113809127,-0.08239175291047396,0.06179381468285339,0.07209278379666229,0.05149484556904449,-0.04119587645523698,-0.3837078374180428,-0.2994923935340603,0.18811698050882897,0.2129301687433055,0.12167438213903092,-0.09360256751103933
0.84,1,-0.0032891569343706435,0.17190159965193644,-0.3470923562382435,0.5259011854523583,-0.2601548093319641,0.08595079982596822,-0.14206878342764184,-0.1136550267421127,0.08524127005658522,0.09944814839935034,0.07103439171382009,-0.05682751337105635,-0.5577726276577513,-0.43306147438871595,0.2723079999601341,0.30618061734986324,0.17496035277134614,-0.13338996834833652
0.85,1,-0.005088423475202115,0.17046218641927124,-0.34601279631374465,0.5271606720309403,-0.25925517606154835,0.08523109320963562,-0.1799266540831472,-0.14394132326651932,0.1079559924498874,0.1259486578581992,0.08996332704157561,-0.07197066163325966,-0.7433169012575263,-0.5742998271052175,0.3614816036783558,0.40391905546153517,0.2308108888351723,-0.17447186411773208
0.86,1,-0.00725405650624814,0.16872967999443444,-0.344713416495117,0.5286766151526725,-0.25817235954602535,0.08436483999721722,-0.21656330310460242,-0.17325064248367994,0.1299379818627655,0.15159431217321995,0.10828165155229996,-0.08662532124183997,-0.939852169563733,-0.7228655096259874,0.4554179717693807,0.505931769292392,0.289103868167081,-0.2167749815211687
0.87,1,-0.009773843811168236,0.16671385015049836,-0.34320154411216497,0.5304404662661166,-0.2569124658935653,0.08335692507524918,-0.2519787304920096,-0.20158298439360844,0.15118723829520286,0.1763851113444126,0.12598936524600424,-0.10079149219680422,-1.1468899439227582,-0.8784165798935359,0.553897284339035,0.6120050450564768,0.3497171686036904,-0.2602260472606178
0.88,1,-0.012635573173621914,0.16442446666053542,-0.34148450649469275,0.5324436768198342,-0.2554816012123384,0.08221223333026771,-0.2861729362453678,-0.22893834899629373,0.17170376174722168,0.20032105537175493,0.14308646812268844,-0.11446917449814686,-1.3639417356809802,-1.0406110958502945,0.6566997214932485,0.7219251689677714,0.4125286679815965,-0.30475178803802516
0.89,1,-0.01582703237726869,0.161871299297618,-0.3395696309725047,0.5346776982623869,-0.25388587161051507,0.080935649648809,-0.31914592036467754,-0.25531673629174134,0.1914875522188053,0.22340214425526916,0.1595729601823359,-0.12765836814587067,-1.5905190561847802,-1.209107115438747,0.7636054633378492,0.8354784272403742,0.4774162441373586,-0.35027893055535336
0.9,1,-0.019336009205768077,0.1590641178348185,-0.33746424487540505,0.5371339820423364,-0.2521313831962654,0.07953205891740925,-0.3508976828499388,-0.2807181462799513,0.21053860970996485,0.2456283779949553,0.17544884142496886,-0.14035907313997564,-1.8261334167805394,-1.3835626966013597,0.8743946899787375,0.9524511060883284,0.5442577749076183,-0.3967342015145597
0.91,1,-0.023150291442779598,0.15601269204520926,-0.33517567553319816,0.5398039796082446,-0.2502242420777596,0.07800634602260463,-0.38142822370115204,-0.30514257896092356,0.2288569342206892,0.2669997565908133,0.19071411185057618,-0.15257128948046178,-2.0702963288146403,-1.5636358972805997,0.9888475815217551,1.0726294917256767,0.6129311381289482,-0.4440443276176012
0.92,1,-0.027257666871962755,0.15272679170186274,-0.33271125027568826,0.5426791424086728,-0.24817055436316804,0.07636339585093137,-0.41073754291831577,-0.3285900343346526,0.24644252575098946,0.28751628004282104,0.20536877145915788,-0.1642950171673263,-2.3225193036334577,-1.7489847754189154,1.1067443180728027,1.1957998703664012,0.6833142116379431,-0.4921360355664292
0.93,1,-0.03164592327697708,0.1492161865778513,-0.33007829643267966,0.5457509218921828,-0.24597642616066087,0.07460809328892565,-0.4388256405014324,-0.351060512401144,0.2632953843008601,0.30717794835100065,0.21941282025071673,-0.175530256200572,-2.5823138525833804,-1.9392673889587897,1.2278650797377373,1.3217485282246004,0.7552848732712042,-0.5409360520630064
0.9400000000000001,1,-0.03630284844148207,0.1454906464462473,-0.32728414133397665,0.5490107695073363,-0.24364796357840837,0.07274532322312365,-0.4656925164504992,-0.3725540131604005,0.27941550987030106,0.32598476151535216,0.23284625822524996,-0.18627700658020024,-2.8491914870107804,-2.1341417958427,1.35199004662243,1.4502617515143172,0.8287210008653206,-0.5903711038092929
0.9500000000000001,1,-0.041216230149137244,0.14155994108012315,-0.32433611230938353,0.5524501367026948,-0.2411912727245808,0.07077997054006158,-0.49133817076551717,-0.39307053661241376,0.2948029024593124,0.34393671953585336,0.24566908538275756,-0.19653526830620688,-3.122663718262041,-2.333266054013084,1.478899398832752,1.5811258264495338,0.9035004722568873,-0.6403679175072372
0.96,1,-0.046373856183602076,0.1374338402525513,-0.32124153668870464,0.5560604749268203,-0.23861245970734837,0.06871692012627564,-0.5157626034464832,-0.4126100827571866,0.30945756206788855,0.36103382241254867,0.2578813017232423,-0.2063050413785933,-3.402242057683533,-2.5362982214124177,1.6083733164745588,1.714127039244409,0.9795011652825053,-0.6908532198587991
0.97,1,-0.05176351432853617,0.13312211373660401,-0.3180077418017442,0.5598332356282741,-0.23591763063488133,0.06656105686830201,-0.5389658144934091,-0.4311726515947273,0.32337948869604616,0.37727607014538256,0.2694829072467042,-0.21558632579736364,-3.687438016621674,-2.742896355983195,1.7401919796537668,1.8490516761128395,1.05660095777877,-0.7417537375659443
0.98,1,-0.057372992367599,0.12863453130535374,-0.3146420549783065,0.5637598702556181,-0.2331128916153499,0.06431726565267687,-0.5609478039062831,-0.44875824312502754,0.3365686823437686,0.39266346273439945,0.28047390195314326,-0.22437912156251377,-3.977763106422809,-2.952718515667855,1.8741355684762033,1.9856860232689815,1.1346777275822766,-0.7929961973306217
0.99,1,-0.06319007808445007,0.12398086273187289,-0.3111518035481959,0.5678318302574139,-0.23020434875692436,0.061990431365936446,-0.5817085716851071,-0.4653668573480846,0.34902514301106136,0.40719600017957713,0.2908542858425539,-0.2326834286740423,-4.272728838433324,-3.1654227584088557,2.0099842630477536,2.12381636692682,1.2136093525296088,-0.844507325854785
1.0,1,-0.0692025592627489,0.11917087778923383,-0.3075443148412166,0.5720405670822231,-0.22719810816777497,0.05958543889461691,-0.6012481178298834,-0.48099849426390673,0.36074887069793005,0.4208736824809156,0.30062405891493893,-0.24049924713195336,-4.571846723999606,-3.3806671421486896,2.1475182434743045,2.263228993300395,1.2932737104573666,-0.8962138498404002
1.01,1,-0.07539822368615505,0.11421434625050891,-0.3038269161871729,0.5763775321786073,-0.22410027595607188,0.05710717312525446,-0.6195664423406146,-0.4956531538724912,0.3717398654043691,0.433696509638426,0.30978322117030943,-0.2478265769362456,-4.874628274468046,-3.598109724829815,2.286517689861713,2.4037101886037777,1.3735486792021696,-0.9480424959894215
1.02,1,-0.08176485913832796,0.10912103788877059,-0.30000693491586916,0.5808341769951284,-0.22091695822998542,0.054560518944385294,-0.6366635452172905,-0.5093308361738325,0.38199812713037296,0.44566448165210826,0.318331772608646,-0.25466541808691623,-5.1805850011849905,-3.81740856439468,2.4267627823158344,2.5450462390510102,1.4543121366005718,-0.9999199910038001
1.03,1,-0.08829025340292716,0.10390072247709123,-0.2960916983571096,0.5854019529803478,-0.21765426109768582,0.051950361238545614,-0.6525394264599207,-0.522031541167936,0.3915236558759583,0.4567775985219402,0.3262697132299597,-0.261015770583968,-5.489228415496848,-4.038221718785769,2.568033700942585,2.687023430856075,1.5354419604891911,-1.0517730615854988
1.04,1,-0.09496219426361217,0.09856316978854321,-0.2920885338406986,0.5900723115828274,-0.21431829066734331,0.049281584894271604,-0.6671940860685011,-0.533755268854802,0.4003164516410973,0.4670358602479552,0.33359704303425053,-0.266877634427401,-5.800070028749991,-4.260207245945547,2.710110625847762,2.8294280502331013,1.616816028704623,-1.103528434436475
1.05,1,-0.10176846950404256,0.09311814959619891,-0.28800476869644037,0.5948367042511286,-0.21091515304712813,0.046559074798099453,-0.6806275240430384,-0.5445020192344302,0.40837651442582334,0.47643926683011983,0.34031376202151853,-0.2722510096172151,-6.112621352290818,-4.483023203816482,2.852773737137324,2.972046383396043,1.6983122190834627,-1.1551128362586855
1.06,1,-0.1086968669078778,0.08757543167313071,-0.28384773025413923,0.5996865824338132,-0.2074509543452105,0.04378771583656536,-0.6928397403835246,-0.5542717923068193,0.4157038442301142,0.4849878182684675,0.3464198701917637,-0.27713589615340967,-6.426393897465687,-4.706327650341036,2.9958032149170855,3.1146647165590293,1.7798084094623057,-1.2064529937540862
1.07,1,-0.11573517425877738,0.08194478579241105,-0.2796247458435995,0.604613397579443,-0.20393180066976072,0.04097239289620552,-0.7038307350899581,-0.5630645880719667,0.4222984410539754,0.49268151456297593,0.35191536754497765,-0.28153229403598334,-6.740899175620969,-4.929778643461667,3.1389792392929308,3.257069335936044,1.861182477677729,-1.2574756336246309
1.08,1,-0.12287117934040084,0.07623598172711228,-0.2753431427946254,0.6096086011365794,-0.200363798128949,0.03811799086355614,-0.7136005081623459,-0.5708804065298764,0.428160304897407,0.49952035571364517,0.35680025408117155,-0.2854402032649382,-7.055648698103071,-5.153034241120853,3.282081990370732,3.3990465277411284,1.9423123015663513,-1.3081074825722814
1.09,1,-0.13009266993640772,0.0704587892503068,-0.27101024843702126,0.6146636445537842,-0.19675305283094555,0.0352293946251534,-0.722149059600688,-0.5777192476805484,0.43328943576041445,0.5055043417204752,0.3610745298003454,-0.2888596238402742,-7.370153976258374,-5.3757525012610605,3.4248916482563754,3.5403825781883227,2.023075758964768,-1.3582752672989944
1.1,1,-0.13738743383045746,0.06462297813506698,-0.26663339010059145,0.6197699792796191,-0.19310567088392067,0.03231148906753349,-0.7294763894049733,-0.5835811115239814,0.4376858336429812,0.5106334725834882,0.36473819470248803,-0.2917905557619907,-7.683926521433218,-5.597591481824753,3.5671883930556865,3.680863773491727,2.103350727709551,-1.4079057145067262
1.11,1,-0.1447432588062097,0.0587383181544652,-0.2622198951151401,0.6249190567626456,-0.18942775839604456,0.0293691590772326,-0.735582497575224,-0.5884659980601781,0.44134949854513494,0.514907748302651,0.3677912487876106,-0.29423299903008904,-7.996477844974059,-5.818209240754405,3.708752404874611,3.8202763998652967,2.183015085637318,-1.4569255508974361
1.12,1,-0.15214793264732382,0.0528145790815739,-0.2577770908104716,0.6301023284514254,-0.18572542147548748,0.02640728954078695,-0.7404673841114123,-0.5923739072891301,0.44428043046684795,0.5183271688779856,0.37023369205570755,-0.29618695364456504,-8.307319458227191,-6.037263835992457,3.8493638638189482,3.95840674352313,2.2619467105846534,-1.505261503173073
1.1300000000000001,1,-0.15958924313745945,0.046861530689465414,-0.25331230451639025,0.6353112457945205,-0.18200476623041967,0.023430765344732707,-0.7441310490135633,-0.5953048392108486,0.4464786294081369,0.5208917343095032,0.37206552450678165,-0.2976524196054243,-8.615962872539068,-6.254413325481409,3.9888029499946116,4.0950410906793,2.340023480388158,-1.5528402980356053
1.1400000000000001,1,-0.167054978060276,0.04088894275121216,-0.2488328635627003,0.640537260240492,-0.1782718987690114,0.02044447137560608,-0.7465734922816547,-0.5972587938253254,0.44794409536899615,0.5226014445971483,0.37328674614082735,-0.2986293969126627,-8.921919599256004,-6.469315767163703,4.1268498435074585,4.229965727547699,2.4171232728844148,-1.5995886621869815
1.1500000000000001,1,-0.17453292519943306,0.03490658503988653,-0.2443460952792061,0.6457718232379019,-0.17453292519943286,0.017453292519943264,-0.747794713915706,-0.5982357711325631,0.44867682834942024,0.5234562997409986,0.373897356957853,-0.29911788556628155,-9.22470114972444,-6.681629218981815,4.263284724463345,4.362966940342575,2.493123965910037,-1.6454333223291613
1.16,1,-0.18201087233858995,0.02892422732856101,-0.23985932699571194,0.6510063862353117,-0.17079395162985445,0.014462113664280504,-0.7477947139156893,-0.598235771132552,0.4486768283494147,0.5234562997409764,0.3738973569578419,-0.299117885566276,-9.523819035290666,-6.891011738878174,4.397887772968155,4.493831015277763,2.5679034373015828,-1.6903010051640917
1.17,1,-0.18947660726140655,0.022951639390307726,-0.23537988604202198,0.6562324006812834,-0.16706108416844612,0.011475819695153863,-0.7465734922816603,-0.5972587938253282,0.44794409536899615,0.5226014445971705,0.3732867461408329,-0.2986293969126641,-9.818784767301242,-7.097121384795368,4.530439169127808,4.622344238567541,2.6413395648957314,-1.7341184373937675
1.18,1,-0.19691791775154213,0.01699859099819928,-0.23091509974794064,0.6614413180243783,-0.16334042892337836,0.00849929549909964,-0.7441310490135578,-0.5953048392108445,0.4464786294081341,0.5208917343094921,0.3720655245067761,-0.29765241960542227,-10.109109857102357,-7.299616214675712,4.660719093048093,4.748292896425719,2.7133102265289732,-1.776812345720097
1.19,1,-0.20432259159265628,0.011074851925307938,-0.22647229544327216,0.6666245897131582,-0.15963809200282125,0.005537425962653969,-0.7404673841114151,-0.5923739072891343,0.44428043046684795,0.5183271688779856,0.37023369205571033,-0.29618695364456715,-10.394305816040497,-7.498154286461778,4.788507724834933,4.871463275066448,2.7836933000379838,-1.818309456845072
1.2,1,-0.21167841656840844,0.005190191944706213,-0.22205880045782087,0.6717736671961847,-0.15596017951494517,0.0025950959723531064,-0.7355824975752157,-0.5884659980601725,0.4413494985451294,0.514907748302651,0.3677912487876078,-0.29423299903008626,-10.673884155461984,-7.692393658095953,4.913585244594175,4.991641660703774,2.8523666632593003,-1.858536497470623
1.21,1,-0.21897318046245823,-0.0006456191705336289,-0.21768194212139097,0.6768800019220196,-0.1523127975679203,-0.00032280958526681447,-0.7294763894049788,-0.5835811115239842,0.4376858336429895,0.5106334725834882,0.36473819470248803,-0.2917905557619921,-10.947356386713265,-7.881992387520783,5.035731832431721,5.10861433955174,2.919208194029558,-1.8974201942987334
1.22,1,-0.2261946710584652,-0.006422811647339183,-0.2133490477637868,0.6819350453392244,-0.1487020522699168,-0.0032114058236695914,-0.7221490596006963,-0.5777192476805554,0.43328943576041723,0.5055043417204863,0.36107452980034815,-0.2888596238402777,-11.214234021140697,-8.066608532678691,5.154727668453416,5.222167597824357,2.9840957701853483,-1.9348872740313463
1.23,1,-0.23333067614008854,-0.01213161571263785,-0.2090674447148128,0.6869302488963608,-0.14513404972910515,-0.006065807856318925,-0.7136005081623348,-0.5708804065298667,0.42816030489739865,0.49952035571363407,0.356800254081166,-0.28544020326493336,-11.474028570090546,-8.245900151512078,5.270352932765089,5.332087721735634,3.046907269563217,-1.9708644633703978
1.24,1,-0.24036898349098818,-0.017762261593357587,-0.204844460304273,0.6918570640419905,-0.14161489605365532,-0.008881130796678793,-0.7038307350899636,-0.5630645880719737,0.42229844105398096,0.49268151456297593,0.3519153675449832,-0.28153229403598684,-11.726251544909417,-8.41952530196359,5.382387805472739,5.438160997499733,3.1075205699998483,-2.0052784890179027
1.25,1,-0.24729738089482334,-0.02330497951642571,-0.20068742186197192,0.6967069422246751,-0.13815069735173774,-0.011652489758212856,-0.6928397403835163,-0.5542717923068124,0.41570384423010864,0.4849878182684564,0.34641987019175813,-0.2771358961534062,-11.970414456943482,-8.58714204197549,5.490612466682091,5.540173711330548,3.16581354933175,-2.0380560776757526
1.26,1,-0.25410365613525376,-0.02874999970877004,-0.19660365671771365,0.7014713348929764,-0.13474755973152253,-0.01437499985438502,-0.6806275240430426,-0.544502019234433,0.4083765144258261,0.47643926683013094,0.3403137620215213,-0.2722510096172165,-12.206028817539279,-8.748408429490404,5.5948070964991325,5.6379121494422675,3.2216640853955805,-2.0691239560459556
1.27,1,-0.2607755969959388,-0.03408755239731806,-0.19260049220130265,0.706141693495456,-0.13141158930118002,-0.01704377619865903,-0.6671940860685011,-0.533755268854802,0.4003164516411001,0.4670358602479552,0.33359704303425053,-0.266877634427401,-12.432606138043052,-8.90298252245069,5.694751875029648,5.731162598048817,3.2749500560278886,-2.0984088508304346
1.28,1,-0.267300991260538,-0.03930786780899745,-0.18868525564254313,0.7107094694806754,-0.1281488921688804,-0.019653933904498724,-0.6525394264599249,-0.5220315411679388,0.3915236558759527,0.4567775985219402,0.32626971322996245,-0.2610157705839694,-12.649657929801295,-9.050522378798881,5.790226982379565,5.819711343364264,3.3255493390653053,-2.125837488731167
1.29,1,-0.27366762671271094,-0.044401176170735746,-0.18486527437123937,0.7151661142971965,-0.12496557444279394,-0.022200588085367873,-0.636663545217292,-0.5093308361738297,0.38199812713037573,0.44566448165210826,0.318331772608646,-0.25466541808691484,-12.856695704160314,-9.190686056477393,5.881012598654735,5.903344671602712,3.373339812344401,-2.151336596450095
1.3,1,-0.279863291136117,-0.04935770770946066,-0.1811478757171957,0.7195030793935807,-0.1218677422310909,-0.02467885385473033,-0.6195664423406078,-0.4956531538724912,0.3717398654043663,0.433696509638426,0.3097832211703039,-0.2478265769362456,-13.053230972466503,-9.32313161342875,5.966888903961022,5.981848868978112,3.4181993537017776,-2.1748329006891933
1.31,1,-0.2858757723144159,-0.054167692652099725,-0.1775403870102164,0.72371181621839,-0.11886150164194145,-0.027083846326049862,-0.601248117829889,-0.48099849426390673,0.36074887069793005,0.4208736824809267,0.3006240589149445,-0.24049924713195336,-13.238775246066304,-9.447517107595363,6.0476360784043095,6.055010221704596,3.460005840974048,-2.196253128150402
1.32,1,-0.291692858031267,-0.058821361225580626,-0.1740501355801057,0.7277837762201858,-0.11595295878351591,-0.029410680612790313,-0.5817085716851078,-0.46536685734809013,0.3490251430110697,0.40719600017957713,0.2908542858425539,-0.23268342867404507,-13.412840036306003,-9.563500596919745,6.123034302090479,6.122615015996116,3.4986371519977775,-2.2155240055356917
1.33,1,-0.29730233607032974,-0.06330894365683082,-0.17068444875666808,0.7317104108475296,-0.11314821976398454,-0.03165447182841541,-0.5609478039062754,-0.4487582431250192,0.336568682343763,0.39266346273438835,0.2804739019531377,-0.2243791215625096,-13.574936854532016,-9.67074013934429,6.192863755125343,6.184449538066741,3.533971164609573,-2.2325722595469975
1.34,1,-0.30269199421526394,-0.06762067017277817,-0.1674506538697076,0.7354831715489836,-0.11045339069151744,-0.03381033508638909,-0.5389658144934195,-0.4311726515947356,0.32337948869604893,0.37727607014539366,0.26948290724670976,-0.2155863257973678,-13.724577212090816,-9.768893792811596,6.256904617614872,6.240300074130603,3.565885756646059,-2.247324616886319
1.35,1,-0.3078496202497288,-0.07174677100035007,-0.16435607824902865,0.739093509773109,-0.10787457767428502,-0.035873385500175034,-0.5157626034464846,-0.41261008275718936,0.3094575620678941,0.36103382241253756,0.2578813017232423,-0.20630504137859468,-13.861272620328604,-9.857619615263973,6.314937069664853,6.289952910401597,3.594258805943772,-2.259707804255562
1.36,1,-0.31276300195738393,-0.07567747636647418,-0.16140804922443558,0.7425328769684676,-0.10541788682045744,-0.03783873818323709,-0.4913381707655151,-0.393070536612411,0.29480290245930685,0.34393671953586447,0.24566908538275756,-0.1965352683062055,-13.984534590591903,-9.936575664643984,6.366741291381176,6.333194333093881,3.6189681903393547,-2.2696485483567144
1.37,1,-0.317419927121889,-0.07940301649807821,-0.15861389412573254,0.7457927245836211,-0.10308942423820491,-0.039701508249039105,-0.46569251645050547,-0.37255401316040326,0.27941550987030384,0.32598476151535216,0.23284625822525273,-0.18627700658020163,-14.093874634227076,-10.005419998894101,6.41209746286976,6.369810628421438,3.639891787669395,-2.2770735758917366
1.3800000000000001,1,-0.32180818352690316,-0.08291362162208957,-0.15598094028272402,0.748864504067131,-0.10089529603569783,-0.041456810811044784,-0.4388256405014168,-0.35106051240113567,0.26329538430085175,0.30717794835098955,0.2194128202507084,-0.17553025620056784,-14.188804262580376,-10.063810675956695,6.450785764236386,6.399588082598279,3.6569074757704483,-2.2819096135625543
1.3900000000000001,1,-0.3259155589560864,-0.08619952196543615,-0.1535165150252141,0.7517396668675593,-0.0988416083211062,-0.043099760982718074,-0.41073754291832687,-0.32859003433465817,0.24644252575099224,0.28751628004283214,0.20536877145916344,-0.16429501716732908,-14.268834986998439,-10.111405753774392,6.482586375587035,6.422312981838593,3.6698931324791912,-2.2840833880711764
1.4000000000000001,1,-0.32972984119309784,-0.0892509477550453,-0.15122794568300724,0.7544096644334672,-0.09693446720260049,-0.04462547387752265,-0.38142822370114127,-0.30514257896091523,0.22885693422068643,0.2669997565907911,0.19071411185057063,-0.15257128948045762,-14.333478318827337,-10.147863290289484,6.507279477027476,6.4377716123561886,3.6787266356321195,-2.2835216261195024
1.41,1,-0.3332388180215971,-0.0920581292178447,-0.14912255958590767,0.7568659482134168,-0.09517997878835086,-0.04602906460892235,-0.3508976828499266,-0.2807181462799402,0.21053860970995653,0.2456283779949553,0.1754488414249633,-0.1403590731399701,-14.382245769413665,-10.172841343444539,6.524645248663638,6.4457502603653385,3.6832858630658976,-2.2801510544095223
1.42,1,-0.33643027722524405,-0.09461129658076226,-0.1472076840637195,0.7590999696559696,-0.09358424918652739,-0.04730564829038113,-0.319145920364694,-0.2553167362917552,0.19148755221881641,0.22340214425528027,0.159572960182347,-0.1276583681458776,-14.414648850103845,-10.185997971182097,6.534463870601433,6.44603521207997,3.6834486926171346,-2.2738983996432194
1.43,1,-0.33929200658769776,-0.09690068007072525,-0.14549064644624726,0.7611031802096873,-0.09215338450530053,-0.048450340035362624,-0.2861729362453713,-0.22893834899629928,0.17170376174722446,0.20032105537176603,0.14308646812268566,-0.11446917449814964,-14.430199072244026,-10.186991231444434,6.53651552294662,6.438412753714126,3.6790930021223494,-2.2646903885224856
1.44,1,-0.34181179389261784,-0.09891650991466125,-0.14397877406329523,0.7628670313231313,-0.09089349085284049,-0.049458254957330625,-0.2519787304920085,-0.20158298439360012,0.15118723829520286,0.1763851113444015,0.12598936524600424,-0.10079149219680006,-14.428407947180737,-10.175479182174097,6.530580385805127,6.422669171481815,3.6700966694181867,-2.2524537477493065
1.45,1,-0.3439774269236639,-0.1006490163394981,-0.1426793942446676,0.7643829744448635,-0.08981067433731746,-0.05032450816974905,-0.21656330310460548,-0.1732506424836855,0.12993798186276273,0.15159431217321995,0.10828165155230274,-0.08662532124184275,-14.408786986260372,-10.151119881313642,6.516438639282856,6.398590751597166,3.6563375723412443,-2.2371152040256685
1.46,1,-0.3457766934644953,-0.10208842957216327,-0.14159983432016876,0.7656424610234456,-0.08891104106690176,-0.051044214786081635,-0.17992665408314013,-0.14394132326651654,0.10795599244988463,0.1259486578582103,0.08996332704157006,-0.07197066163325827,-14.370847700829232,-10.113571386805418,6.493870463485625,6.365963780274194,3.637693588728093,-2.218601484053488
1.47,1,-0.3471973812987717,-0.10322497983958437,-0.1407474216196029,0.766636942507439,-0.08820069714976356,-0.051612489919792184,-0.14206878342764018,-0.11365502674210992,0.08524127005658522,0.09944814839933924,0.07103439171382009,-0.05682751337105496,-14.314101602233787,-10.062491756591935,6.462656038519353,6.324574543726852,3.614042596415357,-2.19683931453474
1.48,1,-0.3482272782101527,-0.10404889736868919,-0.14012948347277432,0.7673578703454057,-0.08768574869407306,-0.052024448684344596,-0.10298969113810008,-0.08239175291048229,0.06179381468285894,0.07209278379667339,0.05149484556905004,-0.04119587645524114,-14.238060201820408,-9.997539048615723,6.422575544489894,6.274209328169356,3.585262473239627,-2.1717554221713984
1.49,1,-0.34885417198229757,-0.10455041238640508,-0.1397533472094874,0.767796695985907,-0.08737230180800062,-0.05227520619320254,-0.06268937721448653,-0.050151501771589224,0.03761362632869192,0.04388256405013502,0.031344688607243265,-0.025075750885794612,-14.142235010935362,-9.918371320819098,6.373409161503085,6.214654419815544,3.551231097037462,-2.1432765336653743
1.5,1,-0.34906585039886595,-0.10471975511965978,-0.13962634015954636,0.767944870877505,-0.08726646259971643,-0.05235987755982989,-0.021167841656838382,-0.016934273325469595,0.012700704994103584,0.014817489159790753,0.010583920828419191,-0.008467136662734798,-14.026137540925154,-9.824646631144654,6.314937069664845,6.14569610487963,3.511826345645498,-2.1113293757186646
1.51,1,-0.34885780715202824,-0.1045533205221896,-0.139751166107649,0.7677992406047186,-0.0873704842231353,-0.0522766602610948,0.020804324683770803,0.016643459747017753,-0.012482594810264702,-0.014563027278635676,-0.01040216234188679,0.008321729873508876,-13.891899312029818,-9.718088221015737,6.248234041710845,6.068604056963906,3.467773746836508,-2.076503383165152
1.52,1,-0.34823926246512144,-0.10405848477266416,-0.14012229291979308,0.7673662593238838,-0.08767975656658869,-0.05202924238633208,0.061854468690680786,0.049483574952544074,-0.03711268121440736,-0.04329812808347988,-0.030927234345339005,0.024741787476272037,-13.744007092532815,-9.602248624165766,6.175525021336166,5.985941772930925,3.420538155960536,-2.039951999838184
1.53,1,-0.34721859391855514,-0.10324194993541114,-0.14073469404773284,0.7666517913412874,-0.08819009083987184,-0.05162097496770557,0.10206685465662946,0.08165348372530246,-0.061240112793975454,-0.0714467982596445,-0.05103342732831473,0.04082674186265123,-13.582543192772317,-9.477160178543636,6.096834408549053,5.897708397925602,3.3701190845289215,-2.0016580797860284
1.54,1,-0.3458041790927389,-0.10211041807475817,-0.14158334294322256,0.7656617009632161,-0.08889729825277994,-0.05105520903737908,0.14144148258162237,0.11315318606529706,-0.08486488954897176,-0.09900903780712955,-0.0707207412908098,0.05657659303264853,-13.407842715964689,-9.343057456400798,6.012312999796871,5.804050539605107,3.3166003083457705,-1.9616718884911362
1.55,1,-0.3440043955680824,-0.10067059125503293,-0.1426632130580165,0.7644018524959565,-0.08979719001510822,-0.050335295627516465,0.17997835246565397,0.14398268197252373,-0.10798701147939349,-0.12598484672595722,-0.08998917623282837,0.07199134098626186,-13.220240765326333,-9.200175029988737,5.922111591526999,5.705114805626549,3.2600656032151667,-1.9200436914359704
1.56,1,-0.3418276209249951,-0.09892917154056306,-0.1439692778438689,0.7628781102457953,-0.09088557733665188,-0.04946458577028153,0.2176774643087298,0.17414197144698662,-0.13060647858524066,-0.15237422501611642,-0.10883873215436629,0.08707098572349331,-13.020072444073614,-9.0487474715589,5.8263809801868085,5.601047803647122,3.2005987449412183,-1.8768237541029835
1.57,1,-0.3392822327438865,-0.09689286099567623,-0.14549651075253403,0.7610963385190194,-0.09215827142720615,-0.04844643049783812,0.25453881811085544,0.20363105448868296,-0.15272329086651326,-0.17817717267759603,-0.12726940905542633,0.10181552724434148,-12.807672855422894,-8.889009353362772,5.7252719622236725,5.491996141324024,3.1382835093280126,-1.8320623419746358
1.58,1,-0.3363766086051663,-0.0945683616847001,-0.14723988523576612,0.7590624016219153,-0.09361108349656623,-0.04728418084235005,0.29056241387201975,0.23244993109761275,-0.17433744832320852,-0.20339368971040717,-0.1452812069360085,0.11622496554880637,-12.583377102590593,-8.721195247651817,5.618935334084973,5.378106426314394,3.0732036721796465,-1.785809720533385
1.59,1,-0.33311912608924416,-0.09196237567196233,-0.14919437474531946,0.7567821638607697,-0.09523982475452734,-0.045981187835981166,0.3257482515922172,0.2605986012737774,-0.19544895095533477,-0.22802377611456093,-0.16287412579611138,0.1302993006368887,-12.347520288793113,-8.545539726677504,5.507521892218056,5.259525266275369,3.005443009300218,-1.7381161552616873
1.6,1,-0.3295181627765294,-0.08908160502179056,-0.15135495273294827,0.7542614895418694,-0.0970403064108847,-0.04454080251089528,0.36009633127147556,0.28807706501717684,-0.2160577987628809,-0.252067431890024,-0.180048165635735,0.14403853250858842,-12.10043751724675,-8.362277362691291,5.391182433070327,5.1363992688642055,2.935085296493824,-1.6890319116419994
1.61,1,-0.3255820962474318,-0.08593275179851247,-0.15371659265040685,0.751506242971501,-0.0990083396754335,-0.04296637589925623,0.3936066529097615,0.31488532232780975,-0.236163991745858,-0.2755246570368408,-0.19680332645488074,0.15744266116390487,-11.842463891167988,-8.171642727944661,5.270067753089126,5.008875041737953,2.862214309564557,-1.638607255156781
1.62,1,-0.32131930408236087,-0.08252251806645569,-0.15627426794944943,0.7485222884559514,-0.10113973575796899,-0.041261259033227846,0.42627921650709166,0.3410233732056775,-0.2557675299042578,-0.29839545155496694,-0.2131396082535486,0.17051168660283875,-11.57393451377316,-7.97387039468907,5.144328648721849,4.877099192553897,2.7869138243165117,-1.5868924512884872
1.6300000000000001,1,-0.3167381638617261,-0.07885760588994792,-0.15902295208183026,0.7453154903015071,-0.10343030586828635,-0.03942880294497396,0.4581140220634772,0.3664912176507773,-0.274868413238083,-0.3206798154444246,-0.2290570110317358,0.18324560882538865,-11.295184488278613,-7.769194935175998,5.014115916415862,4.741218328969146,2.70926761655379,-1.5339377655195792
1.6400000000000001,1,-0.3118470531659372,-0.07494471733331678,-0.16195761849930362,0.7418917128144549,-0.10587586121618081,-0.03747235866665839,0.4891110695788903,0.39128885566311333,-0.2934666417473364,-0.34237774870522486,-0.24455553478944653,0.19564442783155667,-11.006548917900817,-7.557850921656901,4.879580352618528,4.601379058640839,2.6293594620804788,-1.4797934633325096
1.6500000000000001,1,-0.30665434957540366,-0.07079055446088996,-0.16507324065362372,0.7382568203010814,-0.10847221301144758,-0.03539527723044498,0.5192703590533532,0.4154162872426828,-0.3115622154320097,-0.36348925133734555,-0.2596351795266766,0.2077081436213414,-10.708362905856088,-7.340072926383254,4.740872753777241,4.457727989226202,2.5472731367006833,-1.424509810209739
1.6600000000000001,1,-0.30116843067053506,-0.06640181933699507,-0.1683647919965449,0.7344166770676733,-0.11121517246388188,-0.033200909668497536,0.5485918904868603,0.4388735123894885,-0.32915513429211674,-0.38401432334080887,-0.27429594524343015,0.21943675619474426,-10.400961555360823,-7.116095521606515,4.598143916339338,4.31041172838234,2.4630924162184904,-1.3681370716337218
1.67,1,-0.29539767403174116,-0.061785214025959954,-0.17182724597982124,0.7303771474205176,-0.11410055078327883,-0.030892607012979977,0.5770756638793895,0.4616605311035117,-0.34624539832763535,-0.4039529647155704,-0.28853783193969473,0.23083026555175584,-10.084679969631479,-6.886153279578217,4.451544636752251,4.159576883766545,2.3769010764380223,-1.3107255130869353
1.68,1,-0.2893504572394312,-0.056947440592111986,-0.1754555760552072,0.7261440956659007,-0.1171241591794338,-0.028473720296055993,0.6047216792309962,0.4837773433847968,-0.36283300753859604,-0.42330517546169677,-0.3023608396154981,0.2418886716923984,-9.759853251884259,-6.650480772549683,4.301225711463271,4.005370063035803,2.288782893163316,-1.2523254000517903
1.69,1,-0.2830351578740149,-0.05189520109977896,-0.179244755674457,0.7217233861101092,-0.12028180886214196,-0.02594760054988948,0.6315299365416305,0.5052239492333028,-0.3789179619249794,-0.44207095557914355,-0.31576496827081524,0.2526119746166514,-9.426816505335704,-6.409312572772508,4.1473379369198184,3.8479378738474006,2.1988216421985185,-1.1929869980107866
1.7,1,-0.27646015351590186,-0.04663519761328852,-0.18318975828932482,0.7171208830594301,-0.12356931104119848,-0.02331759880664426,0.6575004358113035,0.5260003486490438,-0.39450026148678263,-0.46025030506791076,-0.32875021790565173,0.2630001743245219,-9.085904833202164,-6.162883252498119,3.9900321095692752,3.6874269238585056,2.107101099347715,-1.1327605724463674
1.71,1,-0.2696338217455016,-0.04117413219696832,-0.18728555735156496,0.7123424508201499,-0.1269824769263986,-0.02058706609848416,0.6826331770400262,0.5461065416320201,-0.4095799062240141,-0.4778432239280206,-0.3413165885200131,0.27305327081601005,-8.737453338699986,-5.911427383977984,3.829459025858993,3.523983820726226,2.01370504041499,-1.0716963888409894
1.72,1,-0.2625645401432238,-0.03551870691514607,-0.19152712631293164,0.7073939536985554,-0.13051711772753752,-0.017759353457573034,0.7069281602277822,0.5655425281822252,-0.4241568961366682,-0.49484971215945084,-0.3534640801138911,0.2827712640911126,-8.381797125045605,-5.65517953946359,3.6657694822363576,3.357755172107787,1.9187172412044555,-1.0098447126771175
1.73,1,-0.25526068628947796,-0.029675623832149375,-0.19590943862517918,0.7022812560009334,-0.13416904465441043,-0.014837811916074688,0.7303853853745823,0.5843083082996692,-0.43823123122475327,-0.5112697697622015,-0.36519269268729115,0.2921541541498346,-8.019271295455372,-5.394374291206374,3.4991142751487185,3.1888875856603605,1.8222214775201973,-0.9472558094371981
1.74,1,-0.24773063776467358,-0.02365158501230588,-0.2004274677400618,0.6970102220335703,-0.13793406891681262,-0.01182579250615294,0.7530048524804378,0.6024038819843494,-0.451802911488261,-0.5271033967363059,-0.3765024262402189,0.3012019409921747,-7.6502109531456295,-5.129246211457811,3.3296442010434704,3.017527669041023,1.7243015251662979,-0.8839799446036918
1.75,1,-0.23998277214922034,-0.017453292519943306,-0.20507618710933373,0.691586716102753,-0.14180800172453922,-0.008726646259971653,0.7747865615453237,0.6198292492362575,-0.4648719369271942,-0.5423505930817307,-0.38739328077266044,0.30991462461812874,-7.2749512013328435,-4.860029872469395,3.15751005636798,2.8438220299070283,1.625041159946883,-0.8200673836590643
1.76,1,-0.23202546702352778,-0.01108744841938926,-0.20985057018474926,0.6860166025147683,-0.14578665428738552,-0.00554372420969463,0.7957305125692565,0.6365844100554047,-0.4774383075415528,-0.557011358798476,-0.39786525628462965,0.31829220502770234,-6.893827143233342,-4.586959846492563,2.9828626375696174,2.6679172759155456,1.5245241576660185,-0.755568392085762
1.77,1,-0.2238670999680055,-0.0045607547749714344,-0.21474559041806263,0.6803057455759026,-0.14986583781514667,-0.0022803773874857172,0.8158367055522281,0.6526693644417825,-0.48950202333133686,-0.5710856938865638,-0.40791835277611543,0.32633468222089124,-6.507173882063537,-4.310270705778807,2.805852741095756,2.4899600147236853,1.4228342941278238,-0.6905332353662506
1.78,1,-0.215516048563063,0.0021200863489825583,-0.21975622126102812,0.6744600095924429,-0.1540413635176179,0.0010600431744912792,0.8351051404942494,0.6680841123953992,-0.5010630842965491,-0.5845735983459721,-0.41755257024712333,0.3340420561976996,-6.115326521039771,-4.030197022579566,2.6266311633937605,2.3100968539886715,1.3200553451363832,-0.6250121789829787
1.79,1,-0.2069806903891099,0.00894837288814504,-0.22487743616539999,0.6684852588706758,-0.15830904260459444,0.00447418644407252,0.8535358173953095,0.6828286539162481,-0.5121214904371868,-0.5974750721767119,-0.42676790869765335,0.34141432695812407,-5.718620163378468,-3.7469733691463323,2.44534870091101,2.128474401367644,1.2162710864957929,-0.5590554884184112
1.8,1,-0.19826940302655582,0.015917402778188303,-0.23010420858293243,0.6623873577168878,-0.1626646862858715,0.007958701389094151,0.8711287362554082,0.6969029890043262,-0.5226772417532444,-0.6097901153787944,-0.4355643681277055,0.3484514945021631,-5.317389912296008,-3.460834317730584,2.262156150094893,1.9452392645177394,1.1115652940101473,-0.4927134291550087
1.81,1,-0.18939056405581026,0.023020473954784765,-0.23543151196537979,0.656172170437366,-0.1671041057712443,0.011510236977392382,0.8878838970745567,0.7103071176596462,-0.5327303382447357,-0.6215187279521861,-0.44394194853727975,0.3551535588298231,-4.91197087100874,-3.172014440583748,2.077204307392744,1.7605380510962136,1.0060217434835428,-0.4260362666752152
1.82,1,-0.1803525510572828,0.030250884353606733,-0.24085431976449626,0.6498455613383968,-0.17162311227050803,0.015125442176803366,0.9038012998527467,0.7230410398821968,-0.5422807799116469,-0.6326609098969205,-0.45190064992637335,0.3615205199410984,-4.502698142733071,-2.880748309957327,1.8906439692519719,1.5745173687601477,0.8997242107200809,-0.35907426646149976
1.83,1,-0.17116374161138304,0.037601931910326514,-0.24636760543203612,0.6434133947262669,-0.1762175169934579,0.018800965955163257,0.9188809445899754,0.7351047556719781,-0.5513285667539863,-0.6432166612129864,-0.4594404722949863,0.36755237783598904,-4.089906830685395,-2.587270498102791,1.7026259321199277,1.3873238251667366,0.7927564715238578,-0.29187769399632013
1.84,1,-0.16183251329852058,0.04506691456061651,-0.2519663424197536,0.6368815349072632,-0.18088313114988913,0.022533457280308256,0.9331228312862455,0.7464982650289997,-0.5598736987717456,-0.6531859819003727,-0.46656141564312414,0.37324913251449987,-3.6739320380820866,-2.291815577271576,1.5133009924440053,1.1991040279731775,0.6852023016989572,-0.22449681476212358
1.85,1,-0.15236724369910487,0.052639130240149073,-0.257645504179403,0.6302558461876722,-0.18561576594959697,0.026319565120074537,0.946526959941571,0.7572215679532562,-0.5679161759649443,-0.6625688719591016,-0.4732634799707841,0.3786107839766281,-3.2551088681394815,-1.9946181197151671,1.3228199466715256,1.0100045848365795,0.5771454770494804,-0.15698189424137288
1.86,1,-0.1427763103935456,0.060311876884596466,-0.26340006416273853,0.6235421928737808,-0.1904112326023766,0.030155938442298233,0.9590933305559268,0.7672746644447392,-0.5754559983335517,-0.6713653313891399,-0.4795466652779634,0.3836373322223696,-2.833772424074043,-1.6959126976850594,1.1313335912499416,0.8201721034141989,0.4686697733795291,-0.08938319791653437
1.87,1,-0.13306809096225236,0.06807845242963106,-0.2692249958215145,0.6167464392718754,-0.19526534231802323,0.03403922621481553,0.9708219431293241,0.7766575545034599,-0.5824931658775956,-0.6795753601905319,-0.48541097156466206,0.38832877725172993,-2.410257809102122,-1.3959338834326864,0.9389927226265531,0.629753191363086,0.3598589664931995,-0.02175099127005431
1.8800000000000001,1,-0.12325096298563468,0.07593215481092522,-0.27511527260748514,0.6098744496882431,-0.20017390630633208,0.03796607740546261,0.9817127976617684,0.7853702381294153,-0.589027678597065,-0.6871989583632332,-0.4908563988308856,0.39268511906470766,-1.9849001264400816,-1.0949162492095246,0.7459481372487604,0.4388944563405246,0.25079683219457527,0.045864460215607306
1.8900000000000001,1,-0.1133333040441021,0.08386628196415127,-0.2810658679724046,0.6029320884291702,-0.20513273577709834,0.04193314098207564,0.991765894153257,0.7934127153226056,-0.5950595364919486,-0.6942361259072882,-0.4958829470766257,0.3967063576613028,-1.5580344793043137,-0.7930943672670416,0.5523506315639666,0.24774250600356496,0.1415671462877699,0.11341289105799301
1.9000000000000001,1,-0.10332349171806418,0.09187413182498161,-0.2870717553680274,0.5959252198009437,-0.2101376419401173,0.045937065912490804,1.0009812326037926,0.8007849860830335,-0.60058873956228,-0.7006868628226526,-0.5004906163018963,0.40039249304151675,-1.1299959709111898,-0.49070280985669656,0.35835100201945425,0.05644394800949071,0.03225368457684952,0.18084403577464847
1.9100000000000001,1,-0.0932299035879306,0.09994900232908849,-0.29312790824610757,0.5888597081098502,-0.2151844360051841,0.049974501164544244,1.0093588130133584,0.8074870504106879,-0.6056152878080145,-0.7065511691093485,-0.5046794065066806,0.40374352520534396,-0.7011197044771489,-0.18797614922999273,0.16410004506271325,-0.13485460998458598,-0.07705977713405532,0.24810762888310445
1.92,1,-0.08306091723411096,0.10808419141214418,-0.2992293000583993,0.5817414176621765,-0.22026892918209393,0.05404209570607209,1.0168986353819631,0.8135189083055688,-0.6101391812291745,-0.7118290447673759,-0.5084493176909816,0.4067594541527844,-0.27174078321854944,0.11485104236159982,-0.030251442858938882,-0.32600656032149833,-0.18628946304085348,0.31515340490090304
1.93,1,-0.07282491023701465,0.11627299700982122,-0.30537090425665714,0.5745762127642091,-0.22538693268064208,0.05813649850491061,1.0236006997096314,0.818880559767704,-0.6141604198257822,-0.7165204897967348,-0.5118003498548157,0.409440279883852,0.157805689648308,0.4175441926667012,-0.22455266529819262,-0.5168652953440795,-0.2953515973394849,0.381931098345616
1.94,1,-0.06253026017705132,0.1245087170577919,-0.3115476942926351,0.5673699577222348,-0.23053425771062375,0.06225435852889595,1.0294650059963328,0.8235720047970685,-0.6176790035977986,-0.7206255041974363,-0.5147325029981664,0.41178600239853425,0.5871846109069456,0.7198687294337689,-0.41865282580757324,-0.7072842073951924,-0.4041624042258196,0.44839044373476067
1.95,1,-0.052185344634630426,0.1327846494917286,-0.3177546436180877,0.5601285168425401,-0.2357067154818342,0.0663923247458643,1.0344915542420896,0.8275932433936706,-0.6206949325452571,-0.7241440879694694,-0.5172457771210448,0.4137966216968353,1.0160608773410518,1.0215900804113596,-0.6124011279397968,-0.8971166888176424,-0.5126381078957853,0.514481175585888
1.96,1,-0.04179854119016191,0.14109409224730343,-0.3239867256847688,0.5528577544314122,-0.24090011720406845,0.07054704612365172,1.0386803444468518,0.8309442755574825,-0.6232082066681077,-0.7270762411127896,-0.5193401722234259,0.41547213777874126,1.444099385734079,1.3224736733479148,-0.8056467752473555,-1.0862161319541404,-0.6206949325452327,0.5801530284165112
1.97,1,-0.03137822742405488,0.14943034326018903,-0.330238913944433,0.5455635347951372,-0.24611027408712197,0.07471517163009452,1.0420313766107026,0.8336251012885598,-0.6252188259664226,-0.7294219636274968,-0.5210156883053513,0.4168125506442799,1.8709650328699126,1.6222849359921423,-0.9982389712830697,-1.2744359291477825,-0.7282491023701537,0.6453557367442304
1.98,1,-0.02093278091671913,0.15778670046605767,-0.33650618184883446,0.5382517222400022,-0.25133299734078984,0.07889335023302883,1.0445446507335754,0.8356357205868636,-0.6267267904401463,-0.7311812555135022,-0.5222723253667877,0.4178178602934318,2.2963227155319608,1.920789296092456,-1.1900269195994229,-1.4616294727411716,-0.8352168415663841,0.7100390350865491
1.99,1,-0.010470579248564427,0.16615646180058138,-0.34278350284972725,0.5309281810722939,-0.2565640981748672,0.08307823090029069,1.0462201668154703,0.8369761334523718,-0.6277321000892788,-0.7323541167708281,-0.5231100834077351,0.4184880667261859,2.7198373305038337,2.2177521813973105,-1.380859823749038,-1.6476501550771934,-0.941514374329826,0.774152657960985
2.0,1,0.0,0.17453292519943295,-0.34906585039886595,0.5235987755982988,-0.2617993877991494,0.08726646259971647,1.0470579248564427,0.8376463398851564,-0.62823475491387,-0.7329405473995076,-0.5235289624282213,0.4188231699425782,3.141173774569328,2.512939019655469,-1.5705868872846769,-1.8323513684987691,-1.0470579248564427,0.8376463398851564
2.0100000000000002,1,0.010470579248564593,0.18290938859828462,-0.35534819794800465,0.5162693701243036,-0.2670346774234317,0.09145469429914231,1.0470579248564593,0.8376463398851675,-0.62823475491387,-0.7329405473995187,-0.5235289624282269,0.41882316994258373,3.5599969445119615,2.8061152386153108,-1.759057313758838,-2.0155865053486766,-1.1517637173420991,0.900469815376555
2.02,1,0.020932780916719296,0.1912791499328084,-0.3616255189488975,0.5089458289565953,-0.2722657782575091,0.0956395749664042,1.0462201668154703,0.8369761334523773,-0.6277321000892844,-0.7323541167708281,-0.5231100834077407,0.41848806672618866,3.9759717371151826,3.0970462660252727,-1.946120306724159,-2.1972089579696568,-1.2555479759826749,0.9625728189526932
2.0300000000000002,1,0.031378227424055105,0.19963550713867703,-0.36789278685329896,0.5016340164014602,-0.277488501511177,0.09981775356933852,1.044544650733581,0.8356357205868636,-0.6267267904401463,-0.7311812555135133,-0.5222723253667905,0.4178178602934318,4.388763049162947,3.385497529634134,-2.131625069733358,-2.3770721187047483,-1.3583269249741325,1.0239050851311942
2.04,1,0.04179854119016174,0.20797175815156235,-0.37414497511296296,0.4943397967651856,-0.28269865839423025,0.10398587907578118,1.0420313766106637,0.8336251012885321,-0.6252188259664004,-0.7294219636274635,-0.5210156883053263,0.41681255064426603,4.798035777438461,3.671234457190126,-2.315420806338913,-2.5550293798964896,-1.4600167885122695,1.0844163484295026
2.05,1,0.05218534463463037,0.21628120090713723,-0.38037705717964415,0.4870690343540576,-0.2878920601164646,0.10814060045356862,1.0386803444468629,0.8309442755574881,-0.6232082066681188,-0.7270762411128007,-0.519340172223437,0.41547213777874403,5.203454818725803,3.9540224764421144,-2.497356720093645,-2.7309341338880326,-1.5605337907931782,1.1440563433652702
2.06,1,0.06253026017705121,0.22455713334107394,-0.38658400650509667,0.47982759347436293,-0.293064517887675,0.11227856667053697,1.034491554242084,0.8275932433936706,-0.6206949325452515,-0.7241440879694638,-0.5172457771210393,0.4137966216968353,5.6046850698083,4.233627015138446,-2.6772820145500518,-2.9046397730220566,-1.6597941560125906,1.202774804455978
2.07,1,0.07282491023701448,0.2327928533890445,-0.39276079654107465,0.4726213384323887,-0.2982118429176567,0.11639642669452226,1.0294650059963273,0.8235720047970574,-0.6176790035977986,-0.7206255041974252,-0.5147325029981664,0.4117860023985287,6.001391427469562,4.509813501027577,-2.855045893260759,-3.0759996896413164,-1.7577141083664782,1.2605214662191442
2.08,1,0.08306091723411108,0.24098165898672183,-0.3989024007393326,0.46545613353442106,-0.303329846416205,0.12049082949336092,1.0236006997096592,0.8188805597677318,-0.6141604198257933,-0.7165204897967625,-0.5118003498548296,0.4094402798838659,6.39323878849342,4.7823473618583066,-3.0304975597784836,-3.24486727608885,-1.8542098720507705,1.3172460631723983
2.09,1,0.0932299035879306,0.24911684806977744,-0.40500379255162433,0.4583378430867474,-0.3084143395931147,0.12455842403488872,1.016898635381952,0.8135189083055605,-0.6101391812291745,-0.7118290447673647,-0.5084493176909732,0.40675945415278025,6.77989204966308,5.050994025378738,-3.2034862176556897,-3.411095924707197,-1.9491976712612524,1.372898329833144
2.1,1,0.10332349171806443,0.25719171857388445,-0.4110599454297046,0.45127233139565376,-0.3134611336581816,0.12859585928694223,1.0093588130133835,0.8074870504107018,-0.6056152878080256,-0.7065511691093651,-0.5046794065066917,0.4037435252053509,7.161016107762728,5.315518919337908,-3.373861070445225,-3.5745390278395393,-2.042593730194028,1.427428000719088
2.11,1,0.11333330404410213,0.2651995684347146,-0.41706583282532717,0.44426546276742734,-0.3184660398212005,0.1325997842173573,1.0009812326037704,0.8007849860830141,-0.6005887395622578,-0.7006868628226415,-0.5004906163018852,0.40039249304150704,7.5362758595753965,5.575687471483899,-3.5414713216994826,-3.7350499778283908,-2.134314273044792,1.4807848103476264
2.12,1,0.12325096298563498,0.2731336955879409,-0.4230164281902469,0.43732310150835435,-0.3234248692919669,0.13656684779397044,0.9917658941532848,0.7934127153226278,-0.5950595364919709,-0.6942361259072993,-0.4958829470766424,0.3967063576613139,7.9053362018852535,5.831265109565661,-3.7061661749713566,-3.89248216701686,-2.2242755240096344,1.5329184932364373
2.13,1,0.13306809096225247,0.2809873979692349,-0.4289067049762174,0.43045111192472213,-0.32833343328027564,0.14049369898461744,0.981712797661749,0.7853702381294014,-0.5890276785970538,-0.6871989583632221,-0.4908563988308745,0.3926851190647007,8.267862031475346,6.082017261331272,-3.8677948338131802,-4.046688987747473,-2.312393707284274,1.583778783902916
2.14,1,0.14277631039354594,0.2887539735142697,-0.4347316366349935,0.4236553583228167,-0.33318754299592235,0.14437698675713484,0.9708219431293463,0.7766575545034793,-0.5824931658776067,-0.679575360190543,-0.4854109715646704,0.38832877725173964,8.623518245129876,6.327709354529723,-4.026206501777844,-4.1975238323634105,-2.3985850470648,1.6333154168647548
2.15,1,0.15236724369910493,0.29642672015871685,-0.4404861966183289,0.4169417050089254,-0.33798300964870187,0.14821336007935842,0.9590933305558991,0.767274664444717,-0.5754559983335406,-0.6713653313891288,-0.4795466652779523,0.3836373322223585,8.971969739631895,6.568106816909088,-4.181250382417741,-4.344840093207157,-2.4827657675469537,1.6814781266393464
2.16,1,0.16183251329852077,0.30399893583824955,-0.44616535837797844,0.4103160162893343,-0.3427156444484098,0.15199946791912478,0.9465269599415849,0.7572215679532701,-0.5679161759649554,-0.6625688719591127,-0.47326347997079243,0.37861078397663506,9.312881411765586,6.802975076218392,-4.332775679285764,-4.488491162621895,-2.5648520929267926,1.7282166477443948
2.17,1,0.17116374161138315,0.3114639184885394,-0.45176409536569584,0.4037841564703306,-0.347381258604841,0.1557319592442697,0.9331228312862372,0.7464982650289831,-0.5598736987717401,-0.6531859819003671,-0.4665614156431186,0.37324913251449154,9.645918158314037,7.032079560205675,-4.480631595934248,-4.628330432950123,-2.6447602474000687,1.7734807146972813
2.18,1,0.18035255105728298,0.3188149660452594,-0.4572773810332358,0.3973519898582007,-0.3519756633277909,0.1594074830226297,0.9188809445899837,0.7351047556720003,-0.5513285667539947,-0.6432166612129919,-0.45944047229499185,0.36755237783600014,9.970744876061271,7.255185696619926,-4.624667335916083,-4.764211296534933,-2.7224064551628135,1.8172200620156986
2.19,1,0.18939056405581012,0.32604537644408105,-0.462700188832352,0.3910253807592317,-0.35649466982705447,0.16302268822204052,0.9038012998527134,0.7230410398821663,-0.5422807799116192,-0.6326609098968983,-0.4519006499263567,0.36152051994108314,10.287026461790544,7.472058913209183,-4.76473210278363,-4.895987145718923,-2.797706940410815,1.859384424217027
2.2,1,0.19826940302655616,0.33314844762067786,-0.46802749221479956,0.3848101934797096,-0.3609340893124275,0.16657422381033893,0.8878838970746039,0.7103071176596809,-0.5327303382447579,-0.6215187279522139,-0.44394194853730196,0.35515355882984045,10.594427812286058,7.682464637722614,-4.900675100089905,-5.023511372845266,-2.8705779273401655,1.8999235358190176
2.21,1,0.20698069038911004,0.34011747751072097,-0.473254264632332,0.3787122923259218,-0.36528973299370443,0.17005873875536048,0.8711287362553888,0.696902989004311,-0.5226772417532444,-0.6097901153787777,-0.4355643681276944,0.3484514945021555,10.892613824330567,7.886168297908013,-5.032345531387094,-5.14663737025637,-2.9409356401464892,1.938787131338971
2.22,1,0.21551604856306328,0.34694576404988353,-0.4783754795367039,0.3727375416041545,-0.36955741208068105,0.17347288202494177,0.8535358173953234,0.6828286539162565,-0.5121214904371896,-0.5974750721767286,-0.4267679086976617,0.34141432695812823,11.181249394708502,8.08293532151454,-5.159592600228114,-5.26521853029543,-3.0086963030259564,1.975924945294636
2.23,1,0.22386709996800547,0.35362660517383726,-0.48338611037966916,0.366891805620695,-0.37373293778315214,0.17681330258691863,0.8351051404942189,0.6680841123953729,-0.5010630842965269,-0.5845735983459499,-0.41755257024710946,0.33404205619768645,11.459999420202875,8.27253113629027,-5.2822655101654155,-5.37910824530497,-3.0737761401742736,2.0112867122034053
2.24,1,0.2320254670235279,0.3601532988182553,-0.48828113061298273,0.36118094868182926,-0.37781212131091335,0.18007664940912765,0.815836705552242,0.6526693644418047,-0.4895020233313563,-0.5710856938865749,-0.407918352776121,0.32633468222090234,11.728528797597843,8.454721169984197,-5.400213464751896,-5.488159907628176,-3.136091375787521,2.0448221665829722
2.25,1,0.23998277214922037,0.36651914291880916,-0.4930555136883982,0.3556108350938446,-0.3817907738737596,0.18325957145940458,0.7957305125692482,0.6365844100553852,-0.4774383075415445,-0.5570113587984649,-0.3978652562846241,0.3182922050276926,11.98650242367656,8.629270850344323,-5.513285667539829,-5.592226909607517,-3.195558234061452,2.076481042950707
2.2600000000000002,1,0.24773063776467363,0.37271743541117186,-0.4977042330576701,0.35018732916302725,-0.3856647066814862,0.18635871770558593,0.7747865615453264,0.61982924923627,-0.4648719369271914,-0.5423505930817363,-0.3873932807726632,0.309914624618135,12.233585195222926,8.795945605119673,-5.621331322082105,-5.6911626435861296,-3.252092939192063,2.1062130758243116
2.27,1,0.25526068628947785,0.37874147423101523,-0.5022222621725526,0.34491629519566436,-0.38942973094388833,0.18937073711550761,0.7530048524804211,0.6024038819843369,-0.4518029114882527,-0.5271033967362893,-0.3765024262402106,0.30120194099216846,12.469442009020378,8.954510862058392,-5.724199631931233,-5.784820501906585,-3.3056117153752,2.1339679997212038
2.2800000000000002,1,0.26256454014322383,0.384584557314012,-0.5066045744848002,0.3398035974980421,-0.3930816578707613,0.192292278657006,0.730385385374599,0.5843083082996747,-0.4382312312247616,-0.5112697697622237,-0.3651926926872995,0.29215415414983736,12.693737761852748,9.104732048909291,-5.821739800639934,-5.8730538769119764,-3.356030786806837,2.1596955491590175
2.29,1,0.26963382174550177,0.39023998259583426,-0.510846143446167,0.3348551003764476,-0.3966162986719003,0.19511999129791713,0.7069281602277933,0.5655425281822279,-0.42415689613667373,-0.49484971215945084,-0.35346408011389663,0.28277126409111397,12.90613735050345,9.246374593420729,-5.913801031760717,-5.955716160944908,-3.4032663776828107,2.1833454586552374
2.3000000000000003,1,0.2764601535159019,0.39570104801215444,-0.5149419425084071,0.33007666813716746,-0.40002946455710037,0.19785052400607722,0.6826331770400151,0.5461065416320188,-0.4095799062240113,-0.47784322392801504,-0.34131658852000757,0.2730532708160094,13.106305671756122,9.379203923341308,-6.000232528846263,-6.032660746348322,-3.4472347121990343,2.20486746272743
2.31,1,0.2830351578740151,0.4009610514986449,-0.5188869451232749,0.3254741650864883,-0.40331696673615697,0.20048052574932246,0.6575004358113201,0.5260003486490472,-0.3945002614867854,-0.4602503050679163,-0.32875021790566006,0.2630001743245236,13.293907622394565,9.50298546641956,-6.080883495449235,-6.1037410254650535,-3.4878520145514713,2.224211295893137
2.32,1,0.2893504572394313,0.40601329099097794,-0.5226761247425247,0.3210534555306969,-0.40647461641886506,0.20300664549548897,0.6315299365416194,0.5052239492333022,-0.37891796192497385,-0.442070955579138,-0.3157649682708097,0.2526119746166511,13.468608099202111,9.61748465040398,-6.155603135122197,-6.168810390637892,-3.5250345089359327,2.2413266926698894
2.33,1,0.2953976740317409,0.41085106442482555,-0.5263044548179104,0.31682040377608023,-0.40949822481501985,0.20542553221241278,0.6047216792309573,0.4837773433847614,-0.3628330075385766,-0.423305175461669,-0.30236083961547866,0.2418886716923807,13.630071998962508,9.722466903043024,-6.2242406514177775,-6.2277222342096366,-3.5586984195483664,2.2561633875752056
2.34,1,0.30116843067053534,0.41546766973586113,-0.5297669088011872,0.31278087412892414,-0.4123836031344171,0.20773383486793057,0.577075663879445,0.4616605311035582,-0.3462453983276714,-0.40395296471560926,-0.2885378319397225,0.2308302655517791,13.777964218459749,9.817697652085661,-6.286645247888816,-6.28032994852339,-3.5887599705847983,2.2686711151267698
2.35,1,0.30665434957540383,0.41985640485975595,-0.5330584601441082,0.30894073089551616,-0.4151265625868513,0.20992820242987797,0.5485918904868492,0.4388735123894816,-0.32915513429210286,-0.38401432334079777,-0.2742959452434246,0.2194367561947408,13.9119496544767,9.902942325279751,-6.342666128087526,-6.326486925921561,-3.6151353862408873,2.2787996098419043
2.36,1,0.3118470531659373,0.4240105677321827,-0.5361740822984282,0.30530583838214276,-0.41772291438211806,0.21200528386609135,0.5192703590533476,0.4154162872426759,-0.31156221543200413,-0.36348925133734,-0.2596351795266738,0.20770814362133794,14.031693203797534,9.977966350374269,-6.392152495566879,-6.366046558747252,-3.6377408907127204,2.286498606238299
2.37,1,0.31673816386172615,0.4279234562888139,-0.5391087487159016,0.3018820608950905,-0.4201684697300125,0.21396172814440695,0.4891110695788847,0.3912888556631189,-0.29346664174734194,-0.34237774870522486,-0.24455553478944236,0.19564442783155944,14.1368597632057,10.04253515511769,-6.434953553879427,-6.39886223934327,-3.6564927081961462,2.291717838833476
2.38,1,0.32131930408236087,0.43158836846532156,-0.5418574328482825,0.2986752627406462,-0.42245903984032984,0.21579418423266078,0.4581140220634716,0.3664912176507662,-0.274868413238083,-0.32067981544443014,-0.2290570110317358,0.1832456088253831,14.227114229484851,10.096414167258398,-6.470918506577705,-6.42478736005239,-3.6713070628870805,2.2944070421449307
2.39,1,0.32558209624743184,0.4349986021973783,-0.544415108147325,0.2956913082250966,-0.42459043592286533,0.21749930109868915,0.4262792165070972,0.34102337320567333,-0.25576752990424945,-0.2983954515549614,-0.2131396082535486,0.17051168660283667,14.302121499418565,10.139368814545104,-6.499896557214395,-6.443675313217459,-3.6821001789814156,2.294515950690263
2.4,1,0.32951816277652957,0.4381474554206566,-0.5467767480647837,0.29293606165472813,-0.4265584691874142,0.2190737277103283,0.3936066529097726,0.3148853223278292,-0.23616399174587466,-0.27552465703684637,-0.1968033264548863,0.1574426611639146,14.3615464697905,10.171164524726315,-6.521736909342221,-6.455379491181383,-3.6887882806750683,2.291994298987006
2.41,1,0.33311912608924443,0.4410282260708285,-0.5489373260524126,0.2904153873358277,-0.4283589508437716,0.22051411303541424,0.36009633127148666,0.2880770650171893,-0.216057798762892,-0.25206743189004066,-0.18004816563574333,0.14403853250859466,14.405054037384236,10.19156672555041,-6.536288766513632,-6.45975328628688,-3.6912875921639308,2.2867918215526557
2.42,1,0.33637660860516605,0.4436342120835658,-0.5508918155619655,0.28813514957468256,-0.42998769210173243,0.2218171060417829,0.3257482515921617,0.2605986012737316,-0.19544895095529036,-0.22802377611451652,-0.16287412579608085,0.1302993006368658,14.432309098983128,10.200340844765844,-6.543401332281215,-6.456650090876698,-3.689514337643822,2.278858252904728
2.43,1,0.3392822327438866,0.44595871139454213,-0.5526351900451979,0.28610121267757826,-0.4314405041710927,0.22297935569727106,0.29056241387205306,0.23244993109763357,-0.17433744832323628,-0.20339368971042937,-0.14528120693602653,0.11622496554881678,14.442976551371624,10.197252310121721,-6.542923810198051,-6.445923297294088,-3.683384741310919,2.2681433275609524
2.44,1,0.3418276209249951,0.447995021939429,-0.554162422953863,0.28431944095080225,-0.43271319826164695,0.2239975109697145,0.2545388181108499,0.20363105448868435,-0.1527232908665077,-0.17817717267760158,-0.12726940905542494,0.10181552724434217,14.436721291332352,10.182066549365913,-6.534705403816182,-6.427426297881418,-3.6728150273608007,2.2545967800386544
2.45,1,0.3440043955680824,0.4497364416538988,-0.5554684877397154,0.28279569870064114,-0.4338015855831906,0.2248682208269494,0.2176774643087298,0.17414197144698385,-0.13060647858523788,-0.15237422501611086,-0.1088387321543649,0.08707098572349192,14.413208215649483,10.154548990247255,-6.518595316688578,-6.401012484981719,-3.6577214199895534,2.2381683448554774
2.46,1,0.3458041790927393,0.45117626847362424,-0.5565483578545095,0.28153585023338135,-0.43470147734551906,0.22558813423681212,0.17997835246569283,0.14398268197254316,-0.1079870114794157,-0.12598484672597943,-0.08998917623284641,0.07199134098627158,14.372102221106651,10.114465060514323,-6.494442752367848,-6.366535250937885,-3.638020143393086,2.2188077565289777
2.47,1,0.34721859391855525,0.4523078003342771,-0.557397006749999,0.2805457598553102,-0.43540868475842703,0.22615390016713854,0.1414414825815946,0.11315318606528457,-0.08486488954895233,-0.0990090378071129,-0.0707207412907973,0.056576593032642286,14.313068204486994,10.061580187915398,-6.462096914406375,-6.323847988092497,-3.613627421767147,2.1964647495766156
2.48,1,0.3482392624651214,0.45312433517152995,-0.5580094078779387,0.2798312918727139,-0.4359190190317101,0.22656216758576497,0.1020668546566128,0.0816534837252858,-0.0612401127939699,-0.0714467982596334,-0.0510334273283064,0.0408267418626429,14.235771062574694,9.995659800199252,-6.42140700635711,-6.272804088788707,-3.5844594793078266,2.171089058516013
2.49,1,0.3488578071520284,0.45361917092105564,-0.558380534690083,0.2793983105918789,-0.4362282913751636,0.22680958546052782,0.06185446869070299,0.049483574952569054,-0.037112681214424015,-0.043298128083496534,-0.030927234345351495,0.024741787476284527,14.139875692153247,9.9164693251145,-6.3722222317725725,-6.213256945369239,-3.5504325402109873,2.142630417864739
2.5,1,0.34906585039886595,0.45378560551852565,-0.5585053606381855,0.27925268031909267,-0.4363323129985824,0.22689280275926282,0.02080432468375415,0.0166434597470011,-0.012482594810248049,-0.014563027278624574,-0.010402162341877075,0.00832172987350055,14.025046990005901,9.823774190409246,-6.314391794205207,-6.145059950176715,-3.5114628286724137,2.111038562140196
2.5100000000000002,1,0.3490195151393167,0.45374853731088627,-0.5584775594824559,0.27928511500077713,-0.43630914536880777,0.22687426865544313,-0.004633525954922391,-0.0037068207639379125,0.0027801155729534344,0.0032434681684456734,0.0023167629774611953,-0.0018534103819689562,13.946880027707902,9.761425961609051,-6.2754009835753175,-6.099732844516928,-3.485561625438245,2.0904102700719616
2.52,1,0.34888133677601807,0.45363799462024734,-0.5583946524644767,0.2793818398550862,-0.43624005618715844,0.22681899731012367,-0.013817836329865774,-0.011054269063892619,0.008290701797919464,0.009672485430906042,0.006908918164932887,-0.0055271345319463094,13.913799962051126,9.735514622536824,-6.259137307473526,-6.081242180003051,-3.474995531430315,2.082233751592215
2.5300000000000002,1,0.34865255643199367,0.45345497034502785,-0.5582573842580622,0.27954198609590325,-0.43612566601514624,0.22672748517251393,-0.022878034402440406,-0.018302427521948994,0.013726820641457582,0.016014624081706064,0.011439017201220203,-0.009151213760974497,13.877468154072426,9.707364297529976,-6.241428964172244,-6.061383177355625,-3.4636475299174965,2.073612911070013
2.54,1,0.3483344152302672,0.45320045738364667,-0.5580664995370263,0.2797646849371118,-0.435966595414283,0.22660022869182334,-0.03181412017264629,-0.02545129613811814,0.019088472103589993,0.022269884120856842,0.015907060086323144,-0.01272564806905907,13.837934248692749,9.677009738033124,-6.222298293885836,-6.040177556227532,-3.4515300321300257,2.064555195243485
2.5500000000000003,1,0.3479281542938622,0.45287544863452267,-0.5578227429751832,0.2800490675925953,-0.43576346494608054,0.22643772431726134,-0.04062609364050007,-0.03250087491240006,0.024375656184305594,0.028438265548347275,0.02031304682024726,-0.01625043745620003,13.795247890832988,9.644485695490939,-6.201767636828754,-6.01764703627172,-3.438655449298128,2.055068050850773
2.56,1,0.34743501474580246,0.45248093699607483,-0.5575268592463474,0.2803942652762371,-0.4355168951720506,0.22624046849803742,-0.049313954805974,-0.03945116384478364,0.02958837288358218,0.03451976836418291,0.024656977402992553,-0.01972558192239182,13.749458725414177,9.609826921348112,-6.1798593332154885,-5.993813337141085,-3.4250361926520387,2.04515892463003
2.57,1,0.3468562377091115,0.4520179153667221,-0.5571795930243327,0.2807994092019208,-0.43522750665370513,0.22600895768336104,-0.05787770366909584,-0.04630216293527445,0.03472662220146416,0.040514392568369306,0.02893885183454792,-0.023151081467637225,13.700616397357173,9.573068167049296,-6.156595723260344,-5.968698178488527,-3.4106846734220184,2.034835263319394
2.58,1,0.34619306430681296,0.45148737664488325,-0.5567816889829537,0.28126363058352977,-0.4348959199525559,0.22574368832244163,-0.06631734022985447,-0.05305387218388358,0.03979040413790713,0.046422138160895354,0.03315867011492446,-0.02652693609194179,13.648770551582954,9.53424418403911,-6.131999147177865,-5.942323279966987,-3.3956133028382807,2.0241045136569937
2.59,1,0.3454467356619305,0.4508903137289773,-0.5563338917960242,0.2817860606349475,-0.43452275563011467,0.22544515686448865,-0.07463286448824435,-0.059706291590594374,0.04477971869294439,0.05224300514177216,0.03731643224412218,-0.029853145795297187,13.593970833012486,9.49338972376227,-6.1060919451823885,-5.914710361229353,-3.3798344921310606,2.0129741223809887
2.6,1,0.3446184928974878,0.45022771951742313,-0.5558369461373586,0.2823658305700574,-0.4341086342478933,0.22511385975871157,-0.08282427644427104,-0.06625942115541794,0.049694565866564844,0.05797699351098862,0.04141213822213552,-0.03312971057770897,13.536266886566699,9.450539537663401,-6.078896457488368,-5.885881141928564,-3.363360652530607,2.001451536229508
2.61,1,0.3437095771365085,0.4495005869086397,-0.555291596680771,0.2830020716027429,-0.43365417636740367,0.22475029345431985,-0.09089157609792897,-0.07271326087834318,0.05453494565875738,0.06362410326855028,0.045445788048964486,-0.03635663043917159,13.475708357166553,9.405728377187206,-6.05043502431026,-5.855857341717522,-3.346204195267156,1.9895442019407072
2.62,1,0.34272122950201617,0.44870990880104583,-0.5546985881000756,0.2836939149468875,-0.43316000255015746,0.22435495440052292,-0.09883476344923481,-0.07906781075938674,0.059300858069544216,0.0691843344144627,0.04941738172462018,-0.03953390537969337,13.412344889732942,9.35899099377829,-6.020729985862429,-5.824660680249126,-3.3283775315709208,1.97725956625271
2.63,1,0.3416546911170345,0.4478566780930605,-0.5540586650690866,0.28444049181637465,-0.43262673335766666,0.22392833904653026,-0.10665383849816634,-0.08532307079853196,0.06399230309889203,0.07465768694871477,0.053326919249080396,-0.04266153539926598,13.34622612918688,9.310362138881366,-5.989803682359391,-5.792312877176317,-3.309893072672184,1.9646050759036744
2.64,1,0.3405112031045871,0.4469418876831026,-0.5533725722616182,0.28524093342508783,-0.432054989351443,0.2234709438415513,-0.11434880124474023,-0.09147904099578996,0.06860928074684525,0.0800441608713176,0.05717440062236734,-0.04573952049789498,13.277401720449264,9.259876563941067,-5.957678454015456,-5.758835652151981,-3.290763229801137,1.951588177631732
2.65,1,0.3392920065876977,0.44596653046959106,-0.5526410543514845,0.28609437098691043,-0.4314453910929983,0.22298326523479553,-0.12191965168893981,-0.09753572135115518,0.07315179101337055,0.08534375618226009,0.060959825844469906,-0.04876786067557759,13.205921308441088,9.207569020402069,-5.92437664104513,-5.7242507248290595,-3.271000414188038,1.9382163181750307
2.66,1,0.33799834268938983,0.44493159935094473,-0.5518648560124998,0.28699993571572596,-0.43079855914384435,0.22246579967547236,-0.1293663898307873,-0.10349311186463317,0.07761983389846794,0.09055647288155333,0.06468319491539365,-0.051746555932316585,13.13183453808323,9.15347425970901,-5.889920583662848,-5.688579814860438,-3.250617037063112,1.924496944271705
2.67,1,0.3366314525326872,0.44383808722558266,-0.5510447219184782,0.28795675882541777,-0.430115114065493,0.22191904361279133,-0.13668901567026048,-0.10935121253620728,0.08201340940215962,0.09568231096918067,0.06834450783513302,-0.05467560626810364,13.055191054296708,9.097627033306619,-5.8543326220829695,-5.651844641899074,-3.229625509656606,1.9104375026599156
2.68,1,0.3351925772406134,0.4426869869919236,-0.550181396743234,0.28896397152986947,-0.4293956764194561,0.2213434934959618,-0.14388752920738157,-0.11511002336590526,0.08633251752442339,0.10072127044516987,0.07194376460369356,-0.05755501168295263,12.976040502002393,9.04006209263946,-5.817635096519983,-5.614066925597808,-3.208038243198746,1.896045440077775
2.69,1,0.3336829579361921,0.4414792915483866,-0.5492756251605811,0.29002070504296434,-0.4286408667672455,0.2207396457741933,-0.15096193044212836,-0.12076954435369935,0.09057715826528145,0.10567335130948763,0.07548096522105863,-0.06038477217684968,12.8944325261213,8.98081418915228,-5.779850347188254,-5.575268385609642,-3.1858676489198046,1.8813282032634528
2.7,1,0.33210383574244695,0.44021599379339044,-0.548328151844334,0.29112609057858596,-0.4278513056703729,0.22010799689669522,-0.1579122193745175,-0.12632977549961732,0.0947473316247116,0.11053855356216169,0.07895610968726152,-0.06316488774980866,12.810416771574324,8.919918074289662,-5.741000714302265,-5.5354707415874165,-3.1631261380499462,1.8662932389550642
