alpha8332/robot-data-analysis/real_like_aligned.csv
timestamp,robot_state,joint_position_1,joint_position_2,joint_position_3,joint_position_4,joint_position_5,joint_position_6,joint_velocity_1,joint_velocity_2,joint_velocity_3,joint_velocity_4,joint_velocity_5,joint_velocity_6,joint_torque_1,joint_torque_2,joint_torque_3,joint_torque_4,joint_torque_5,joint_torque_6
0.0,2,0.0024004985741079,0.177197480438994,-0.3475339790451121,0.5163257890980268,-0.2579791961775332,0.0875372560430554,0.0314107590781282,0.0314107590781292,0.0314107590781265,0.031410759078132,0.0314107590781265,0.0314107590781279,,,,,,
0.01,2,0.0027146061648892,0.1775115880297753,-0.3472198714543308,0.5166398966888082,-0.2576650885867519,0.0878513636338367,0.0314107590781282,0.0314107590781292,0.0314107590781265,0.031410759078132,0.0314107590781265,0.0314107590781279,,,,,,
0.02,2,0.003028403769401,0.1778253856342871,-0.3469060738498189,0.5169536942933199,-0.25735129098224,0.0881651612383485,0.031379760451185,0.0313797604511834,0.0313797604511889,0.0313797604511778,0.0313797604511889,0.0313797604511847,,,,,,
0.03,2,0.003341581707293,0.1781385635721791,-0.3465928959119269,0.517266872231212,-0.257038113044348,0.0884783391762405,0.0313177937892009,0.0313177937892011,0.0313177937891984,0.0313177937892095,0.0313177937891984,0.0313177937892011,,,,,,
0.04,2,0.0036538309097509,0.178450812774637,-0.346280646709469,0.5175791214336699,-0.2567258638418901,0.0887905883786984,0.0312249202457899,0.0312249202457898,0.0312249202457925,0.031224920245787,0.0312249202457925,0.0312249202457898,,,,,,
0.05,2,0.0039648432245102,0.1787618250893963,-0.3459696343947098,0.5178901337484292,-0.2564148515271309,0.0891016006934577,0.0311012314759266,0.0311012314759273,0.0311012314759218,0.0311012314759273,0.0311012314759218,0.0311012314759273,,,,,,
0.06,2,0.0042743117199651,0.1790712935848512,-0.3456601658992548,0.5181996022438841,-0.2561053830316759,0.0894110691889126,0.0309468495454937,0.0309468495454934,0.0309468495454989,0.0309468495454878,0.0309468495454989,0.0309468495454934,,,,,,
0.07,2,0.0045819309880733,0.1793789128529594,-0.3453525466311467,0.5185072215119922,-0.2557977637635678,0.0897186884570208,0.0307619268108179,0.0307619268108183,0.0307619268108128,0.0307619268108183,0.0307619268108128,0.0307619268108183,,,,,,
0.08,2,0.0048873974457564,0.1796843793106425,-0.3450470801734635,0.5188126879696754,-0.2554922973058846,0.0900241549147039,0.0305466457683122,0.0305466457683117,0.0305466457683145,0.0305466457683145,0.0305466457683145,0.0305466457683117,,,,,,
0.09,2,0.0051904096345002,0.1799873914993863,-0.3447440679847198,0.5191157001584191,-0.2551892851171409,0.0903271671034477,0.0303012188743744,0.0303012188743734,0.0303012188743734,0.0303012188743734,0.0303012188743734,0.0303012188743748,,,,,,
0.1,2,0.0054906685178574,0.1802876503827435,-0.3444438091013626,0.5194159590417763,-0.2548890262337837,0.0906274259868049,0.0300258883357181,0.030025888335719,0.0300258883357218,0.0300258883357162,0.0300258883357218,0.0300258883357176,,,,,,
0.11,2,0.0057878777765608,0.1805848596414469,-0.3441465998426591,0.5197131683004798,-0.2545918169750802,0.0909246352455083,0.0297209258703439,0.029720925870344,0.0297209258703412,0.0297209258703468,0.0297209258703412,0.029720925870344,,,,,,
0.12,2,0.0060817441009547,0.1808787259658408,-0.3438527335182653,0.5200070346248736,-0.2542979506506864,0.0912185015699022,0.0293866324393865,0.0293866324393876,0.0293866324393876,0.0293866324393876,0.0293866324393876,0.0293866324393862,,,,,,
0.13,2,0.0063719774804557,0.1811689593453418,-0.3435625001387642,0.5202972680043747,-0.2540077172711854,0.0915087349494032,0.0290233379501026,0.0290233379501014,0.0290233379501014,0.029023337950107,0.0290233379501014,0.0290233379501028,,,,,,
0.14,2,0.0066582914897586,0.1814552733546447,-0.3432761861294613,0.5205835820136776,-0.2537214032618824,0.0917950489587061,0.028631400930292,0.0286314009302929,0.0286314009302901,0.0286314009302901,0.0286314009302901,0.0286314009302929,,,,,,
0.15,2,0.0069404035715033,0.1817373854363894,-0.3429940740477166,0.5208656940954223,-0.2534392911801377,0.0920771610404509,0.028211208174474,0.0282112081744723,0.0,0.0282112081744667,0.0282112081744778,0.0282112081744737,,,,,,
0.16,2,0.007218035315125,0.1820150171800111,-0.3427164423040949,0.521143325839044,-0.253161659436516,0.0923547927840725,0.0277631743621686,0.0277631743621692,0.0277631743621664,0.027763174362172,0.0277631743621664,0.0277631743621678,,,,,,
0.17,2,0.0074909127316116,0.1822878945964977,-0.3424435648876083,0.5214162032555305,-0.2528887820200294,0.0926276702005591,0.0272877416486559,0.0272877416486572,0.0272877416486572,0.0272877416486516,0.0272877416486572,0.0272877416486558,,,,,,
0.18,2,0.0077587665238978,0.182555748388784,-0.3421757110953221,0.5216840570478168,-0.2526209282277432,0.0928955239928454,0.0267853792286254,0.0267853792286248,0.0267853792286221,0.0267853792286332,0.0267853792286221,0.0267853792286262,,,,,,
0.19,2,0.0080213323526292,0.1828183142175153,-0.3419131452665908,0.5219466228765481,-0.2523583623990119,0.0931580898215767,0.0262565828731338,0.0262565828731325,0.0262565828731353,0.0262565828731298,0.0262565828731353,0.0262565828731339,,,,,,
0.2,2,0.0082783510970326,0.1830753329619187,-0.3416561265221873,0.5222036416209516,-0.2521013436546084,0.0934151085659801,0.0257018744403425,0.0257018744403425,0.0257018744403425,0.0257018744403425,0.0257018744403425,0.0257018744403425,,,,,,
0.21,2,0.0085295691106376,0.1833265509755237,-0.3414049085085823,0.5224548596345566,-0.2518501256410034,0.0936663265795852,0.0251218013605032,0.0251218013605031,0.0251218013605059,0.0251218013605059,0.0251218013605059,0.0251218013605031,,,,,,
0.22,2,0.0087747384715948,0.1835717203364809,-0.3411597391476251,0.5227000289955137,-0.2516049562800462,0.0939114959405423,0.0245169360957133,0.0245169360957142,0.0245169360957142,0.0245169360957087,0.0245169360957142,0.0245169360957128,,,,,,
0.23,2,0.0090136172273444,0.1838105990922305,-0.3409208603918756,0.5229389077512634,-0.2513660775242967,0.0941503746962919,0.0238878755749621,0.0238878755749627,0.0238878755749571,0.0238878755749682,0.0238878755749571,0.0238878755749627,,,,,,
0.24,2,0.0092459696333948,0.1840429514982809,-0.3406885079858252,0.5231712601573137,-0.2511337251182463,0.0943827271023423,0.0232352406050368,0.0232352406050351,0.0232352406050406,0.0232352406050351,0.0232352406050406,0.0232352406050365,,,,,,
0.25,2,0.0094715663859734,0.1842685482508595,-0.3404629112332466,0.5233968569098923,-0.2509081283656677,0.0946083238549209,0.0225596752578589,0.0225596752578605,0.0225596752578549,0.0225596752578605,0.0225596752578549,0.0225596752578591,,,,,,
0.26,2,0.009690184848322,0.1844871667132081,-0.3402442927708979,0.523615475372241,-0.250689509903319,0.0948269423172695,0.0218618462348639,0.0218618462348635,0.0218618462348663,0.0218618462348607,0.0218618462348663,0.0218618462348635,,,,,,
0.27,2,0.0099016092704125,0.1846985911352986,-0.3400328683488074,0.5238268997943314,-0.2504780854812286,0.09503836673936,0.021142442209048,0.0211424422090489,0.0211424422090489,0.0211424422090433,0.0211424422090489,0.0211424422090489,,,,,,
0.28,2,0.0101056310018658,0.1849026128667519,-0.3398288466173542,0.5240309215257848,-0.2502740637497753,0.0952423884708133,0.0204021731453295,0.0204021731453285,0.0204021731453285,0.0204021731453396,0.0204021731453285,0.0204021731453285,,,,,,
0.29,2,0.0103020486978648,0.1850990305627509,-0.3396324289213551,0.5242273392217838,-0.2500776460537762,0.0954388061668123,0.019641769599901,0.0196417695999012,0.019641769599904,0.0196417695998984,0.019641769599904,0.0196417695999012,,,,,,
0.3,2,0.0104906685178574,0.1852876503827435,-0.3394438091013626,0.5244159590417763,-0.2498890262337837,0.0956274259868049,0.0188619819992571,0.0188619819992574,0.0188619819992519,0.0188619819992519,0.0188619819992519,0.0188619819992574,,,,,,
0.31,2,0.0106713043168535,0.1854682861817396,-0.3392631733023664,0.5245965948407725,-0.2497083904347875,0.095808061785801,0.0180635798996143,0.0180635798996131,0.0180635798996187,0.0180635798996187,0.0180635798996187,0.0180635798996145,,,,,,
0.32,2,0.010843777829128,0.1856407596940141,-0.3390906997900919,0.524769068353047,-0.249535916922513,0.0959805352980755,0.0172473512274532,0.0172473512274534,0.0172473512274506,0.0172473512274562,0.0172473512274506,0.0172473512274534,,,,,,
0.33,2,0.0110079188441473,0.1858049007090334,-0.3389265587750726,0.5249332093680663,-0.2493717759074937,0.0961446763130948,0.0164141015019285,0.0164141015019297,0.016414101501927,0.016414101501927,0.016414101501927,0.0164141015019284,,,,,,
0.34,2,0.0111635653745465,0.1859605472394326,-0.3387709122446734,0.5250888558984654,-0.2492161293770945,0.096300322843494,0.01556465303992,0.0155646530399206,0.0155646530399233,0.0155646530399122,0.0155646530399233,0.0155646530399192,,,,,,
0.35,2,0.0113105638159916,0.1861075456808777,-0.3386239138032283,0.5252358543399105,-0.2490691309356494,0.0964473212849391,0.014699844144504,0.0146998441445028,0.0146998441445056,0.0146998441445056,0.0146998441445056,0.0146998441445042,,,,,,
0.36,2,0.0114487690987681,0.1862457509636542,-0.3384857085204519,0.525374059622687,-0.248930925652873,0.0965855265677156,0.0138205282776518,0.0138205282776526,0.0138205282776471,0.0138205282776526,0.0138205282776471,0.0138205282776526,,,,,,
0.37,2,0.0115780448309477,0.1863750266958338,-0.3383564327882722,0.5255033353548667,-0.2488016499206933,0.0967148022998952,0.0129275732179615,0.0129275732179606,0.0129275732179634,0.012927573217969,0.0129275732179634,0.0129275732179606,,,,,,
0.38,2,0.0116982634329904,0.1864952452978765,-0.3382362141862295,0.5256235539569094,-0.2486814313186506,0.0968350209019379,0.0120218602042702,0.0120218602042698,0.0120218602042698,0.0120218602042698,0.0120218602042698,0.0120218602042712,,,,,,
0.39,2,0.0118093062636501,0.1866062881285362,-0.3381251713555698,0.5257345967875691,-0.2485703884879909,0.0969460637325976,0.0111042830659741,0.0111042830659741,0.0111042830659768,0.0111042830659657,0.0111042830659768,0.0111042830659741,,,,,,
0.4,2,0.0119110637370594,0.1867080456019455,-0.3380234138821605,0.5258363542609784,-0.2484686310145816,0.0970478212060069,0.0101757473409281,0.0101757473409291,0.0101757473409236,0.0101757473409347,0.0101757473409236,0.0101757473409277,-1.8267204875537613,3.0861958474023705,0.1466863697463905,-0.586003548566606,1.999530366179682,0.8394961430766471
0.41,2,0.0120034354308773,0.1868004172957634,-0.3379310421883426,0.5259287259547962,-0.2483762593207637,0.0971401928998248,0.0092371693817894,0.0092371693817899,0.0092371693817927,0.0092371693817816,0.0092371693817927,0.0092371693817885,0.8535771734090282,-2.2365690480641605,0.465784693549047,3.394747179085055,1.9575128896661016,0.0229081949315544
0.42,2,0.0120863301853942,0.1868833120502803,-0.3378481474338257,0.5260116207093132,-0.2482933645662468,0.0972230876543417,0.0082894754516879,0.0082894754516865,0.0082894754516893,0.0082894754516948,0.0082894754516893,0.0082894754516879,0.670654304325228,2.239830355096695,2.756919969231426,-3.133050204620321,0.883011650630214,-1.879835690981241
0.43,2,0.0121596661934954,0.1869566480583815,-0.3377748114257246,0.5260849567174143,-0.2482200285581456,0.0972964236624429,0.0073336008101162,0.0073336008101165,0.0073336008101165,0.007333600810111,0.0073336008101165,0.0073336008101165,-0.5196455128704582,-3.149443850640927,3.900128623818688,2.575888786869747,2.4567101408658,0.6300985516825748
0.44,2,0.0122233710813948,0.1870203529462809,-0.3377111065378252,0.5261486616053137,-0.2481563236702463,0.0973601285503423,0.0063704887899413,0.0063704887899418,0.0063704887899362,0.0063704887899418,0.0063704887899362,0.0063704887899418,-3.986740540753305,2.06617567000992,0.0802436137062958,-2.8456194746813805,-1.476036195117777,1.367649408087162
0.45,2,0.0122773819800593,0.1870743638449454,-0.3376570956391607,0.5262026725039782,-0.2481023127715818,0.0974141394490068,0.0054010898664491,0.0054010898664497,0.0054010898664524,0.0054010898664524,0.0054010898664524,0.0054010898664483,4.477126851817876,-1.133262077289101,-0.8994876285737845,-3.017036076627806,-0.3427883745946307,0.2996710885497566
0.46,2,0.0123216455872527,0.1871186274521388,-0.3376128320319673,0.5262469361111716,-0.2480580491643884,0.0974584030562002,0.00442636071934,0.0044263607193395,0.0044263607193395,0.0044263607193339,0.0044263607193395,0.0044263607193409,-1.9405897172492392,1.7414441762800477,-0.7914466681957175,-2.0497328912613506,-0.2587920503564913,-5.4356908669526405
0.47,2,0.0123561182201387,0.1871531000850248,-0.3375783593990812,0.5262814087440576,-0.2480235765315023,0.0974928756890862,0.0034472632886022,0.0034472632886028,0.0034472632886028,0.0034472632886028,0.0034472632886028,0.0034472632886015,0.7250367574566946,3.053908236073866,1.0437918654198677,-0.1242334426297305,2.303572263198708,-0.2589569831147063
0.48,2,0.0123807658583906,0.1871777477232767,-0.3375537117608294,0.5263060563823095,-0.2479989288932504,0.0975175233273381,0.0024647638251915,0.0024647638251912,0.0024647638251884,0.002464763825194,0.0024647638251884,0.0024647638251912,-1.2684962119357583,0.5373037178283535,-0.2558016697763802,-1.290098255709662,2.354133285456082,1.4554570840155252
0.49,2,0.0123955641777652,0.1871925460426513,-0.3375389134414547,0.5263208547016841,-0.2479841305738758,0.0975323216467127,0.0014798319374599,0.0014798319374592,0.001479831937462,0.0014798319374564,0.001479831937462,0.0014798319374606,2.298506874006644,0.0938629208842757,-3.339050919070428,-1.4017446800492883,0.7518101453987215,-1.8571518811909176
0.5,2,0.0124004985741079,0.187197480438994,-0.337533979045112,0.5263257890980269,-0.2479791961775331,0.0975372560430554,0.0004934396342684,0.0004934396342692,0.0004934396342692,0.0004934396342748,0.0004934396342692,0.0004934396342679,-0.5452882079366597,0.0014358032794173,2.4138673174053062,-1.7028545677757894,0.6524610169574013,2.238456826996676
0.51,2,0.0123955641777652,0.1871925460426513,-0.3375389134414547,0.5263208547016841,-0.2479841305738758,0.0975323216467127,-0.0004934396342684,-0.0004934396342692,-0.0004934396342692,-0.0004934396342748,-0.0004934396342692,-0.0004934396342679,-1.279291601352931,-0.7334462396290111,1.8067012929952115,-1.6615954719727188,1.2290409573227774,-1.1151872244557808
0.52,2,0.0123807658583906,0.1871777477232767,-0.3375537117608294,0.5263060563823095,-0.2479989288932504,0.0975175233273381,-0.0014798319374599,-0.0014798319374592,-0.001479831937462,-0.0014798319374564,-0.001479831937462,-0.0014798319374606,1.425723159651798,2.46582582772463,2.477190216807842,-1.7001875158276318,-0.5406013396370244,-0.5254996992187386
0.53,2,0.0123561182201387,0.1871531000850248,-0.3375783593990812,0.5262814087440576,-0.2480235765315023,0.0974928756890862,-0.0024647638251915,-0.0024647638251912,-0.0024647638251884,-0.002464763825194,-0.0024647638251884,-0.0024647638251912,-2.29798504364287,0.0105135130806307,2.8799537282397107,0.6415681686716791,2.8608664029069573,0.5299537727367105
0.54,2,0.0123216455872527,0.1871186274521388,-0.3376128320319673,0.5262469361111716,-0.2480580491643884,0.0974584030562002,-0.0034472632886022,-0.0034472632886028,-0.0034472632886028,-0.0034472632886028,-0.0034472632886028,-0.0034472632886015,-0.5703513041647568,-4.115580632703657,0.5805375325374088,-1.0937871573713736,-0.7614495539792933,-1.7214601999708825
0.55,2,0.0122773819800593,0.1870743638449454,-0.3376570956391607,0.5262026725039782,-0.2481023127715818,0.0974141394490068,-0.0044263607193402,-0.0044263607193395,-0.0044263607193395,-0.0044263607193339,-0.0044263607193395,-0.0044263607193409,1.6467201258081778,2.0118599681943605,0.7278310374914151,-5.146371997554038,1.0063201790006016,1.9482590500996129
0.56,2,0.0122233710813948,0.1870203529462809,-0.3377111065378252,0.5261486616053137,-0.2481563236702463,0.0973601285503423,-0.005401089866449,-0.0054010898664497,-0.0054010898664524,-0.0054010898664524,-0.0054010898664524,-0.0054010898664483,3.289676215497783,1.9151850569993505,2.2272506638687823,0.115260430642994,-1.0406757750801363,2.656409655008325
0.5700000000000001,2,0.0121596661934954,0.1869566480583815,-0.3377748114257246,0.5260849567174143,-0.2482200285581456,0.0972964236624429,-0.0063704887899411,-0.0063704887899418,-0.0063704887899362,-0.0063704887899418,-0.0063704887899362,-0.0063704887899418,-1.6393433159935002,0.3462663638316509,-2.209159732329669,1.694314905383301,2.050042556298953,-2.0692688051864443
0.58,2,0.0120863301853942,0.1868833120502803,-0.3378481474338257,0.5260116207093132,-0.2482933645662468,0.0972230876543417,-0.0073336008101162,-0.0073336008101165,-0.0073336008101165,-0.007333600810111,-0.0073336008101165,-0.0073336008101151,-0.9284308659956036,-1.3085452936436468,-0.4772374614595019,-0.3567095726846602,-0.0384591562418388,-0.2370857014215049
0.59,2,0.0120034354308773,0.1868004172957634,-0.3379310421883426,0.5259287259547962,-0.2483762593207637,0.0971401928998248,-0.0082894754516881,-0.0082894754516865,-0.0082894754516893,-0.0082894754516948,-0.0082894754516893,-0.0082894754516893,1.0078784507490426,-2.0449267690648734,0.1156186529224527,-2.3154176785008715,4.298058862325414,3.923434828396056
0.6,2,0.0119110637370594,0.1867080456019455,-0.3380234138821605,0.5258363542609784,-0.2484686310145816,0.0970478212060069,-0.0092371693817894,-0.0092371693817899,-0.0092371693817927,-0.0092371693817816,-0.0092371693817927,-0.0092371693817885,-3.6826264769049306,-1.287876555654059,2.0844647849827584,1.7012669672972027,-0.0839502918945178,2.33839182051922
0.61,2,0.0118093062636501,0.1866062881285362,-0.3381251713555698,0.5257345967875691,-0.2485703884879909,0.0969460637325976,-0.0101757473409281,-0.0101757473409291,-0.0101757473409236,-0.0101757473409347,-0.0101757473409236,-0.0101757473409277,3.035776512889327,0.6875115290954863,-0.8305386955989766,-2.5290556870745724,2.0475596470425788,-3.084830671957625
0.62,2,0.0116982634329904,0.1864952452978765,-0.3382362141862295,0.5256235539569094,-0.2486814313186506,0.0968350209019379,-0.0111042830659739,-0.0111042830659741,-0.0111042830659768,-0.0111042830659657,-0.0111042830659768,-0.0111042830659741,-1.6704737987550755,-3.3904326668206712,-1.1717789329588295,-0.4217041220362483,-1.0844702442958314,2.478711770644188
0.63,2,0.0115780448309477,0.1863750266958338,-0.3383564327882722,0.5255033353548667,-0.2488016499206933,0.0967148022998952,-0.0120218602042702,-0.0120218602042698,-0.0120218602042698,-0.0120218602042698,-0.0120218602042698,-0.0120218602042712,-0.5386314823984837,1.1519536903044878,-0.6038216705979305,0.1813286341507947,-0.4344395812784413,-6.695071472274528
0.64,2,0.0114487690987681,0.1862457509636542,-0.3384857085204519,0.525374059622687,-0.248930925652873,0.0965855265677156,-0.0129275732179618,-0.0129275732179606,-0.0129275732179634,-0.012927573217969,-0.0129275732179634,-0.012927573217962,0.8652133344691709,0.454421574750036,1.2027127634176271,2.3875401537348564,0.099283534184717,1.3784198391543288
0.65,2,0.0113105638159916,0.1861075456808777,-0.3386239138032283,0.5252358543399105,-0.2490691309356494,0.0964473212849391,-0.0138205282776514,-0.0138205282776526,-0.0138205282776471,-0.0138205282776526,-0.0138205282776471,-0.0138205282776512,0.452995035140324,2.889712267847825,0.1319796728430574,1.3886457262229306,0.889299762528519,-1.5623862608002594
0.66,2,0.0111635653745465,0.1859605472394326,-0.3387709122446734,0.5250888558984654,-0.2492161293770945,0.096300322843494,-0.0146998441445044,-0.0146998441445028,-0.0146998441445056,-0.0146998441445056,-0.0146998441445056,-0.0146998441445042,-1.5700590355626878,1.7232181302063367,-2.6281244926391167,0.7137664402798669,-1.303492300280992,1.0729522649391106
0.67,2,0.0110079188441473,0.1858049007090334,-0.3389265587750726,0.5249332093680663,-0.2493717759074937,0.0961446763130948,-0.0155646530399199,-0.0155646530399206,-0.0155646530399233,-0.0155646530399122,-0.0155646530399233,-0.0155646530399192,3.806389547344601,-1.1201490605198312,-2.22926432363672,2.1015750343414545,-0.9492882668205134,0.6485283044706265
0.68,2,0.010843777829128,0.1856407596940141,-0.3390906997900919,0.524769068353047,-0.249535916922513,0.0959805352980755,-0.0164141015019285,-0.0164141015019297,-0.016414101501927,-0.016414101501927,-0.016414101501927,-0.0164141015019284,-4.780853165006815,-3.0508994445621904,0.5553669820860192,-2.0723716203865257,0.3734685130621885,0.4240891769126659
0.6900000000000001,2,0.0106713043168535,0.1854682861817396,-0.3392631733023664,0.5245965948407725,-0.2497083904347875,0.095808061785801,-0.0172473512274532,-0.0172473512274534,-0.0172473512274506,-0.0172473512274562,-0.0172473512274506,-0.0172473512274534,-1.869027933305116,-1.3069726862297388,0.6259560288388576,3.406585502263174,0.9947094298577468,1.329169734868237
0.7000000000000001,2,0.0104906685178574,0.1852876503827435,-0.3394438091013626,0.5244159590417763,-0.2498890262337837,0.0956274259868049,-0.0180635798996143,-0.0180635798996131,-0.0180635798996187,-0.0180635798996187,-0.0180635798996187,-0.0180635798996145,-0.8933569294996877,3.102213117729655,0.3450300201181197,-5.88066368596691,0.1269238203102639,-0.8328733036485465
0.71,2,0.0103020486978648,0.1850990305627509,-0.3396324289213551,0.5242273392217838,-0.2500776460537762,0.0954388061668123,-0.0188619819992567,-0.0188619819992574,-0.0188619819992519,-0.0188619819992519,-0.0188619819992519,-0.0188619819992574,-1.5143861826859375,0.9323947771200924,-0.6481409173091067,3.107467664011984,-0.1572984434694955,-1.0375925474881385
0.72,2,0.0101056310018658,0.1849026128667519,-0.3398288466173542,0.5240309215257848,-0.2502740637497753,0.0952423884708133,-0.0196417695999013,-0.0196417695999012,-0.019641769599904,-0.0196417695998984,-0.019641769599904,-0.0196417695999012,2.828580343052793,1.5419333377046045,1.8717116613384024,-1.42831270902683,-2.451389529926692,2.0222513616244058
0.73,2,0.0099016092704125,0.1846985911352986,-0.3400328683488074,0.5238268997943314,-0.2504780854812286,0.09503836673936,-0.0204021731453295,-0.0204021731453285,-0.0204021731453285,-0.0204021731453396,-0.0204021731453285,-0.0204021731453285,-2.9231482734038057,-0.9078668992637712,1.0372190398853691,1.016579108800726,1.2057586676931762,0.1733560347206233
0.74,2,0.009690184848322,0.1844871667132081,-0.3402442927708979,0.523615475372241,-0.250689509903319,0.0948269423172695,-0.0211424422090482,-0.0211424422090489,-0.0211424422090489,-0.0211424422090433,-0.0211424422090489,-0.0211424422090489,3.512142695382485,1.3229278018217452,0.9716251908717064,3.154915158989572,1.892117001056448,-0.9765785027878786
0.75,2,0.0094715663859734,0.1842685482508595,-0.3404629112332466,0.5233968569098923,-0.2509081283656677,0.0946083238549209,-0.0218618462348637,-0.0218618462348635,-0.0218618462348663,-0.0218618462348607,-0.0218618462348663,-0.0218618462348635,-0.155765264462049,-2.6843750032465525,1.0448459367708949,1.3813903871557516,2.129990519152652,-0.1931036122783667
0.76,2,0.0092459696333948,0.1840429514982809,-0.3406885079858252,0.5231712601573137,-0.2511337251182463,0.0943827271023423,-0.0225596752578587,-0.0225596752578577,-0.0225596752578549,-0.0225596752578605,-0.0225596752578549,-0.0225596752578591,-2.3184929285799147,2.228556372118077,3.500828789987898,1.005595352200945,0.508873531799727,-0.3661428310691791
0.77,2,0.0090136172273444,0.1838105990922305,-0.3409208603918756,0.5229389077512634,-0.2513660775242967,0.0941503746962919,-0.023235240605037,-0.0232352406050379,-0.0232352406050406,-0.0232352406050351,-0.0232352406050406,-0.0232352406050365,-3.7959230581111214,-1.95085664045784,-1.7408992343179324,1.994412823324749,-0.9972620928814144,-0.5281903492300608
0.78,2,0.0087747384715948,0.1835717203364809,-0.3411597391476251,0.5227000289955137,-0.2516049562800462,0.0939114959405423,-0.0238878755749619,-0.0238878755749627,-0.0238878755749571,-0.0238878755749682,-0.0238878755749571,-0.0238878755749627,-0.0222850025831519,-3.5873406272019737,-0.5331532671975774,-2.697380497011997,-0.4335750749983508,1.0497443416758263
0.79,2,0.0085295691106376,0.1833265509755237,-0.3414049085085823,0.5224548596345566,-0.2518501256410034,0.0936663265795852,-0.0245169360957134,-0.0245169360957142,-0.0245169360957142,-0.0245169360957087,-0.0245169360957142,-0.0245169360957128,-0.994275057455978,4.887284329581954,-0.3626605222730302,-2.396911901738802,0.5189674903151714,-1.5771783668852433
0.8,1,0.0024004985741079,0.177197480438994,-0.3475339790451121,0.5163257890980268,-0.2579791961775332,0.0875372560430554,-0.6129070536529764,-0.6129070536529752,-0.6129070536529779,-0.6129070536529779,-0.6129070536529779,-0.6129070536529765,0.8839394970084787,0.6331699943177291,2.8260879546698523,0.8059180131489162,0.1730441015552598,3.2045146684232635
0.81,1,0.0021888201575395,0.1770281377057393,-0.347406971995171,0.5164739639896248,-0.2578733569692489,0.087452584676428,-0.0211678416568408,-0.0169342733254723,0.0127007049941063,0.0148174891597907,0.0105839208284219,-0.0084671366627361,-0.4893155728524316,0.5782305481398125,-0.4363260360422412,-0.1320492455085795,-1.479822714792272,0.6102007786849998
0.8200000000000001,1,0.0015619263853946,0.1765266226880233,-0.3470308357318841,0.5169127896301262,-0.2575599100831765,0.0872018271675701,-0.0626893772144903,-0.050151501771592,0.0376136263286919,0.0438825640501461,0.0313446886072432,-0.025075750885796,2.323907032289495,-3.376039162106576,-1.273620085171438,-0.3627503182057363,-3.1543970642794315,-3.510433759537212
0.8300000000000001,1,0.0005320294740137,0.1757027051589186,-0.3464128975850555,0.5176337174680928,-0.2570449616274861,0.0867898684030177,-0.1029896911380912,-0.0823917529104739,0.0617938146828533,0.0720927837966622,0.0514948455690444,-0.0411958764552369,0.1273851159287369,1.6086922893133495,0.0994914952115461,2.738713337709401,-0.9013662657200918,0.711173562060332
0.84,1,-0.0008886583602627,0.1745661548914975,-0.3455604848844897,0.5186281989520863,-0.2563346177103479,0.0862215932693071,-0.1420687834276418,-0.1136550267421127,0.0852412700565852,0.0994481483993503,0.07103439171382,-0.0568275133710563,-0.4357905167921685,2.134951447264762,0.5197608794517128,2.5644600544993583,-0.3445940460666986,-1.70057412494492
0.85,1,-0.0026879249010941,0.1731267416588323,-0.3444809249599908,0.5198876855306683,-0.2554349844399321,0.0855018866529745,-0.1799266540831472,-0.1439413232665193,0.1079559924498874,0.1259486578581992,0.0899633270415756,-0.0719706616332596,2.3577871893719733,-0.0366957357538131,2.702574087151058,-1.581045431566598,0.8266434674500486,0.1039185308891084
0.86,1,-0.0048535579321402,0.1713942352339955,-0.3431815451413632,0.5214036286524005,-0.2543521679244091,0.0846356334405561,-0.2165633031046024,-0.1732506424836799,0.1299379818627655,0.1515943121732199,0.1082816515522999,-0.0866253212418399,0.866463989563975,2.140334914439713,-0.4506726234934466,1.1439347935640258,-0.6120913601606223,-0.1472774407878663
0.87,1,-0.0073733452370603,0.1693784053900594,-0.3416696727584111,0.5231674797658447,-0.2530922742719491,0.0836277185185881,-0.2519787304920096,-0.2015829843936084,0.1511872382952028,0.1763851113444126,0.1259893652460042,-0.1007914921968042,1.957829916187496,2.69980625391607,-1.0676152446327256,-2.8711336547966777,-0.2969931916743445,1.511791424612985
0.88,1,-0.0102350745995139,0.1670890219000965,-0.3399526351409389,0.5251706903195622,-0.2516614095907222,0.0824830267736066,-0.2861729362453678,-0.2289383489962937,0.1717037617472216,0.2003210553717549,0.1430864681226884,-0.1144691744981468,2.7039264170401527,1.4081488362619092,-1.5141226822144611,-2.921080106824075,0.4277669742825928,1.4874030140160657
0.89,1,-0.0134265338031607,0.1645358545371791,-0.3380377596187509,0.5274047117621149,-0.2500656799888988,0.0812064430921479,-0.3191459203646775,-0.2553167362917413,0.1914875522188053,0.2234021442552691,0.1595729601823359,-0.1276583681458706,-0.183358724282697,-3.97817804387966,-0.3850189842577161,-1.5321185158454451,3.336189431509152,0.5956235254067378
0.9,1,-0.0169355106316601,0.1617286730743795,-0.3359323735216512,0.5298609955420645,-0.2483111915746491,0.0798028523607482,-0.3508976828499388,-0.2807181462799513,0.2105386097099648,0.2456283779949553,0.1754488414249688,-0.1403590731399756,0.4779760755709502,-1.951739390560637,5.428542863271781,0.1452911800098755,-0.1317500530852164,3.9701858390135545
0.91,1,-0.0207497928686716,0.1586772472847703,-0.3336438041794443,0.5325309931079726,-0.2464040504561434,0.0782771394659435,-0.381428223701152,-0.3051425789609235,0.2288569342206892,0.2669997565908133,0.1907141118505761,-0.1525712894804617,2.0859301916123743,3.722138666119147,1.0634524016579436,-1.0574728728989051,-2.898436425399211,-1.3006606907103444
0.92,1,-0.0248571682978548,0.1553913469414238,-0.3311793789219344,0.5354061559084008,-0.2443503627415518,0.0766341892942703,-0.4107375429183157,-0.3285900343346526,0.2464425257509894,0.287516280042821,0.2053687714591578,-0.1642950171673263,-4.506540809973194,0.5096387158893799,1.4922647245886314,1.1482367235106334,-1.1723941505525215,2.878071735467323
0.93,1,-0.0292454247028691,0.1518807418174123,-0.3285464250789258,0.5384779353919108,-0.2421562345390446,0.0748788867322646,-0.4388256405014324,-0.351060512401144,0.2632953843008601,0.3071779483510006,0.2194128202507167,-0.175530256200572,0.1872957845859914,0.5148133492966528,0.2919251920335671,0.2120632530064984,3.810166464095007,2.9312058182879506
0.94,1,-0.0339023498673741,0.1481552016858083,-0.3257522699802228,0.5417377830070643,-0.2398277719567921,0.0730161166664626,-0.4656925164504992,-0.3725540131604005,0.279415509870301,0.3259847615153521,0.2328462582252499,0.0,-0.06323061604861,-1.3264138687610083,0.563782784309856,2.46758855306335,3.059782206211393,0.816599142477501
0.95,1,-0.0388157315750293,0.1442244963196842,-0.3228042409556297,0.5451771502024229,-0.2373710811029645,0.0710507639834005,-0.4913381707655171,-0.3930705366124137,0.2948029024593124,0.3439367195358533,0.2456690853827575,-0.1965352683062068,1.1299010613682374,-0.9425367781430312,1.8582635077690977,1.3271331658755523,2.0678894604066445,1.0568400384252268
0.96,1,-0.0439733576094941,0.1400983954921123,-0.3197096653349508,0.5487874884265483,-0.2347922680857321,0.0689877135696146,-0.5157626034464832,-0.4126100827571866,0.3094575620678885,0.3610338224125486,0.2578813017232423,-0.2063050413785933,-1.2255080716842803,2.712896921098718,1.4065409431602192,-1.8449913500110884,1.588703322264549,2.0379805061820315
0.97,1,-0.0493630157544282,0.1357866689761651,-0.3164758704479903,0.5525602491280022,-0.2320974390132651,0.0668318503116409,-0.5389658144934091,-0.4311726515947273,0.3233794886960461,0.3772760701453825,0.2694829072467042,-0.2155863257973636,2.562149967579616,3.31940351515174,0.9751604916635972,2.029302105995425,1.6083656277724212,-0.4979282634153049
0.98,1,-0.054972493793491,0.1312990865449148,-0.3131101836245527,0.5564868837553462,-0.2292926999937336,0.0645880590960158,-0.5609478039062831,-0.4487582431250275,0.3365686823437686,0.3926634627343994,0.2804739019531432,-0.2243791215625137,-1.110093573372,1.9114212858285715,0.3044807353422228,-1.500095935805616,-0.2988876857209765,-0.8816458548252197
0.99,1,-0.0607895795103421,0.1266454179714339,-0.309619932194442,0.5605588437571419,-0.2263841571353081,0.0622612248092754,-0.5817085716851071,-0.4653668573480846,0.3490251430110613,0.4071960001795771,0.2908542858425539,-0.2326834286740423,-0.5587855206453197,1.4143778856102105,-0.4372481451071716,1.0422892396850498,1.9100736526265312,-0.7806229137097109
1.0,1,-0.0668020606886409,0.1218354330287949,-0.3060124434874627,0.5647675805819511,-0.2233779165461587,0.0598562323379558,-0.6012481178298834,-0.4809984942639067,0.36074887069793,0.4208736824809156,0.3006240589149389,-0.2404992471319533,-0.9761088294074434,1.5584018187836852,1.110905893404318,-0.7699057984817675,1.984161409436064,0.709035688336865
1.01,1,-0.0729977251120471,0.1168789014900699,-0.302295044833419,0.5691045456783353,-0.2202800843344556,0.0573779665685934,-0.6195664423406146,-0.4956531538724912,0.3717398654043691,0.433696509638426,0.3097832211703094,-0.2478265769362456,2.8055887580394594,0.1580341405109171,0.4239406945996549,2.8579416828953166,1.8567571400675704,-0.8173991861189478
1.02,1,-0.07936436056422,0.1117855931283316,-0.2984750635621153,0.5735611904948564,-0.2170967666083691,0.0548313123877242,-0.6366635452172905,-0.5093308361738325,0.3819981271303729,0.4456644816521082,0.318331772608646,-0.2546654180869162,-3.832555774853124,-2.115211231265008,4.516704000639958,1.6670538531858343,-1.0335136310471953,-1.327153831229421
1.03,1,-0.0858897548288192,0.1065652777166523,-0.2945598270033557,0.5781289664800758,-0.2138340694760696,0.0522211546818845,-0.6525394264599207,-0.522031541167936,0.3915236558759583,0.4567775985219402,0.3262697132299597,-0.261015770583968,3.904796229999671,-2.5544465727773145,2.346461848079499,-1.185856896060371,-0.4899148108095641,-1.9580237682559627
1.04,1,-0.0925616956895042,0.1012277250281042,-0.2905566624869448,0.5827993250825554,-0.210498099045727,0.0495523783376105,-0.6671940860685011,-0.533755268854802,0.4003164516410973,0.4670358602479552,0.3335970430342505,-0.266877634427401,3.2698891855344594,2.9074401549642586,-1.109432877864548,-0.5781401079064606,-1.1284149389716602,-1.857787991212404
1.05,1,-0.0993679709299346,0.0957827048357599,-0.2864728973426865,0.5875637177508566,-0.2070949614255119,0.0468298682414384,-0.6806275240430384,-0.5445020192344302,0.4083765144258233,0.4764392668301198,0.3403137620215185,-0.2722510096172151,-0.814789649968863,0.204541781219145,-2.1063516528360653,6.72682695521779,2.144437129226968,-1.1733980937296278
1.06,1,-0.1062963683337698,0.0902399869126917,-0.2823158589003854,0.5924135959335413,-0.2036307627235942,0.0440585092799043,-0.6928397403835246,-0.5542717923068193,0.4157038442301142,0.4849878182684675,0.3464198701917637,-0.2771358961534096,2.3602706895898606,1.216746940738454,-0.5702851413385785,-2.339576572871038,0.7521248907377033,-1.1317798410674405
1.07,1,-0.1133346756846694,0.0846093410319721,-0.2780928744898456,0.597340411079171,-0.2001116090481444,0.0412431863395444,-0.7038307350899581,-0.5630645880719667,0.4222984410539754,0.4926815145629759,0.3519153675449776,-0.2815322940359833,0.5577825233330109,0.6760799136193124,-1.9471523908537272,-1.2635505545459726,0.9252995342663728,0.3125373512369479
1.08,1,-0.1204706807662929,0.0789005369666733,-0.2738112714408716,0.6023356146363075,-0.1965436065073327,0.038388784306895,-0.7136005081623459,-0.5708804065298764,0.428160304897407,0.4995203557136451,0.3568002540811715,-0.2854402032649382,3.594311555364294,0.7692541139001685,-0.7043597063937215,-1.171985465686848,1.2871618041083104,-1.458656830430217
1.09,1,-0.1276921713622998,0.0731233444898678,-0.2694783770832674,0.6073906580535122,-0.1929328612093293,0.0355001880684923,-0.722149059600688,-0.5777192476805484,0.4332894357604144,0.5055043417204752,0.3610745298003454,-0.2888596238402742,2.1803975911239792,0.9276296837349493,-1.7341351146530228,-2.1542133638800776,-2.6931300950416777,1.072929435351907
1.1,1,-0.1349869352563495,0.067287533374628,-0.2651015187468376,0.6124969927793471,-0.1892854792623044,0.0325822825108724,-0.7294763894049733,-0.5835811115239814,0.4376858336429812,0.5106334725834882,0.364738194702488,-0.2917905557619907,4.655705207303844,1.6237693903631851,-0.4565139214635502,-1.95061191361928,1.8893951969226797,4.020786855721115
1.11,1,-0.1423427602321017,0.0614028733940262,-0.2606880237613863,0.6176460702623736,-0.1856075667744283,0.0296399525205715,-0.735582497575224,-0.5884659980601781,0.4413494985451349,0.514907748302651,0.3677912487876106,-0.294232999030089,-2.8648173609780008,-1.3151407154589587,-0.4403502483637795,-0.0669467846097582,-0.9614446029661916,2.57987549459104
1.12,1,-0.1497474340732159,0.0554791343211349,-0.2562452194567178,0.6228293419511535,-0.1819052298538712,0.0266780829841259,-0.7404673841114123,-0.5923739072891301,0.4442804304668479,0.5183271688779856,0.3702336920557075,-0.296186953644565,0.6319706976109916,2.5755698700485024,0.4763942437478058,1.096589844169716,-0.7851051144082636,-2.04576271861834
1.13,1,-0.1571887445633515,0.0495260859290264,-0.2517804331626364,0.6280382592942485,-0.1781845746088034,0.0237015587880716,-0.7441310490135633,-0.5953048392108486,0.4464786294081369,0.5208917343095032,0.3720655245067816,-0.2976524196054243,-3.209369077908371,-1.2741338907157875,-0.2397270286983199,-3.049767690085248,-1.562222468655218,-0.5265915985856686
1.14,1,-0.164654479486168,0.0435534979907732,-0.2473009922089464,0.63326427374022,-0.1744517071473951,0.020715264818945,-0.7465734922816547,-0.5972587938253254,0.4479440953689961,0.5226014445971483,0.3732867461408273,-0.2986293969126627,-0.8092672722126143,0.6706368518039867,-1.6387569439926049,-0.8734937228949028,0.2635214453675175,-2.474271659382201
1.15,1,-0.1721324266253251,0.0375711402794476,-0.2428142239254522,0.63849883673763,-0.1707127335778166,0.0177240859632822,-0.747794713915706,-0.5982357711325631,0.4486768283494202,0.5234562997409986,0.373897356957853,-0.2991178855662815,4.716562772720294,-2.1840807830688056,2.58727878714038,-1.48585226328295,-0.0359503815254972,0.4524844084012784
1.16,1,-0.179610373764482,0.031588782568122,-0.2383274556419581,0.6437333997350397,-0.1669737600082382,0.0147329071076194,-0.7477947139156893,-0.598235771132552,0.4486768283494147,0.5234562997409764,0.3738973569578419,-0.299117885566276,1.1425407191206316,-0.1613492689197488,0.9549415450418328,-2.226232616086269,-2.690328419548488,0.5635678230845147
1.17,1,-0.1870761086872986,0.0256161946298688,-0.2338480146882681,0.6489594141810114,-0.1632408925468298,0.0117466131384928,-0.7465734922816603,-0.5972587938253282,0.4479440953689961,0.5226014445971705,0.3732867461408329,-0.2986293969126641,2.1639013642262,-1.1579084541341915,-0.9486221372038326,2.098814186598976,-3.492424562436815,0.4006533578923333
1.18,1,-0.1945174191774342,0.0196631462377603,-0.2293832283941868,0.6541683315241064,-0.1595202373017621,0.0087700889424385,-0.7441310490135578,-0.5953048392108445,0.4464786294081341,0.5208917343094921,0.3720655245067761,-0.2976524196054222,1.2111832231024786,0.1998641891286875,-1.6407458241815798,-1.4303927304556128,-0.3253065144770098,-2.050926067675617
1.19,1,-0.2019220930185483,0.013739407164869,-0.2249404240895183,0.6593516032128862,-0.155817900381205,0.0058082194059929,-0.7404673841114151,-0.5923739072891343,0.4442804304668479,0.5183271688779856,0.3702336920557103,-0.2961869536445671,1.0725354995581893,1.6117687498776836,-2.811877058407071,-2.64785132036312,1.7014695437768126,-1.2561263071927933
1.2,1,-0.2092779179943005,0.0078547471842672,-0.220526929104067,0.6645006806959127,-0.1521399878933289,0.002865889415692,-0.7355824975752157,-0.5884659980601725,0.4413494985451294,0.514907748302651,0.3677912487876078,-0.2942329990300862,-2.88341701119712,-1.686615355143575,-4.613209476445183,0.2280309147962336,0.2091125160959066,0.6857637398604277
1.21,1,-0.2165726818883503,0.0020189360690274,-0.2161500707676371,0.6696070154217476,-0.148492605946304,-5.201614192785781e-05,-0.7294763894049788,-0.5835811115239842,0.4376858336429895,0.5106334725834882,0.364738194702488,-0.2917905557619921,-1.4892554618802492,3.864987636251783,2.130479103740188,2.543229364366962,2.024545920784945,0.7755313840088635
1.22,1,-0.2237941724843572,-0.0037582564077781,-0.2118171764100329,0.6746620588389525,-0.1448818606483005,-0.0029406123803306,-0.7221490596006963,-0.5777192476805554,0.4332894357604172,0.5055043417204863,0.3610745298003481,-0.2888596238402777,-1.319926355176145,1.4179043946003005,1.9916873394331411,0.5996933870732155,-0.3244561984804902,-1.7913492218945608
1.23,1,-0.2309301775659806,-0.0094670604730767,-0.207535573361059,0.6796572623960888,-0.1413138581074889,-0.0057950144129799,-0.7136005081623348,-0.5708804065298667,0.4281603048973986,0.499520355713634,0.356800254081166,-0.2854402032649333,-5.8444959447462255,-0.7563990293407724,-0.9804016845574656,-1.6687684047201428,-0.5857016394962318,-2.661483732199271
1.24,1,-0.2379684849168802,-0.0150977063537965,-0.2033125889505191,0.6845840775417186,-0.1377947044320391,-0.0086103373533398,-0.7038307350899636,-0.5630645880719737,0.4222984410539809,0.4926815145629759,0.3519153675449832,-0.2815322940359868,-0.7218497755471776,-0.6052727404056726,3.0046684478504204,-0.2491459844300432,-0.0471509267946693,-0.2788916995969103
1.25,1,-0.2448968823207154,-0.0206404242768646,-0.1991555505082181,0.6894339557244031,-0.1343305057301215,-0.0113816963148739,-0.6928397403835163,-0.5542717923068124,0.4157038442301086,0.4849878182684564,0.3464198701917581,-0.2771358961534062,-0.2636168562232029,0.1812252939184412,1.5950096116548815,-0.9061534874577936,1.8397736766273112,-0.4195930580776308
1.26,1,-0.2517031575611458,-0.0260854444692089,-0.1950717853639598,0.6941983483927044,-0.1309273681099063,-0.014104206411046,-0.6806275240430426,-0.544502019234433,0.4083765144258261,0.4764392668301309,0.3403137620215213,-0.2722510096172165,-2.1782922214659104,0.6857816446951827,0.8619250225222267,0.4071491897649816,3.514300466666403,-2.7892521951098628
1.27,1,-0.2583750984218308,-0.0314229971577569,-0.1910686208475488,0.698868706995184,-0.1275913976795638,-0.01677298275532,-0.6671940860685011,-0.533755268854802,0.4003164516411001,0.4670358602479552,0.3335970430342505,-0.266877634427401,-1.4082534826002044,-3.3465207079438075,2.277776592590239,2.04382525229781,-0.5710042357055941,-0.8767629418810401
1.28,1,-0.2649004926864301,-0.0366433125694363,-0.1871533842887893,0.7034364829804034,-0.1243287005472641,-0.0193831404611597,-0.6525394264599249,-0.5220315411679388,0.3915236558759527,0.4567775985219402,0.3262697132299624,-0.2610157705839694,-0.3138444028009126,0.2326969847652535,1.893621447438218,0.6714697385352342,-0.1190854864769894,-1.2739504977691904
1.29,1,-0.271267128138603,-0.0417366209311746,-0.1833334030174855,0.7078931277969245,-0.1211453828211777,-0.0219297946420289,-0.636663545217292,-0.5093308361738297,0.3819981271303757,0.4456644816521082,0.318331772608646,-0.2546654180869148,0.1790856820235056,-3.625290176445086,1.0709603339523146,0.8284234209875079,0.5392324151222115,-1.5249611512200965
1.3,1,-0.2774627925620091,-0.0466931524698995,-0.1796160043634418,0.7122300928933087,-0.1180475506094746,-0.0244080604113913,-0.6195664423406078,-0.4956531538724912,0.3717398654043663,0.433696509638426,0.3097832211703039,-0.2478265769362456,-4.221752811324589,-0.3038630655377075,0.3943085973679047,-0.0737177850866915,0.0137445541828044,-1.2526801706679194
1.31,1,-0.283475273740308,-0.0515031374125386,-0.1760085156564625,0.716438829718118,-0.1150413100203252,-0.0268130528827109,-0.601248117829889,-0.4809984942639067,0.36074887069793,0.4208736824809267,0.3006240589149445,-0.2404992471319533,-3.659847811297837,0.636558233662956,0.7744568770338309,2.40235973692374,-0.5484510014470345,0.104583804641779
1.32,1,-0.289292359457159,-0.0561568059860195,-0.1725182642263519,0.7205107897199138,-0.1121327671618996,-0.0291398871694513,-0.5817085716851078,-0.4653668573480901,0.3490251430110697,0.4071960001795771,0.2908542858425539,-0.232683428674045,-0.816600431691026,-1.1495210783391183,-2.1092052371954395,1.9323720115984315,0.4320013863598537,-0.3130205446139584
1.33,1,-0.2949018374962218,-0.0606443884172697,-0.1691525774029142,0.7244374243472577,-0.1093280281423683,-0.0313836783850764,-0.5609478039062754,-0.4487582431250192,0.336568682343763,0.3926634627343883,0.2804739019531377,-0.2243791215625096,-1.404299418730373,-6.590757878169755,-0.3735941118033452,-2.354629911357641,-0.826049995904553,1.969503537548613
1.34,1,-0.300291495641156,-0.0649561149332171,-0.1659187825159537,0.7282101850487116,-0.1066331990699012,-0.0335395416430501,-0.5389658144934195,-0.4311726515947356,0.3233794886960489,0.3772760701453936,0.2694829072467097,-0.2155863257973678,-0.1603939862629921,-5.698850744567593,4.952312457914459,-2.1127087476861206,2.279861311701286,-0.1947361283698718
1.35,1,-0.3054491216756209,-0.0690822157607889,-0.1628242068952748,0.731820523272837,-0.1040543860526687,-0.035602592056836,-0.5157626034464846,-0.4126100827571893,0.3094575620678941,0.3610338224125375,0.2578813017232423,-0.2063050413785946,-0.5168131237514944,-1.2078319324336952,-0.1760208945073023,0.9178354398642689,3.851201119068028,0.969256446287582
1.36,1,-0.310362503383276,-0.0730129211269131,-0.1598761778706817,0.7352598904681956,-0.1015976951988412,-0.0375679447398981,-0.4913381707655151,-0.393070536612411,0.2948029024593068,0.3439367195358644,0.2456690853827575,-0.1965352683062055,1.42750427174464,-7.44382107433381,-2.0929402258204988,3.655471907428231,0.4115995154612716,-3.3379164169142284
1.37,1,-0.3150194285477811,-0.0767384612585171,-0.1570820227719787,0.7385197380833491,-0.0992692326165886,-0.0394307148057001,-0.4656925164505054,-0.3725540131604032,0.2794155098703038,0.3259847615153521,0.2328462582252527,-0.1862770065802016,-4.272969751667367,-1.5231424980302155,3.548118999918911,4.182347397668848,4.3827395473485735,-0.438128402272453
1.38,1,-0.3194076849527952,-0.0802490663825284,-0.1544490689289702,0.741591517566859,-0.0970751044140816,-0.0411860173677058,-0.4388256405014168,-0.3510605124011356,0.2632953843008517,0.3071779483509895,0.2194128202507084,-0.1755302562005678,-0.8206350987876503,-0.9830661412063368,2.37136394716909,3.5115835806043094,0.9188084668682333,-1.537824213202115
1.39,1,-0.3235150603819785,-0.083534966725875,-0.1519846436714602,0.7444666803672874,-0.0950214166994899,-0.0428289675393791,-0.4107375429183268,-0.3285900343346581,0.2464425257509922,0.2875162800428321,0.2053687714591634,-0.164295017167329,-6.112758246339198,-0.8950663558199543,2.6197293653879905,1.822481083025497,-0.1812406411819878,0.603276644547492
1.4,1,-0.3273293426189899,-0.0865863925154842,-0.1496960743292534,0.7471366779331953,-0.0931142755809842,-0.0443546804341836,-0.3814282237011412,-0.3051425789609152,0.2288569342206864,0.2669997565907911,0.1907141118505706,-0.1525712894804576,0.2162589709329996,-3.863617608672756,1.8324711541519247,5.193032900508424,2.6659540271507165,-0.3880032655321893
1.41,1,-0.3308383194474892,-0.0893935739782836,-0.1475906882321538,0.7495929617131448,-0.0913597871667346,-0.0457582711655834,-0.3508976828499266,-0.2807181462799402,0.2105386097099565,0.2456283779949553,0.1754488414249633,-0.1403590731399701,-3.965234476077839,-2.7210987032026512,4.108040520607272,0.95871938875446,-0.4748567938887462,2.2021562394275853
1.42,1,-0.3340297786511361,-0.0919467413412011,-0.1456758127099656,0.7518269831556976,-0.0897640575649111,-0.0470348548470421,-0.319145920364694,-0.2553167362917552,0.1914875522188164,0.2234021442552802,0.159572960182347,-0.1276583681458776,-4.096545075664041,-3.3996249371724496,5.486112468606473,1.8630014417611784,2.702203882967172,-2.86362134971642
1.43,1,-0.3368915080135898,-0.0942361248311641,-0.1439587750924934,0.7538301937094153,-0.0883331928836843,-0.0481795465920236,-0.2861729362453713,-0.2289383489962992,0.1717037617472244,0.200321055371766,0.1430864681226856,-0.1144691744981496,-3.5093771739727977,-6.983885902883916,1.5251367153798996,-0.1548438822317788,2.0432855523194293,-2.474380030090359
1.44,1,-0.3394112953185099,-0.0962519546751001,-0.1424469027095414,0.7555940448228593,-0.0870732992312242,-0.0491874615139916,-0.2519787304920085,-0.2015829843936001,0.1511872382952028,0.1763851113444015,0.1259893652460042,-0.1007914921968,-8.51079662143227,-2.7701697810143537,3.975873983462483,2.138754792840765,0.8094689396271413,-0.4210827975337848
1.45,1,-0.341576928349556,-0.097984461099937,-0.1411475228909137,0.7571099879445915,-0.0859904827157012,-0.0500537147264101,-0.2165633031046054,-0.1732506424836855,0.1299379818627627,0.1515943121732199,0.1082816515523027,-0.0866253212418427,-8.262131587562116,-1.702069689672746,5.089766400173134,1.2486041060774404,0.6795144346646271,-1.4146496510448974
1.46,1,-0.3433761948903874,-0.0994238743326021,-0.1400679629664149,0.7583694745231736,-0.0850908494452855,-0.0507734213427426,-0.1799266540831401,-0.1439413232665165,0.1079559924498846,0.1259486578582103,0.08996332704157,-0.0719706616332582,-6.195046672678616,-3.327526420111444,1.84027528923966,6.19040636407383,0.0342589319705699,-3.09355766227784
1.47,1,-0.3447968827246638,-0.1005604246000232,-0.1392155502658491,0.759363956007167,-0.0843805055281473,-0.0513416964764532,-0.1420687834276401,-0.1136550267421099,0.0852412700565852,0.0994481483993392,0.07103439171382,-0.0568275133710549,-6.049460035464464,-5.935380266063735,6.1581352623514585,5.939070501912017,3.924370534308528,-0.510945764809786
1.48,1,-0.3458267796360448,-0.1013843421291281,-0.1385976121190205,0.7600848838451337,-0.0838655570724568,-0.0517536552410056,-0.1029896911381,-0.0823917529104822,0.0617938146828589,0.0720927837966733,0.05149484556905,-0.0411958764552411,-2.890540855629112,-3.673134932814166,5.5124164058751255,3.5256058722750243,1.4968581850922429,-2.298645688122254
1.49,1,-0.3464536734081896,-0.101885857146844,-0.1382214758557335,0.7605237094856351,-0.0835521101863843,-0.0520044127498635,-0.0626893772144865,-0.0501515017715892,0.0376136263286919,0.043882564050135,0.0313446886072432,-0.0250757508857946,-9.268553766687033,-2.780489599487108,0.9408682938693822,4.474273867194155,2.6455133524572827,-0.4571959458192589
1.5,1,-0.346665351824758,-0.1020551998800987,-0.1380944688057925,0.760671884377233,-0.0834462709781002,-0.0520890841164909,-0.0211678416568383,-0.0169342733254695,0.0127007049941035,0.0148174891597907,0.0105839208284191,-0.0084671366627347,-4.603540551701965,-3.265116363401483,6.757144205784356,2.4724541780969496,2.0813424209602545,-4.807687357642871
1.51,1,-0.3464573085779203,-0.1018887652826285,-0.1382192947538952,0.7605262541044466,-0.083550292601519,-0.0520058668177558,0.0208043246837708,0.0166434597470177,-0.0124825948102647,-0.0145630272786356,-0.0104021623418867,0.0083217298735088,-8.527656355996276,-3.7644662946502137,1.3295942393596727,-1.2530262130945728,1.758798990782004,-2.0437172320490853
1.52,1,-0.3458387638910135,-0.101393929533103,-0.1385904215660392,0.7600932728236118,-0.0838595649449724,-0.0517584489429931,0.0618544686906807,0.049483574952544,-0.0371126812144073,-0.0432981280834798,-0.030927234345339,0.024741787476272,-8.866367491810362,-9.22098344989551,2.474474868927927,2.4334777013418485,2.914724922967441,-1.191423375063034
1.53,1,-0.3448180953444472,-0.10057739469585,-0.139202822693979,0.7593788048410154,-0.0843698992182556,-0.0513501815243666,0.1020668546566294,0.0816534837253024,-0.0612401127939754,-0.0714467982596445,-0.0510334273283147,0.0408267418626512,-8.943648577555198,-5.457984006211459,5.356130955312802,5.590966581046376,3.364022242973313,-1.2142195352974583
1.54,1,-0.343403680518631,-0.099445862835197,-0.1400514715894687,0.7583887144629441,-0.0850771066311637,-0.0507844155940401,0.1414414825816223,0.113153186065297,-0.0848648895489717,-0.0990090378071295,-0.0707207412908098,0.0565765930326485,-28.597421633753186,-5.178024652245744,6.2097692254354095,5.1062796098643215,2.69414608239219,-0.2015293784781229
1.55,1,-0.3416038969939744,-0.0980060360154718,-0.1411313417042626,0.7571288659956845,-0.0859769983934919,-0.0500645021841775,0.1799783524656539,0.1439826819725237,-0.1079870114793934,-0.1259848467259572,-0.0899891762328283,0.0719913409862618,-8.251624497752776,-4.604309969572951,4.460641285510073,3.578824837168709,2.115334586867857,-2.134372317781821
1.56,1,-0.3394271223508871,-0.0962646163010019,-0.142437406490115,0.7556051237455234,-0.0870653857150356,-0.0491937923269425,0.2176774643087298,0.1741419714469866,-0.1306064785852406,-0.1523742250161164,-0.1088387321543662,0.0870709857234933,-10.313705198122246,-5.859763860702742,3.1381512524896173,5.972836059396073,0.3945856447129046,-0.7950172439589928
1.57,1,-0.3368817341697786,-0.0942283057561151,-0.1439646393987802,0.7538233520187474,-0.0883380798055899,-0.0481756370544991,0.2545388181108554,0.2036310544886829,-0.1527232908665132,-0.178177172677596,-0.1272694090554263,0.1018155272443414,-12.639699161164213,-3.993218641893328,4.010213005718816,3.6806900284879553,1.434300572585824,-1.873038650345384
1.58,1,-0.3339761100310584,-0.091903806445139,-0.1457080138820123,0.7517894151216433,-0.08979089187495,-0.0470133873990111,0.2905624138720197,0.2324499310976127,-0.1743374483232085,-0.2033936897104071,-0.1452812069360085,0.1162249655488063,-10.64472868958127,-10.955305574588207,3.903750549308926,2.4650687854973308,2.101139122707182,-0.3102261372572579
1.59,1,-0.3307186275151362,-0.0892978204324012,-0.1476625033915656,0.7495091773604977,-0.0914196331329111,-0.0457103943926422,0.3257482515922172,0.2605986012737774,-0.1954489509553347,-0.2280237761145609,-0.1628741257961113,0.1302993006368887,-9.481027824734264,-6.381454531899976,6.470951074310404,6.350647148218693,2.8157937297385165,-4.893792194178487
1.6,1,-0.3271176642024215,-0.0864170497822294,-0.1498230813791944,0.7469885030415975,-0.0932201147892684,-0.0442700090675563,0.3600963312714755,0.2880770650171768,-0.2160577987628809,-0.252067431890024,-0.180048165635735,0.1440385325085884,-13.478540163137824,-6.734399441038995,4.1018307966536565,3.767998371695216,-0.6258217255012117,-7.067161867796533
1.61,1,-0.3231815976733239,-0.0832681965589513,-0.152184721296653,0.7442332564712291,-0.0951881480538172,-0.0426955824559172,0.3936066529097615,0.3148853223278097,-0.236163991745858,-0.2755246570368408,-0.1968033264548807,0.1574426611639048,-9.78369639439236,-6.076558248956088,3.732038529857591,7.161838487212998,4.158137967716652,0.6099077798217949
1.62,1,-0.3189188055082529,-0.0798579628268946,-0.1547423965956956,0.7412493019556794,-0.0973195441363527,-0.0409904655898888,0.4262792165070916,0.3410233732056775,-0.2557675299042578,-0.2983954515549669,-0.2131396082535486,0.1705116866028387,-8.853194739100697,-4.982360645460307,2.2002352057172616,1.2268357949510302,3.626271411072128,-3.0719692299534618
1.63,1,-0.3143376652876182,-0.0761930506503868,-0.1574910807280764,0.7380425038012352,-0.0996101142466701,-0.039158009501635,0.4581140220634772,0.3664912176507773,-0.274868413238083,-0.3206798154444246,-0.2290570110317358,0.1832456088253886,-8.51416693044829,-10.022462558681225,4.081893006159408,4.193000753892825,1.88301521628348,-5.377611144781239
1.64,1,-0.3094465545918292,-0.0722801620937557,-0.1604257471455498,0.7346187263141829,-0.1020556695945645,-0.0372015652233194,0.4891110695788903,0.3912888556631133,-0.2934666417473364,-0.3423777487052248,-0.2445555347894465,0.1956444278315566,-11.050923557622948,-5.40244481823467,5.145647849310072,6.632513945222128,1.274960084973094,-2.326813078754137
1.65,1,-0.3042538510012957,-0.0681259992213288,-0.1635413692998699,0.7309838338008094,-0.1046520213898313,-0.035124483787106,0.5192703590533532,0.4154162872426828,-0.3115622154320097,-0.3634892513373455,-0.2596351795266766,0.2077081436213414,-15.5797157475267,-6.957349964781432,3.229813343845687,6.527903660880378,1.7925389859411656,-3.0752288673792503
1.66,1,-0.2987679320964271,-0.063737264097434,-0.166832920642791,0.7271436905674014,-0.1073949808422656,-0.0329301162251585,0.5485918904868603,0.4388735123894885,-0.3291551342921167,-0.3840143233408088,-0.2742959452434301,0.2194367561947442,-10.91078881328848,-9.122738676826993,2.105358442674424,5.195628169035805,0.5742977442801984,-1.3309770528588765
1.67,1,-0.2929971754576332,-0.0591206587863988,-0.1702953746260674,0.7231041609202457,-0.1102803591616626,-0.030621813569641,0.5770756638793895,0.4616605311035117,-0.3462453983276353,-0.4039529647155704,-0.2885378319396947,0.2308302655517558,-10.498263484470442,-10.72057124232262,7.654668981077977,6.305805964197312,2.5962942759914784,-1.1139177550647346
1.68,1,-0.2869499586653232,-0.0542828853525509,-0.1739237047014533,0.7188711091656287,-0.1133039675578175,-0.028202926852717,0.6047216792309962,0.4837773433847968,-0.362833007538596,-0.4233051754616967,-0.3023608396154981,0.2418886716923984,-14.04272627357308,-8.657894178717047,3.7893918227348142,6.100029522633595,2.9665631742286096,-2.960731664382112
1.69,1,-0.2806346592999069,-0.0492306458602178,-0.1777128843207031,0.7144503996098373,-0.1164616172405257,-0.0256768071065505,0.6315299365416305,0.5052239492333028,-0.3789179619249794,-0.4420709555791435,-0.3157649682708152,0.2526119746166514,-13.002061600937513,-8.619332048866235,3.262349340751284,2.9252714184914166,5.210269258841813,-0.2933957699406473
1.7,1,-0.2740596549417939,-0.0439706423737274,-0.181657886935571,0.7098478965591581,-0.1197491194195822,-0.0230468053633053,0.6575004358113035,0.5260003486490438,-0.3945002614867826,-0.4602503050679107,-0.3287502179056517,0.2630001743245219,-12.086032070376772,-8.640756833447442,9.105938443463533,5.254606457480332,4.366791058754234,-4.596684943463043
1.71,1,-0.2672333231713937,-0.0385095769574072,-0.1857536859978111,0.7050694643198779,-0.1231622853047823,-0.0203162726551452,0.6826331770400262,0.5461065416320201,-0.4095799062240141,-0.4778432239280206,-0.3413165885200131,0.27305327081601,-9.664254340417346,-10.70141617712251,7.745182059322341,6.50979215993114,5.95424861120789,-6.89727466280618
1.72,1,-0.2601640415691159,-0.0328541516755849,-0.1899952549591778,0.7001209671982834,-0.1266969261059213,-0.017488560014234,0.7069281602277822,0.5655425281822252,-0.4241568961366682,-0.4948497121594508,-0.3534640801138911,0.2827712640911126,-13.924539410717774,-8.344823054204141,8.17400564240297,7.135051421911258,3.723073153212936,-1.9202973184741985
1.73,1,-0.25286018771537,-0.0270110685925882,-0.1943775672714253,0.6950082695006614,-0.1303488530327942,-0.0145670184727357,0.7303853853745823,0.5843083082996692,-0.4382312312247532,-0.5112697697622015,-0.3651926926872911,0.2921541541498346,-11.792425069642048,-10.481819657623676,7.20326510001821,6.054205745302348,1.71174443810916,-2.748482321268339
1.74,1,-0.2453301391905656,-0.0209870297727448,-0.1988955963863079,0.6897372355332984,-0.1341138772951964,-0.0115549990628139,0.7530048524804378,0.6024038819843494,-0.451802911488261,-0.5271033967363059,-0.3765024262402189,0.3012019409921747,-13.09198196464127,-7.335742743448229,8.879651520049133,5.136378594039831,7.047277693920336,-6.03638689334084
1.75,1,-0.2375822735751124,-0.0147887372803822,-0.2035443157555799,0.684313729602481,-0.137987810102923,-0.0084558528166326,0.7747865615453237,0.6198292492362575,-0.4648719369271942,-0.5423505930817307,-0.3873932807726604,0.3099146246181287,-13.462417559620874,-6.437206318401836,8.081743527667498,3.62095863725766,2.9571573376416085,-1.0410603756306551
1.76,1,-0.2296249684494198,-0.0084228931798281,-0.2083186988309954,0.6787436160144963,-0.1419664626657693,-0.0052729307663556,0.7957305125692565,0.6365844100554047,-0.4774383075415528,-0.557011358798476,-0.3978652562846296,0.3182922050277023,-11.323595635299023,-11.561773219332151,5.677860801143275,7.838755673991187,0.5277448483878593,-5.666364775633876
1.77,1,-0.2214666013938975,-0.0018961995354103,-0.2132137190643088,0.6730327590756306,-0.1460456461935304,-0.0020095839441467,0.8158367055522281,0.6526693644417825,-0.4895020233313368,-0.5710856938865638,-0.4079183527761154,0.3263346822208912,-15.756719208166826,-9.885639922068371,4.282000889854241,7.655506098285858,4.080462570802389,-2.5020078594557207
1.78,1,-0.213115549988955,0.0047846415885436,-0.2182243499072743,0.6671870230921709,-0.1502211718960016,0.0013308366178302,0.8351051404942494,0.6680841123953992,-0.5010630842965491,-0.5845735983459721,-0.4175525702471233,0.3340420561976996,-13.727991461989122,-8.119483342019768,3.8844942182475073,8.37405577710236,0.4772012863602901,-0.7480284586429871
1.79,1,-0.2045801918150019,0.0116129281277061,-0.2233455648116461,0.6612122723704038,-0.1544888509829782,0.0047449798874114,0.8535358173953095,0.6828286539162481,-0.5121214904371868,-0.5974750721767119,-0.4267679086976533,0.341414326958124,-14.214464430381032,-9.559646640803066,6.203191073907522,4.26557145649356,3.5006280151187696,-1.770480984089311
1.8,1,-0.1958689044524479,0.0185819580177493,-0.2285723372291786,0.6551143712166159,-0.1588444946642552,0.0082294948324331,0.8711287362554082,0.6969029890043262,-0.5226772417532444,-0.6097901153787944,-0.4355643681277055,0.3484514945021631,-17.34731823403588,-12.85291236713838,4.30729225024294,6.681795880884257,2.7281313334928026,-1.88259597945011
1.81,1,-0.1869900654817023,0.0256850291943458,-0.2338996406116259,0.648899183937094,-0.163283914149628,0.0117810304207313,0.8878838970745567,0.7103071176596462,-0.5327303382447357,-0.6215187279521861,-0.4439419485372797,0.3551535588298231,-11.917079098493817,-8.443245175502225,4.929280337128965,5.061217728163556,4.730666444072138,-3.2285596521246256
1.82,1,-0.1779520524831748,0.0329154395931678,-0.2393224484107424,0.6425725748381248,-0.1678029206488918,0.0153962356201423,0.9038012998527468,0.7230410398821968,-0.5422807799116469,-0.6326609098969205,-0.4519006499263733,0.3615205199410984,-12.756614497100506,-11.39754262639537,6.22987781471378,6.538933038315557,5.590521301700382,-1.9369054698724888
1.83,1,-0.1687632430372751,0.0402664871498875,-0.2448357340782823,0.6361404082259949,-0.1723973253718416,0.0190717593985022,0.9188809445899754,0.7351047556719781,-0.5513285667539863,-0.6432166612129864,-0.4594404722949863,0.367552377835989,-14.362440263107684,-9.786052949480087,9.332276080520256,12.25173719525614,3.0295557415776733,-1.2476015630838766
1.84,1,-0.1594320147244126,0.0477314698001775,-0.2504344710659997,0.6296085484069912,-0.1770629395282729,0.0228042507236472,0.9331228312862456,0.7464982650289997,-0.5598736987717456,-0.6531859819003727,-0.4665614156431241,0.3732491325144998,-14.95116593589172,-12.16356672148843,3.5094252968328843,8.229961420466894,2.877811084129445,-3.541638065354892
1.85,1,-0.1499667451249969,0.0553036854797101,-0.2561136328256492,0.6229828596874002,-0.1817955743279807,0.0265903585634134,0.946526959941571,0.7572215679532562,-0.5679161759649443,-0.6625688719591016,-0.4732634799707841,0.3786107839766281,-14.408343167175609,-8.5619269321868,6.575889524839395,4.887315602058028,5.172632642876551,-4.498808764726183
1.86,1,-0.1403758118194376,0.0629764321241575,-0.2618681928089847,0.6162692063735088,-0.1865910409807603,0.0304267318856371,0.9590933305559268,0.7672746644447392,-0.5754559983335517,-0.6713653313891399,-0.4795466652779634,0.3836373322223696,-12.956104549827336,-10.955655184832128,3.9910042509009926,5.860706842870567,2.104156106256883,-0.6420025070713034
1.87,1,-0.1306675923881444,0.0707430076691921,-0.2676931244677606,0.6094734527716035,-0.191445150696407,0.0343100196581544,0.970821943129324,0.7766575545034599,-0.5824931658775956,-0.6795753601905319,-0.485410971564662,0.3883287772517299,-14.208311340498192,-8.261637063097773,5.34996967440733,5.600411331934315,3.742979830870236,1.506572004312956
1.88,1,-0.1208504644115267,0.0785967100504863,-0.2735834012537313,0.6026014631879711,-0.1963537146847158,0.0382368708488015,0.9817127976617684,0.7853702381294153,-0.589027678597065,-0.6871989583632332,-0.4908563988308856,0.3926851190647076,-15.573060888087678,-10.427301970363551,8.282278631889636,6.522025700593812,4.668246964835678,0.8176824508903682
1.89,1,-0.1109328054699941,0.0865308372037123,-0.2795339966186508,0.5956591019288983,-0.2013125441554821,0.0422039344254145,0.991765894153257,0.7934127153226056,-0.5950595364919486,-0.6942361259072882,-0.4958829470766257,0.3967063576613028,-15.176394158131597,-10.880837494719676,4.676739775269379,3.1667601062283053,1.970036048119976,-7.396087404405462
1.9,1,-0.1009229931439562,0.0945386870645426,-0.2855398840142736,0.5886522333006717,-0.206317450318501,0.0462078593558297,1.0009812326037926,0.8007849860830335,-0.60058873956228,-0.7006868628226526,-0.5004906163018963,0.4003924930415167,-14.050386285437794,-9.000175150598558,5.788195984724028,6.793100304753646,2.9105391513939134,0.39145098290181
1.91,1,-0.0908294050138226,0.1026135575686495,-0.2915960368923537,0.5815867216095782,-0.2113642443835678,0.0502452946078832,1.0093588130133584,0.8074870504106879,-0.6056152878080145,-0.7065511691093485,-0.5046794065066806,0.4037435252053439,-15.757085617795548,-11.866835970511644,6.5302784025338365,1.8333786975878332,3.669582789030809,-3.3451236264676307
1.92,1,-0.080660418660003,0.1107487466517052,-0.2976974287046455,0.5744684311619045,-0.2164487375604777,0.054312889149411,1.0168986353819631,0.8135189083055688,-0.6101391812291745,-0.7118290447673759,-0.5084493176909816,0.4067594541527844,-13.077359628328349,-6.005782299002542,7.577880817305111,2.640531775463941,6.081995156427441,1.5613698640603468
1.93,1,-0.0704244116629067,0.1189375522493823,-0.3038390329029033,0.5673032262639371,-0.2215667410590258,0.0584072919482495,1.0236006997096314,0.818880559767704,-0.6141604198257822,-0.7165204897967348,-0.5118003498548157,0.409440279883852,-15.168575724146516,-9.105922262953545,5.001049513019511,9.901057606755238,0.9511711049019844,-4.078744589825736
1.94,1,-0.0601297616029433,0.1271732722973529,-0.3100158229388813,0.5600969712219628,-0.2267140660890075,0.0625251519722349,1.0294650059963328,0.8235720047970685,-0.6176790035977986,-0.7206255041974363,-0.5147325029981664,0.4117860023985342,-15.316518894889068,-10.475578281946522,8.533873011287273,5.082528638973337,3.0182146814139754,-4.21822255353484
1.95,1,-0.0497848460605225,0.1354492047312896,-0.3162227722643339,0.5528555303422681,-0.2318865238602179,0.0666631181892032,1.0344915542420896,0.8275932433936706,-0.6206949325452571,-0.7241440879694694,-0.5172457771210448,0.4137966216968353,-6.83397668972294,-9.99885625636381,5.031848300113735,8.557606311553556,5.967556881712898,-2.0201611216093096
1.96,1,-0.0393980426160539,0.1437586474868645,-0.3224548543310149,0.5455847679311402,-0.2370799255824522,0.0708178395669906,1.0386803444468518,0.8309442755574825,-0.6232082066681077,-0.7270762411127896,-0.5193401722234259,0.4154721377787412,-9.140369624928654,-9.013601578320465,6.795087240688101,3.9807212485506023,5.143295932816284,-2.680218841414108
1.97,1,-0.0289777288499469,0.1520948984997501,-0.3287070425906792,0.5382905482948652,-0.2422900824655057,0.0749859650734334,1.0420313766107026,0.8336251012885598,-0.6252188259664226,-0.7294219636274968,-0.5210156883053513,0.4168125506442799,-12.51978277338306,-6.897354056884299,5.34544285542755,1.288982450146671,2.5871443270453005,-2.5361488468914923
1.98,1,-0.0185322823426112,0.1604512557056187,-0.3349743104950806,0.5309787357397302,-0.2475128057191736,0.0791641436763677,1.0445446507335754,0.8356357205868636,-0.6267267904401463,-0.7311812555135022,-0.5222723253667877,0.4178178602934318,-10.881344567971189,-10.510230169615584,7.100746241331358,3.2767457943308886,2.93057060095294,0.1004233356951476
1.99,1,-0.0080700806744564,0.1688210170401424,-0.3412516314959734,0.5236551945720219,-0.2527439065532509,0.0833490243436296,1.0462201668154705,0.8369761334523718,-0.6277321000892788,-0.7323541167708281,-0.5231100834077351,0.4184880667261859,-10.30562421375136,-9.283107232019034,9.562537059161963,10.63552465674578,3.924299584919608,0.735070874638593
2.0,1,0.0024004985741079,0.177197480438994,-0.3475339790451121,0.5163257890980268,-0.2579791961775332,0.0875372560430554,1.047057924856443,0.8376463398851564,-0.62823475491387,-0.7329405473995076,-0.5235289624282213,0.4188231699425782,-12.251325139620375,-8.461298345541794,4.8359826856162105,2.315035712693507,3.8953411307939647,-3.5767746101945197
2.01,1,0.0128710778226725,0.1855739438378457,-0.3538163265942508,0.5089963836240317,-0.2632144858018154,0.0917254877424812,1.047057924856459,0.8376463398851675,-0.62823475491387,-0.7329405473995187,-0.5235289624282269,0.4188231699425837,-11.276952385121463,-5.086699190042689,5.238036674264989,8.561847852045819,5.618495895135359,1.6420308858566406
2.02,1,0.0233332794908272,0.1939437051723694,-0.3600936475951437,0.5016728424563234,-0.2684455866358928,0.0959103684097431,1.0462201668154705,0.8369761334523773,-0.6277321000892844,-0.7323541167708281,-0.5231100834077407,0.4184880667261886,-12.098275387938322,-5.975582503316463,4.280273609207952,5.567526948896671,5.049832524242657,-4.048147029062128
2.03,1,0.033778725998163,0.2023000623782381,-0.3663609154995451,0.4943610299011882,-0.2736683098895607,0.1000885470126774,1.044544650733581,0.8356357205868636,-0.6267267904401463,-0.7311812555135133,-0.5222723253667905,0.4178178602934318,-8.783843668808716,-4.588852228741091,3.842220890156747,4.980888582723126,-0.055313337341583,-2.7427560675646623
2.04,1,0.0441990397642696,0.2106363133911234,-0.3726131037592091,0.4870668102649136,-0.278878466772614,0.1042566725191201,1.0420313766106637,0.8336251012885321,-0.6252188259664004,-0.7294219636274635,-0.5210156883053263,0.416812550644266,-8.46768286374258,-7.495780179711735,3.4809867395779426,3.104184899978244,-0.5607410863947577,3.5870827658985376
2.05,1,0.0545858432087383,0.2189457561466983,-0.3788451858258903,0.4797960478537856,-0.2840718684948484,0.1084113938969075,1.0386803444468629,0.8309442755574881,-0.6232082066681188,-0.7270762411128007,-0.519340172223437,0.415472137778744,-7.584525148471738,-4.474563455352628,4.70357908768756,2.655302520548225,1.4599273462421416,-0.685130863600661
2.06,1,0.0649307587511591,0.227221688580635,-0.3850521351513428,0.4725546069740909,-0.2892443262660588,0.1125493601138759,1.034491554242084,0.8275932433936706,-0.6206949325452515,-0.7241440879694638,-0.5172457771210393,0.4137966216968353,-9.86896441584332,-4.58154200502084,3.0441872482929195,5.438600768816505,-1.2419242416583272,-2.682227604510228
2.07,1,0.0752254088111224,0.2354574086286056,-0.3912289251873208,0.4653483519321167,-0.2943916512960404,0.1166672201378612,1.0294650059963273,0.8235720047970574,-0.6176790035977986,-0.7206255041974252,-0.5147325029981664,0.4117860023985287,-5.749070033455857,-5.492629724033961,2.9582757886085607,6.798128299780839,5.001776334543784,-0.7828656179161493
2.08,1,0.085461415808219,0.2436462142262829,-0.3973705293855787,0.4581831470341491,-0.2995096547945887,0.1207616229366998,1.0236006997096592,0.8188805597677318,-0.6141604198257933,-0.7165204897967625,-0.5118003498548296,0.4094402798838659,-9.912555471399608,-5.096483075326937,-2.02977653679492,4.397951684905539,-0.703001239912052,0.1588143674913729
2.09,1,0.0956304021620385,0.2517814033093385,-0.4034719211978705,0.4510648565864754,-0.3045941479714985,0.1248292174782276,1.016898635381952,0.8135189083055605,-0.6101391812291745,-0.7118290447673647,-0.5084493176909732,0.4067594541527802,-5.33295553914727,-7.598459161704881,6.917240411529971,5.3270751123719045,1.600475862139476,-0.5182760557859998
2.1,1,0.1057239902921723,0.2598562738134455,-0.4095280740759507,0.4439993448953818,-0.3096409420365654,0.1288666527302812,1.0093588130133837,0.8074870504107018,-0.6056152878080256,-0.7065511691093651,-0.5046794065066917,0.4037435252053509,-10.012504258596586,-2.506275225669921,7.277636552234229,2.836247323477448,0.3647519832309946,1.4281033138464263
2.11,1,0.11573380261821,0.2678641236742757,-0.4155339614715733,0.4369924762671553,-0.3146458481995842,0.1328705776606962,1.0009812326037704,0.8007849860830141,-0.6005887395622578,-0.7006868628226415,-0.5004906163018852,0.400392493041507,-11.332333959838271,-6.401721790502164,5.126974672880146,7.870153202767973,-1.1604725558339122,-2.8021268893960407
2.12,1,0.1256514615597429,0.275798250827502,-0.421484556836493,0.4300501150080824,-0.3196046776703506,0.1368376412373094,0.9917658941532848,0.7934127153226278,-0.5950595364919709,-0.6942361259072993,-0.4958829470766424,0.3967063576613139,-4.326181071003504,-4.535777601554022,1.918005398342552,3.834928580107422,4.280225857959431,-2.317486910743132
2.13,1,0.1354685895363604,0.283651953208796,-0.4273748336224636,0.4231781254244501,-0.3245132416586594,0.1407644924279564,0.981712797661749,0.7853702381294014,-0.5890276785970538,-0.6871989583632221,-0.4908563988308745,0.3926851190647007,-6.6985170504766325,-4.040977810192281,0.972139250679775,7.255289045627335,0.6687512729264216,-2.72763614077289
2.14,1,0.1451768089676538,0.2914185287538308,-0.4331997652812396,0.4163823718225447,-0.3293673513743061,0.1446477802004738,0.9708219431293464,0.7766575545034793,-0.5824931658776067,-0.679575360190543,-0.4854109715646704,0.3883287772517396,-6.611965945969313,-7.871930924735389,0.2006399850207265,1.0871225869874457,5.538396960465314,-2.54530943363978
2.15,1,0.1547677422732128,0.2990912753982779,-0.438954325264575,0.4096687185086534,-0.3341628180270856,0.1484841535226974,0.9590933305558992,0.767274664444717,-0.5754559983335406,-0.6713653313891288,-0.4795466652779523,0.3836373322223585,-7.99592039321511,-4.962225273477286,4.435829431416072,2.753800631486091,4.435850335689394,-0.735204888089604
2.16,1,0.1642330118726287,0.3066634910778106,-0.4446334870242246,0.4030430297890623,-0.3388954528267935,0.1522702613624637,0.9465269599415848,0.7572215679532701,-0.5679161759649554,-0.6625688719591127,-0.4732634799707924,0.378610783976635,-8.58412531823264,-4.180209915771001,5.513457677147889,4.8109080865285945,1.5181872166973025,-2.8830482131781747
2.17,1,0.173564240185491,0.3141284737281005,-0.450232224011942,0.3965111699700586,-0.3435610669832247,0.1560027526876086,0.9331228312862372,0.7464982650289831,-0.5598736987717401,-0.6531859819003671,-0.4665614156431186,0.3732491325144915,-8.007677231286767,-4.537039853904513,3.1380269950365878,2.7739883944579957,-2.767600234267312,-0.109238458671401
2.18,1,0.1827530496313909,0.3214795212848205,-0.4557455096794819,0.3900790033579287,-0.3481554717061746,0.1596782764659686,0.9188809445899836,0.7351047556720003,-0.5513285667539947,-0.6432166612129919,-0.4594404722949918,0.3675523778360001,-5.8382319525477335,-4.1086661395322,4.342286960351823,3.345570606577062,0.6396541767468443,0.6404874039602141
2.19,1,0.191791062629918,0.3287099316836421,-0.4611683174785981,0.3837523942589597,-0.3526744782054382,0.1632934816653795,0.9038012998527134,0.7230410398821663,-0.5422807799116192,-0.6326609098968983,-0.4519006499263567,0.3615205199410831,-6.019021492277263,-0.7616039566550228,3.335042231974899,0.172916772651666,5.788071039324141,-3.0042850245949584
2.2,1,0.200669901600664,0.3358130028602389,-0.4664956208610457,0.3775372069794376,-0.3571138976908112,0.1668450172536779,0.8878838970746039,0.7103071176596809,-0.5327303382447579,-0.6215187279522139,-0.4439419485373019,0.3551535588298404,-9.19854986801983,-5.115112128435595,0.7203932912442146,1.134252240324695,1.9679560348459184,-1.7527820891931705
2.21,1,0.2093811889632179,0.3427820327502821,-0.4717223932785782,0.3714393058256498,-0.3614695413720882,0.1703295321986994,0.8711287362553888,0.696902989004311,-0.5226772417532444,-0.6097901153787777,-0.4355643681276944,0.3484514945021555,-1.5244524444772876,-5.709528383013407,4.096139024262998,0.0098928043261923,0.6714137908192557,-1.446951485759644
2.22,1,0.2179165471371712,0.3496103192894446,-0.4768436081829501,0.3654645551038825,-0.3657372204590648,0.1737436754682807,0.8535358173953234,0.6828286539162565,-0.5121214904371896,-0.5974750721767286,-0.4267679086976617,0.3414143269581282,-5.342121082245718,-4.053730895066788,3.781786137434887,1.4034629903398597,-0.32318627332403,-0.7976848713171075
2.23,1,0.2262675985421134,0.3562911604133983,-0.4818542390259153,0.359618819120423,-0.3699127461615359,0.1770840960302576,0.8351051404942189,0.6680841123953729,-0.5010630842965269,-0.5845735983459499,-0.4175525702471094,0.3340420561976864,-1.613087856887284,-1.0987766632964635,-0.2783418177368886,1.0105235834330306,2.5671425929785525,-0.6211330299373652
2.24,1,0.2344259655976358,0.3628178540578164,-0.4867492592592289,0.3539079621815573,-0.3739919296892971,0.1803474428524666,0.815836705552242,0.6526693644418047,-0.4895020233313563,-0.5710856938865749,-0.407918352776121,0.3263346822209023,-5.085228169093385,-0.6084613340607763,3.1275122822521984,0.1410221866461725,1.4246122983163247,1.5861835742655828
2.25,1,0.2423832707233283,0.3691836981583702,-0.4915236423346443,0.3483378485935726,-0.3779705822521433,0.1835303649027435,0.7957305125692482,0.6365844100553852,-0.4774383075415445,-0.5570113587984649,-0.3978652562846241,0.3182922050276926,-2.945423847681071,-0.7826027454393314,1.0276076550076114,2.274697350602485,1.144930727567683,1.80245029786815
2.26,1,0.2501311363387816,0.3753819906507329,-0.4961723617039162,0.3429143426627553,-0.38184451505987,0.1866295111489249,0.7747865615453264,0.61982924923627,-0.4648719369271914,-0.5423505930817363,-0.3873932807726632,0.309914624618135,-0.8891498049429578,0.1277103145181934,0.6095554665853548,-1.31017357377431,2.740881107439749,-1.7062310258867095
2.27,1,0.2576611848635858,0.3814060294705763,-0.5006903908187988,0.3376433086953924,-0.3856095393222721,0.1896415305588465,0.7530048524804211,0.6024038819843369,-0.4518029114882527,-0.5271033967362893,-0.3765024262402106,0.3012019409921684,-0.7415659636751573,-0.8838553183077288,1.7202096081704208,-3.668630693349877,2.5246423270047043,1.3616194553863594
2.28,1,0.2649650387173318,0.3872491125535731,-0.5050727031310465,0.3325306109977701,-0.3892614662491451,0.1925630721003449,0.730385385374599,0.5843083082996747,-0.4382312312247616,-0.5112697697622237,-0.3651926926872995,0.2921541541498373,-2.5208214379772693,-2.1309440714680337,1.4653741285297814,-0.704249888259582,1.1252761233792778,2.795722854785959
2.29,1,0.2720343203196097,0.3929045378353953,-0.5093142720924132,0.3275821138761756,-0.392796107050284,0.1953907847412561,0.7069281602277933,0.5655425281822279,-0.4241568961366737,-0.4948497121594508,-0.3534640801138966,0.2827712640911139,-0.5394466552145982,-2.6834075627009,2.329721726933415,4.552548846131212,-3.0321671885471124,2.532487656377173
2.3000000000000003,1,0.2788606520900099,0.3983656032517155,-0.5134100711546533,0.3228036816368955,-0.3962092729354841,0.1981213174494162,0.6826331770400151,0.5461065416320188,-0.4095799062240113,-0.477843223928015,-0.3413165885200075,0.2730532708160094,0.2218973670779731,-3.0149392631032623,-1.3402568273623787,1.076240112901744,-1.9323509312787737,0.5905852532406286
2.31,1,0.2854356564481231,0.403625606738206,-0.5173550737695212,0.3182011785862163,-0.3994967751145407,0.2007513191926614,0.6575004358113201,0.5260003486490472,-0.3945002614867854,-0.4602503050679163,-0.32875021790566,0.2630001743245236,-0.99697878962245,-0.6423187349217172,1.2952981892116096,-1.827337357820622,-1.3102291525014065,0.1394231432986719
2.32,1,0.2917509558135392,0.408677846230539,-0.5211442533887709,0.3137804690304249,-0.4026544247972488,0.2032774389388279,0.6315299365416194,0.5052239492333022,-0.3789179619249738,-0.442070955579138,-0.3157649682708097,0.2526119746166511,-2.499177367895354,1.691538349165967,-2.3501944819024,0.5640642865525398,-0.2608287650519996,-2.492082946651084
2.33,1,0.2977981726058488,0.4135156196643866,-0.5247725834641567,0.3095474172758082,-0.4056780331934036,0.2056963256557517,0.6047216792309573,0.4837773433847614,-0.3628330075385766,-0.423305175461669,-0.3023608396154786,0.2418886716923807,-1.0913282292475446,0.8913654530334845,-0.582060183668464,-0.7851607508120648,2.7026670578377345,-0.4442659912571022
2.34,1,0.3035689292446433,0.4181322249754222,-0.5282350374474334,0.3055078876286521,-0.4085634115128008,0.2080046283112695,0.577075663879445,0.4616605311035582,-0.3462453983276714,-0.4039529647156092,-0.2885378319397225,0.2308302655517791,-0.1712732371723366,0.7657627025157822,-0.642808646923289,0.0679685593932504,3.701048411053696,-2.5395457137171977
2.35,1,0.3090548481495118,0.422520960099317,-0.5315265887903544,0.3016677443952442,-0.4113063709652351,0.2101989958732169,0.5485918904868492,0.4388735123894816,-0.3291551342921028,-0.3840143233407977,-0.2742959452434246,0.2194367561947408,1.0681784358520274,-1.0891608125480596,1.3276913748048518,0.8643500399668028,0.2707151790035867,2.794717840092532
2.36,1,0.3142475517400452,0.4266751229717438,-0.5346422109446745,0.2980328518818708,-0.4139027227605018,0.2122760773094303,0.5192703590533476,0.4154162872426759,-0.3115622154320041,-0.36348925133734,-0.2596351795266738,0.2077081436213379,4.628860281949909,6.4810101952766095,-0.7871204319196106,-0.6991892429346502,0.4797111278935484,0.0526539131317239
2.37,1,0.3191386624358341,0.430588011528375,-0.5375768773621479,0.2946090743948185,-0.4163482781083962,0.2142325215877459,0.4891110695788847,0.3912888556631189,-0.2934666417473419,-0.3423777487052248,-0.2445555347894423,0.1956444278315594,3.685929902716437,-0.028632836769163,-1.5219202905205464,-1.0333399960078662,-3.75067951357241,0.4725030281871307
2.38,1,0.3237198026564688,0.4342529237048826,-0.5403255614945287,0.2914022762403742,-0.4186388482187136,0.2160649776759997,0.4581140220634716,0.3664912176507662,-0.274868413238083,-0.3206798154444301,-0.2290570110317358,0.1832456088253831,0.6641952009266123,2.162014234316401,1.6618317887776386,1.5113739909535395,-1.6807725157505549,-0.5248658501935348
2.39,1,0.3279825948215398,0.4376631574369394,-0.5428832367935712,0.2884183217248246,-0.4207702443012491,0.2177700945420281,0.4262792165070972,0.3410233732056733,-0.2557675299042494,-0.2983954515549614,-0.2131396082535486,0.1705116866028366,6.392881920664065,4.223786986740361,-2.2388530822087973,-0.5683154586320571,-2.047783130699071,-2.0464314329401283
2.4,1,0.3319186613506375,0.4408120106602177,-0.54524487671103,0.2856630751544561,-0.4227382775657979,0.2193445211536672,0.3936066529097726,0.3148853223278292,-0.2361639917458746,-0.2755246570368463,-0.1968033264548863,0.1574426611639146,2.983514424264473,2.5976019603038365,-2.512891530128137,-1.442674519764985,-2.3203576848339305,2.2627150979230093
2.41,1,0.3355196246633524,0.4436927813103896,-0.5474054546986589,0.2831424008355557,-0.4245387592221554,0.2207849064787532,0.3600963312714866,0.2880770650171893,-0.216057798762892,-0.2520674318900406,-0.1800481656357433,0.1440385325085946,4.904568269845668,1.1922370074732511,-5.512048176721728,-1.931158466713217,0.0076692454769855,1.9045036961074733
2.42,1,0.338777107179274,0.4462987673231269,-0.5493599442082118,0.2808621630744106,-0.4261675004801162,0.2220878994851218,0.3257482515921617,0.2605986012737316,-0.1954489509552903,-0.2280237761145165,-0.1628741257960808,0.1302993006368658,6.293994143095865,4.714367145564741,-2.3798522141281624,-3.329005823074705,-2.157474401995784,2.829751641691659
2.43,1,0.3416827313179945,0.4486232666341032,-0.5511033186914441,0.2788282261773063,-0.4276203125494764,0.22325014914061,0.290562413872053,0.2324499310976335,-0.1743374483232362,-0.2033936897104293,-0.1452812069360265,0.1162249655488167,3.4842897105806623,0.7063866433873573,-4.010992299298755,-4.868144954435644,-5.148605054837378,-2.480542624903354
2.44,1,0.344228119499103,0.4506595771789901,-0.5526305516001092,0.2770464544505303,-0.4288930066400307,0.2242683044130534,0.2545388181108499,0.2036310544886843,-0.1527232908665077,-0.1781771726776015,-0.1272694090554249,0.1018155272443421,6.873912678801162,7.155330624349954,-2.8168794799902748,-1.2142308597897955,0.2251765462155681,3.7219692873420382
2.45,1,0.3464048941421903,0.4524009968934599,-0.5539366163859616,0.2755227122003691,-0.4299813939615743,0.2251390142702883,0.2176774643087298,0.1741419714469838,-0.1306064785852378,-0.1523742250161108,-0.1088387321543649,0.0870709857234919,3.445710026886547,4.518491271168818,-2.0174401736918326,-0.1777590675293923,0.8464533533956307,0.8928203688371579
2.46,1,0.3482046776668472,0.4538408237131853,-0.5550164865007557,0.2742628637331094,-0.4308812857239028,0.2258589276801511,0.1799783524656928,0.1439826819725431,-0.1079870114794157,-0.1259848467259794,-0.0899891762328464,0.0719913409862715,5.715027647765286,3.7268076707295146,-4.847487896629279,-2.048971772372881,-1.083255587907468,2.757474749745544
2.47,1,0.3496190924926632,0.4549723555738382,-0.5558651353962453,0.2732727733550382,-0.4315884931368108,0.2264246936104775,0.1414414825815946,0.1131531860652845,-0.0848648895489523,-0.0990090378071129,-0.0707207412907973,0.0565765930326422,6.9432129234131965,1.677048925300964,-4.501006114321404,-1.9441319164333548,-2.0941444399799223,-4.010620649028501
2.48,1,0.3506397610392293,0.455788890411091,-0.556477536524185,0.2725583053724419,-0.4320988274100938,0.2268329610291039,0.1020668546566128,0.0816534837252858,-0.0612401127939699,-0.0714467982596334,-0.0510334273283064,0.0408267418626429,4.347365187820834,2.478390640500474,-6.229415611843891,-5.019058669650335,-3.652986411182885,2.1376635152338794
2.49,1,0.3512583057261363,0.4562837261606167,-0.5568486633363292,0.2721253240916069,-0.4324080997535474,0.2270803789038668,0.0618544686907029,0.049483574952569,-0.037112681214424,-0.0432981280834965,-0.0309272343453514,0.0247417874762845,3.2248290036033933,4.946807716035994,-4.223111871104101,-4.603485165053893,-3.6237967121773376,1.2258752535229938
2.5,1,0.3514663489729739,0.4564501607580867,-0.5569734892844317,0.2719796938188207,-0.4325121213769661,0.2271635962026018,0.0208043246837541,0.0166434597470011,-0.012482594810248,-0.0145630272786245,-0.010402162341877,0.0083217298735005,8.975785007322955,9.101013773990552,-5.262829231909362,-6.138174430105129,0.0993310752978988,0.986094645731059
2.51,1,0.3514200137134247,0.4564130925504474,-0.5569456881287022,0.2720121285005051,-0.4324889537471915,0.2271450620987821,-0.0046335259549223,-0.0037068207639379,0.0027801155729534,0.0032434681684456,0.0023167629774611,-0.0018534103819689,13.263041012219851,6.04163884442439,0.7469121272233368,-4.234087954735331,-3.631065690119153,1.2842223110520998
2.52,1,0.351281835350126,0.4563025498598084,-0.556862781110723,0.2721088533548142,-0.4324198645655422,0.2270897907534626,-0.0138178363298657,-0.0110542690638926,0.0082907017979194,0.009672485430906,0.0069089181649328,-0.0055271345319463,8.823068559966096,6.525384282094014,-0.6980892813394433,-1.9260733403781092,1.801032174966985,0.3407089629077999
2.53,1,0.3510530550061016,0.4561195255845889,-0.5567255129043084,0.2722689995956313,-0.43230547439353,0.2269982786158529,-0.0228780344024404,-0.0183024275219489,0.0137268206414575,0.016014624081706,0.0114390172012202,-0.0091512137609744,9.56935610803048,6.854230861050066,-1.184112217735012,-5.4415417841424905,-0.4131619465487073,-1.240785117342711
2.54,1,0.3507349138043751,0.4558650126232078,-0.5565346281832725,0.2724916984368398,-0.4321464037926668,0.2268710221351623,-0.0318141201726462,-0.0254512961381181,0.0190884721035899,0.0222698841208568,0.0159070600863231,-0.012725648069059,6.8553738305698015,11.05579354532539,-6.615776610671233,-4.346848752632808,-1.7192811368086045,-0.8953791335653429
2.5500000000000003,1,0.3503286528679701,0.4555400038740838,-0.5562908716214294,0.2727760810923233,-0.4319432733244643,0.2267085177606003,-0.0406260936405,-0.0325008749124,0.0243756561843055,0.0284382655483472,0.0203130468202472,-0.0162504374562,11.911319184621496,5.685326023929695,-4.535980914002901,-2.939933767114914,2.94634260885578,1.735116905678605
2.56,1,0.3498355133199103,0.4551454922356359,-0.5559949878925936,0.2731212787759651,-0.4316967035504344,0.2265112619413763,-0.049313954805974,-0.0394511638447836,0.0295883728835821,0.0345197683641829,0.0246569774029925,-0.0197255819223918,8.559349240791148,9.933910345722904,-6.739156014214634,-2.0722435800863086,-0.0133921190862169,4.351032413579788
2.57,1,0.3492567362832194,0.4546824706062832,-0.555647721670579,0.2735264227016488,-0.4314073150320889,0.2262797511267,-0.0578777036690958,-0.0463021629352744,0.0347266222014641,0.0405143925683693,0.0289388518345479,-0.0231510814676372,11.973352801354668,6.234921387283055,-0.7949872509770728,-7.922397287585651,-3.5056116518073823,3.98719608164801
2.58,1,0.3485935628809209,0.4541519318844443,-0.5552498176291999,0.2739906440832578,-0.4310757283309396,0.2260144817657806,-0.0663173402298544,-0.0530538721838835,0.0397904041379071,0.0464221381608953,0.0331586701149244,-0.0265269360919417,11.185340198480745,5.847959820068585,-2.9625012236771364,-5.717584944766399,-4.769702496762928,2.2778769953600597
2.59,1,0.3478472342360384,0.4535548689685384,-0.5548020204422704,0.2745130741346755,-0.4307025640084984,0.2257159503078276,-0.0746328644882443,-0.0597062915905943,0.0447797186929443,0.0522430051417721,0.0373164322441221,-0.0298531457952971,11.55042031975186,7.312837289994012,-6.8699036788513,-6.3725446391492415,-3.6456928082376487,0.881954094681877
2.6,1,0.3470189914715957,0.4528922747569842,-0.5543050747836048,0.2750928440697854,-0.4302884426262771,0.2253846532020505,-0.082824276444271,-0.0662594211554179,0.0496945658665648,0.0579769935109886,0.0414121382221355,-0.0331297105777089,11.781040163492646,7.513377571767752,-4.161727721288322,-6.776912784607495,-3.0759662025123187,6.026046776198339
2.61,1,0.3461100757106164,0.4521651421482008,-0.5537597253270172,0.2757290851024709,-0.4298339847457874,0.2250210868976588,-0.0908915760979289,-0.0727132608783431,0.0545349456587573,0.0636241032685502,0.0454457880489644,-0.0363566304391715,12.015484081913874,9.010195192501438,-7.997470284859737,-5.912558176466214,-4.457609255208998,3.300582179248547
2.62,1,0.345121728076124,0.4513744640406069,-0.5531667167463218,0.2764209284466155,-0.4293398109285412,0.2246257478438618,-0.0988347634492348,-0.0790678107593867,0.0593008580695442,0.0691843344144627,0.0494173817246201,-0.0395339053796933,11.748029850721384,3.43496780026641,-5.432559297742648,-9.16018431690414,-5.257600614273329,3.1652104887087704
2.63,1,0.3440551896911424,0.4505212333326216,-0.5525267937153329,0.2771675053161027,-0.4288065417360504,0.2241991324898692,-0.1066538384981663,-0.0853230707985319,0.063992303098892,0.0746576869487147,0.0533269192490803,-0.0426615353992659,13.398525544947306,8.56825107862745,-5.633391350088759,-6.114308869774818,-2.602913807755362,-0.6536453591373967
2.64,1,0.342911701678695,0.4496064429226637,-0.5518407009078644,0.2779679469248158,-0.4282347977298267,0.2237417372848902,-0.1143488012447402,-0.0914790409957899,0.0686092807468452,0.0800441608713176,0.0571744006223673,-0.0457395204978949,10.2764312707319,7.257226782142618,-3.920918424660279,-5.418138318063447,-1.359671734692052,2.555890584934559
2.65,1,0.3416925051618056,0.4486310857091521,-0.5511091829977307,0.2788213844866384,-0.427625199471382,0.2232540586781345,-0.1219196516889398,-0.0975357213511551,0.0731517910133705,0.08534375618226,0.0609598258444699,-0.0487678606755775,11.508861682693796,7.1813653139901135,-3.5376062474058223,-7.678494984200784,0.5198424580024161,-0.3991972200752034
2.66,1,0.3403988412634977,0.4475961545905058,-0.550332984658746,0.279726949215454,-0.4269783675222281,0.2227365931188113,-0.1293663898307873,-0.1034931118646331,0.0776198338984679,0.0905564728815533,0.0646831949153936,-0.0517465559323165,15.169761988947329,6.204390714104454,-5.58068336757809,-6.654583488646277,-3.098703229006294,6.269510050913674
2.67,1,0.3390319511067952,0.4465026424651437,-0.5495128505647244,0.2806837723251458,-0.4262949224438768,0.2221898370561303,-0.1366890156702604,-0.1093512125362072,0.0820134094021596,0.0956823109691806,0.068344507835133,-0.0546756062681036,12.81525471579988,8.224903054318053,-6.172200900888077,-5.745705760097896,-2.1006100341003338,0.4519921440427947
2.68,1,0.3375930758147213,0.4453515422314847,-0.5486495253894802,0.2816909850295975,-0.4255754847978398,0.2216142869393007,-0.1438875292073815,-0.1151100233659052,0.0863325175244233,0.1007212704451698,0.0719437646036935,-0.0575550116829526,12.041858117101702,8.07151791501971,-12.292262703662969,-5.633416862434034,-7.058392753870695,0.9461326410700456
2.69,1,0.3360834565103,0.4441438467879477,-0.5477437538068274,0.2827477185426924,-0.4248206751456292,0.2210104392175322,-0.1509619304421283,-0.1207695443536993,0.0905771582652814,0.1056733513094876,0.0754809652210586,-0.0603847721768496,14.975876106510242,8.393112949144683,-2.789553273291195,-9.224557527525407,-1.6860206831718911,0.884800904591214
2.7,1,0.3345043343165549,0.4428805490329515,-0.5467962804905803,0.283853104078314,-0.4240311140487566,0.2203787903400342,-0.1579122193745175,-0.1263297754996173,0.0947473316247116,0.1105385535621616,0.0789561096872615,-0.0631648877498086,14.781168242827372,6.101989833473461,-7.315414499339918,-4.632149071086163,-5.464913492787705,1.4645374376261022
2.71,1,0.3328569503565095,0.4415626418649153,-0.5458078501145531,0.2850062728503457,-0.4232074220687339,0.219719836756016,-0.1647383960045323,-0.1317907168036258,0.0988430376027138,0.1153168772031754,0.0823691980022689,-0.0658953584018129,10.694268879033178,9.69928502281306,-5.876590082250935,-4.655130787573007,-2.878244864482385,3.5650246511467403
2.72,1,0.3311425457531876,0.4401911181822577,-0.5447792073525599,0.2862063560726711,-0.422350219767073,0.2190340749146872,-0.1714404603322006,-0.1371523682657582,0.1028642761993214,0.1200083222325398,0.0857202301660975,-0.0685761841328791,14.928471160792624,8.034227133983649,-1.63741835545643,-7.653685622994253,-3.611286753582848,2.2473873549073846
2.73,1,0.3293623616296127,0.4387669708833978,-0.543711096878415,0.2874524849591735,-0.4214601277052855,0.2183220012652573,-0.1780184123574835,-0.1424147298859923,0.1068110474144901,0.1246128886502384,0.0890092061787417,-0.0712073649429961,13.904747364983251,6.452396077498428,-8.612351036732111,-2.871825894668992,-4.04242732140685,2.3408275739167053
2.74,1,0.3275176391088085,0.4372911928667544,-0.5426042633659324,0.2887437907237365,-0.4205377664448834,0.2175841122569356,-0.1844722520804254,-0.1475778016643392,0.1106833512482641,0.1291305764562988,0.0922361260402127,-0.0737889008321696,15.201767314324986,8.721373575575319,-6.244102451922186,-5.368670426025993,-6.556206084302927,3.7068897451204217
2.75,1,0.3256096193137986,0.4357647770307465,-0.5414594514889265,0.2900794045802434,-0.4195837565473785,0.2168209043389317,-0.1908019795009818,-0.1526415836007821,0.114481187700588,0.1335613856506878,0.0954009897504937,-0.076320791800391,13.93335930686669,8.354791347529238,-5.348949231643021,-5.703940805852353,-5.129144517216648,-0.755936731592572
2.76,1,0.3236395433676067,0.434188716273793,-0.5402774059212114,0.2914584577425777,-0.4185987185742825,0.2160328739604549,-0.1970075946191918,-0.1576060756953545,0.1182045567715062,0.1379053162334331,0.0985037973095959,-0.0788030378476772,14.96029499789996,10.060240830332289,-4.207229286829556,-4.999917425754074,-5.546799854640595,3.782786291077128
2.77,1,0.3216086523932565,0.4325640034943128,-0.5390588713366012,0.2928800814246228,-0.4175832730871074,0.2152205175707148,-0.2030890974350219,-0.1624712779480175,0.1218534584610187,0.1421623682045125,0.1015445487175081,-0.0812356389740087,10.474861378892586,8.91951423928065,-6.432513506010826,-8.464852032948915,-4.844671465539921,2.5610230042153077
2.78,1,0.3195181875137715,0.4308916315907248,-0.5378045924089102,0.2943434068402624,-0.4165380406473649,0.2143843316189208,-0.2090464879485054,-0.1672371903588043,0.1254278927691032,0.1463325415639538,0.1045232439742527,-0.0836185951794021,12.437243909658948,7.1973330957349,-4.119753830408676,-7.131660574085231,-1.3064369190176124,0.8888442119218734
2.79,1,0.3173693898521753,0.429172593461448,-0.5365153138119526,0.2958475652033796,-0.4154636418165669,0.2135248125542824,-0.2148797661596091,-0.1719038129276817,0.1289278596957599,0.1504158363117236,0.1074398830798017,-0.0859519064638408,15.782323830720326,8.362661428191332,-7.331178211382363,-5.2084744970754,-4.387511276204678,2.5580529745781644
2.8000000000000003,1,0.3151635005314918,0.427407882004901,-0.5351917802195424,0.2973916877278582,-0.4143606971562251,0.2126424568260089,-0.2205889320683607,-0.1764711456546941,0.1323533592410219,0.1544122524478552,0.1102944660341831,-0.088235572827347,19.604419165217465,6.71786133560995,-5.434701891752166,-8.050949043892757,-5.0345991281413465,2.5186085190175547
2.81,1,0.3129017606747444,0.4255984901195032,-0.533834736305494,0.2989749056275813,-0.4132298272278514,0.21173776088331,-0.2261739856747324,-0.1809391885397859,0.1357043914048339,0.1583217899723155,0.1130869928373634,-0.0904695942698929,15.139604636381234,12.46582268932183,-5.708375359618122,-7.164635348043484,-2.3921756362788256,-2.9609778158202933
2.82,1,0.3105854114049569,0.4237454107036732,-0.5324449267436215,0.3005963501164326,-0.4120716525929577,0.210811221175395,-0.2316349269787521,-0.1853079415829961,0.1389809561872512,0.1621444488851264,0.115817463489376,-0.092653970791498,13.04669970367331,12.796063835319908,-6.725619076143891,-5.254605515099396,-3.036350051080905,5.028467496529262
2.83,1,0.3082156938451528,0.4218496366558298,-0.531023096207739,0.3022551524082955,-0.4108867938130556,0.2098633341514733,-0.2369717559804141,-0.1895774047843357,0.1421830535882517,0.1658802291862882,0.1184858779902098,-0.0947887023921678,14.713797000874084,13.035081482791602,-5.895923578193743,-5.826222522269863,0.3811942050772274,4.685628798765073
2.84,1,0.3057938491183558,0.4199121608743923,-0.5295699893716609,0.3039504437170533,-0.4096758714496571,0.2088945962607545,-0.2421844726796906,-0.1937475781437547,0.1453106836078133,0.169529130875784,0.1210922363398481,-0.0968737890718773,12.649872719610798,9.00237132281146,-8.283836190968263,-6.385565436052304,-1.650565097321515,-0.3575546202662778
2.85,1,0.3033211183475895,0.4179339762577793,-0.5280863509092011,0.3056813552565897,-0.408439506064274,0.207905503952448,-0.2472730770766318,-0.1978184616613032,0.1483638462459802,0.1730911539536417,0.1236365385383131,-0.0989092308306516,16.9128550109152,12.748768120608505,-7.115894727361789,-6.275866343946819,-7.635487996548345,0.7265521831993844
2.86,1,0.3007987426558777,0.4159160757044098,-0.526572925494174,0.307447018240788,-0.4071783182184181,0.2068965536757633,-0.252237569171182,-0.2017900553369422,0.1513425415027081,0.1765662984198279,0.1261187845855882,-0.1008950276684711,14.468261830752317,10.92846081881608,-9.06820359525365,-6.716308193530376,-2.027668188595527,4.926036404243133
2.87,1,0.2982279631662438,0.4138594521127027,-0.5250304578003937,0.3092465638835317,-0.4058929284736011,0.2058682418799098,-0.2570779489633912,-0.2056623591707107,0.1542467693780302,0.1799545642743705,0.1285389744816956,-0.1028311795853553,16.419484273007733,8.417269170413967,-7.345216793092374,-4.618297028883771,-2.2413231730085545,3.5254041840825376
2.88,1,0.2956100210017117,0.411765098381077,-0.5234596925016743,0.3110791233987042,-0.404583957391335,0.2048210650140969,-0.2617942164532094,-0.2094353731625753,0.1570765298719356,0.1832559515172527,0.1308971082266075,-0.1047176865812876,13.928861117692962,8.738622116394724,-4.1450428146953175,-2.092677117573775,-0.2654751587477135,2.94874149870418
2.89,1,0.2929461572853048,0.4096340074079515,-0.5218613742718302,0.312943828000189,-0.4032520255331316,0.2037555195275341,-0.2663863716406922,-0.2131090973125526,0.1598318229844131,0.1864704601484801,0.1331931858203461,-0.1065545486562763,16.42379677867161,9.572507890902106,-5.531393864107731,-5.627913313563236,-3.9474032577447726,3.014377782376881
2.9,1,0.2902376131400469,0.4074671720917451,-0.5202362477846755,0.3148398089018696,-0.4018977534605026,0.202672101869431,-0.2708544145257896,-0.2166835316206317,0.1625126487154737,0.1895980901680527,0.1354272072628948,-0.1083417658103158,10.777856187121934,10.028677531430876,-5.6985302658673485,-3.581011747284752,-1.3187055430658012,2.858999326936281
2.91,1,0.2874856296889615,0.4052655853308768,-0.5185850577140243,0.3167661973176293,-0.4005217617349599,0.2015713084889968,-0.2751983451085404,-0.220158676086829,0.1651190070651176,0.1926388415759761,0.1375991725542702,-0.1100793380434145,13.995835964898054,10.487235239244892,-9.473161213997642,-6.973146627797648,-4.1948034814094814,-0.0392357986574594
2.92,1,0.2846914480550724,0.4030302400237656,-0.5169085487336909,0.3187221244613517,-0.3991246709180154,0.2004536358354412,-0.2794181633889059,-0.2235345307111225,0.1676508980333446,0.1955927143722391,0.1397090816944501,-0.1117672653555612,14.992977214832518,9.731941808658377,-5.6190341308546525,-7.444378928900418,-2.894133358274102,0.9529563726672384
