alpha8332/robot-data-analysis/real_like.csv
timestamp,robot_state,joint_position_1,joint_position_2,joint_position_3,joint_position_4,joint_position_5,joint_position_6,joint_velocity_1,joint_velocity_2,joint_velocity_3,joint_velocity_4,joint_velocity_5,joint_velocity_6,joint_torque_1,joint_torque_2,joint_torque_3,joint_torque_4,joint_torque_5,joint_torque_6
0.0,2,0.0024004985741079288,0.17719748043899403,-0.3475339790451121,0.5163257890980268,-0.2579791961775332,0.08753725604305543,0.03141075907812829,0.03141075907812929,0.031410759078126516,0.03141075907813207,0.031410759078126516,0.0314107590781279,,,,,,
0.01,2,0.0027146061648892117,0.17751158802977532,-0.3472198714543308,0.5166398966888082,-0.2576650885867519,0.08785136363383671,0.03141075907812829,0.03141075907812929,0.031410759078126516,0.03141075907813207,0.031410759078126516,0.0314107590781279,,,,,,
0.02,2,0.0030284037694010627,0.17782538563428715,-0.3469060738498189,0.5169536942933199,-0.25735129098224,0.08816516123834856,0.03137976045118508,0.0313797604511834,0.031379760451188954,0.03137976045117785,0.031379760451188954,0.03137976045118479,,,,,,
0.03,2,0.003341581707293072,0.17813856357217916,-0.34659289591192693,0.517266872231212,-0.25703811304434804,0.08847833917624057,0.03131779378920094,0.03131779378920119,0.03131779378919841,0.031317793789209514,0.03131779378919841,0.03131779378920119,,,,,,
0.04,2,0.0036538309097509714,0.17845081277463706,-0.346280646709469,0.5175791214336699,-0.2567258638418901,0.08879058837869847,0.03122492024578995,0.031224920245789822,0.031224920245792598,0.031224920245787047,0.031224920245792598,0.031224920245789822,,,,,,
0.05,2,0.003964843224510238,0.17876182508939634,-0.3459696343947098,0.5178901337484292,-0.2564148515271309,0.08910160069345774,0.0311012314759266,0.03110123147592736,0.03110123147592181,0.03110123147592736,0.03110123147592181,0.03110123147592736,,,,,,
0.06,2,0.0042743117199651745,0.17907129358485127,-0.3456601658992548,0.5181996022438841,-0.2561053830316759,0.08941106918891267,0.03094684954549373,0.030946849545493427,0.030946849545498978,0.030946849545487876,0.030946849545498978,0.030946849545493427,,,,,,
0.07,2,0.004581930988073355,0.17937891285295945,-0.3453525466311467,0.5185072215119922,-0.2557977637635678,0.08971868845702086,0.030761926810817984,0.030761926810818352,0.0307619268108128,0.030761926810818352,0.0307619268108128,0.030761926810818352,,,,,,
0.08,2,0.004887397445756477,0.17968437931064257,-0.3450470801734635,0.5188126879696754,-0.25549229730588463,0.09002415491470397,0.03054664576831222,0.030546645768311786,0.030546645768314562,0.030546645768314562,0.030546645768314562,0.030546645768311786,,,,,,
0.09,2,0.0051904096345002215,0.1799873914993863,-0.3447440679847198,0.5191157001584191,-0.2551892851171409,0.09032716710344772,0.030301218874374466,0.030301218874373426,0.030301218874373426,0.030301218874373426,0.030301218874373426,0.030301218874374813,,,,,,
0.1,2,0.005490668517857403,0.1802876503827435,-0.3444438091013626,0.5194159590417763,-0.2548890262337837,0.0906274259868049,0.030025888335718152,0.030025888335719064,0.03002588833572184,0.03002588833571629,0.03002588833572184,0.030025888335717676,,,,,,
0.11,2,0.005787877776560842,0.18058485964144694,-0.34414659984265916,0.5197131683004798,-0.25459181697508027,0.09092463524550834,0.02972092587034394,0.029720925870344028,0.029720925870341253,0.029720925870346804,0.029720925870341253,0.029720925870344028,,,,,,
0.12,2,0.006081744100954708,0.18087872596584081,-0.3438527335182653,0.5200070346248736,-0.2542979506506864,0.0912185015699022,0.029386632439386575,0.02938663243938766,0.02938663243938766,0.02938663243938766,0.02938663243938766,0.029386632439386273,,,,,,
0.13,2,0.006371977480455735,0.18116895934534183,-0.34356250013876427,0.5202972680043747,-0.2540077172711854,0.09150873494940323,0.029023337950102694,0.02902333795010148,0.02902333795010148,0.02902333795010703,0.02902333795010148,0.029023337950102868,,,,,,
0.14,2,0.006658291489758656,0.18145527335464476,-0.34327618612946137,0.5205835820136776,-0.25372140326188247,0.09179504895870616,0.02863140093029206,0.028631400930292927,0.028631400930290152,0.028631400930290152,0.028631400930290152,0.028631400930292927,,,,,,
0.15,2,0.006940403571503396,0.18173738543638948,-0.3429940740477166,0.5208656940954223,-0.2534392911801377,0.0920771610404509,0.028211208174474048,0.028211208174472313,0.0,0.028211208174466762,0.028211208174477864,0.0282112081744737,,,,,,
0.16,2,0.0072180353151250825,0.18201501718001117,-0.3427164423040949,0.521143325839044,-0.25316165943651603,0.09235479278407258,0.027763174362168633,0.02776317436216924,0.027763174362166465,0.027763174362172016,0.027763174362166465,0.027763174362167853,,,,,,
0.17,2,0.007490912731611642,0.18228789459649775,-0.34244356488760835,0.5214162032555305,-0.25288878202002946,0.09262767020055913,0.027287741648655914,0.027287741648657216,0.027287741648657216,0.027287741648651664,0.027287741648657216,0.027287741648655828,,,,,,
0.18,2,0.007758766523897896,0.182555748388784,-0.34217571109532213,0.5216840570478168,-0.25262092822774324,0.0928955239928454,0.026785379228625415,0.026785379228624895,0.02678537922862212,0.02678537922863322,0.02678537922862212,0.026785379228626283,,,,,,
0.19,2,0.008021332352629234,0.18281831421751532,-0.3419131452665908,0.5219466228765481,-0.2523583623990119,0.09315808982157674,0.026256582873133896,0.026256582873132595,0.02625658287313537,0.02625658287312982,0.02625658287313537,0.026256582873133982,,,,,,
0.2,2,0.00827835109703266,0.18307533296191875,-0.34165612652218735,0.5222036416209516,-0.25210134365460846,0.09341510856598016,0.025701874440342554,0.025701874440342554,0.025701874440342554,0.025701874440342554,0.025701874440342554,0.025701874440342554,-1.8267204875537615,3.0861958474023705,0.14668636974639052,-0.586003548566606,1.999530366179682,0.8394961430766471
0.21,2,0.008529569110637692,0.18332655097552378,-0.3414049085085823,0.5224548596345566,-0.2518501256410034,0.0936663265795852,0.025121801360503213,0.025121801360503127,0.025121801360505902,0.025121801360505902,0.025121801360505902,0.025121801360503127,0.8535771734090282,-2.2365690480641605,0.465784693549047,3.394747179085055,1.9575128896661016,0.022908194931554465
0.22,2,0.008774738471594826,0.18357172033648092,-0.34115973914762515,0.5227000289955137,-0.25160495628004625,0.09391149594054232,0.024516936095713305,0.02451693609571426,0.02451693609571426,0.024516936095708708,0.02451693609571426,0.02451693609571287,0.670654304325228,2.239830355096695,2.756919969231426,-3.1330502046203215,0.883011650630214,-1.879835690981241
0.23,2,0.009013617227344447,0.18381059909223055,-0.3409208603918756,0.5229389077512634,-0.2513660775242967,0.09415037469629195,0.02388787557496214,0.023887875574962747,0.023887875574957196,0.023887875574968298,0.023887875574957196,0.023887875574962747,-0.5196455128704582,-3.149443850640927,3.9001286238186883,2.575888786869747,2.4567101408658,0.6300985516825748
0.24,2,0.009245969633394815,0.1840429514982809,-0.3406885079858252,0.5231712601573137,-0.2511337251182463,0.09438272710234231,0.023235240605036858,0.023235240605035123,0.023235240605040675,0.023235240605035123,0.023235240605040675,0.02323524060503651,-3.9867405407533045,2.06617567000992,0.0802436137062958,-2.8456194746813805,-1.476036195117777,1.367649408087162
0.25,2,0.009471566385973405,0.1842685482508595,-0.3404629112332466,0.5233968569098923,-0.2509081283656677,0.0946083238549209,0.02255967525785895,0.022559675257860512,0.02255967525785496,0.022559675257860512,0.02255967525785496,0.022559675257859124,4.477126851817876,-1.1332620772891013,-0.8994876285737845,-3.017036076627806,-0.3427883745946307,0.29967108854975666
0.26,2,0.009690184848322046,0.18448716671320814,-0.34024429277089796,0.523615475372241,-0.25068950990331906,0.09482694231726954,0.02186184623486397,0.021861846234863536,0.02186184623486631,0.02186184623486076,0.02186184623486631,0.021861846234863536,-1.9405897172492392,1.7414441762800477,-0.7914466681957175,-2.0497328912613506,-0.2587920503564913,-5.4356908669526405
0.27,2,0.009901609270412524,0.18469859113529863,-0.34003286834880747,0.5238268997943314,-0.2504780854812286,0.09503836673936003,0.02114244220904806,0.02114244220904893,0.02114244220904893,0.021142442209043377,0.02114244220904893,0.02114244220904893,0.7250367574566946,3.053908236073866,1.0437918654198675,-0.12423344262973057,2.3035722631987077,-0.2589569831147063
0.28,2,0.01010563100186582,0.18490261286675191,-0.3398288466173542,0.5240309215257848,-0.2502740637497753,0.09524238847081332,0.02040217314532959,0.02040217314532855,0.02040217314532855,0.020402173145339653,0.02040217314532855,0.02040217314532855,-1.2684962119357583,0.5373037178283535,-0.2558016697763802,-1.2900982557096619,2.354133285456082,1.4554570840155252
0.29,2,0.010302048697864831,0.18509903056275093,-0.33963242892135515,0.5242273392217838,-0.25007764605377625,0.09543880616681233,0.01964176959990101,0.01964176959990127,0.019641769599904046,0.019641769599898495,0.019641769599904046,0.01964176959990127,2.298506874006644,0.09386292088427571,-3.339050919070428,-1.4017446800492883,0.7518101453987215,-1.8571518811909176
0.3,2,0.010490668517857403,0.1852876503827435,-0.3394438091013626,0.5244159590417763,-0.24988902623378373,0.0956274259868049,0.018861981999257135,0.018861981999257482,0.01886198199925193,0.01886198199925193,0.01886198199925193,0.018861981999257482,-0.5452882079366597,0.0014358032794173636,2.4138673174053062,-1.7028545677757894,0.6524610169574013,2.2384568269966754
0.31,2,0.010671304316853546,0.18546828618173963,-0.33926317330236644,0.5245965948407725,-0.24970839043478754,0.09580806178580105,0.018063579899614372,0.018063579899613158,0.01806357989961871,0.01806357989961871,0.01806357989961871,0.018063579899614546,-1.279291601352931,-0.7334462396290111,1.8067012929952115,-1.6615954719727188,1.2290409573227774,-1.1151872244557808
0.32,2,0.01084377782912808,0.18564075969401417,-0.33909069979009193,0.524769068353047,-0.24953591692251303,0.09598053529807558,0.017247351227453293,0.017247351227453467,0.01724735122745069,0.017247351227456242,0.01724735122745069,0.017247351227453467,1.425723159651798,2.46582582772463,2.477190216807842,-1.7001875158276318,-0.5406013396370244,-0.5254996992187386
0.33,2,0.011007918844147365,0.18580490070903347,-0.33892655877507266,0.5249332093680663,-0.24937177590749376,0.09614467631309487,0.016414101501928575,0.01641410150192979,0.016414101501927014,0.016414101501927014,0.016414101501927014,0.016414101501928402,-2.29798504364287,0.010513513080630754,2.8799537282397107,0.6415681686716791,2.8608664029069573,0.5299537727367105
0.34,2,0.011163565374546566,0.18596054723943267,-0.33877091224467343,0.5250888558984654,-0.24921612937709453,0.09630032284349406,0.015564653039920086,0.015564653039920606,0.015564653039923382,0.01556465303991228,0.015564653039923382,0.015564653039919218,-0.5703513041647568,-4.115580632703657,0.5805375325374088,-1.0937871573713736,-0.7614495539792933,-1.7214601999708823
0.35000000000000003,2,0.011310563815991607,0.1861075456808777,-0.33862391380322837,0.5252358543399105,-0.24906913093564947,0.0964473212849391,0.014699844144504086,0.014699844144502872,0.014699844144505647,0.014699844144505647,0.014699844144505647,0.01469984414450426,1.6467201258081778,2.0118599681943605,0.7278310374914151,-5.146371997554038,1.0063201790006016,1.9482590500996129
0.36,2,0.011448769098768125,0.18624575096365423,-0.3384857085204519,0.525374059622687,-0.248930925652873,0.09658552656771563,0.01382052827765181,0.013820528277652677,0.013820528277647126,0.013820528277652677,0.013820528277647126,0.013820528277652677,3.289676215497783,1.9151850569993503,2.2272506638687823,0.11526043064299402,-1.0406757750801363,2.656409655008325
0.37,2,0.01157804483094774,0.18637502669583383,-0.33835643278827227,0.5255033353548667,-0.24880164992069337,0.09671480229989524,0.012927573217961542,0.012927573217960675,0.01292757321796345,0.012927573217969002,0.01292757321796345,0.012927573217960675,-1.6393433159935002,0.34626636383165094,-2.2091597323296694,1.694314905383301,2.050042556298953,-2.0692688051864443
0.38,2,0.011698263432990443,0.18649524529787653,-0.33823621418622957,0.5256235539569094,-0.24868143131865067,0.09683502090193795,0.012021860204270221,0.012021860204269874,0.012021860204269874,0.012021860204269874,0.012021860204269874,0.012021860204271262,-0.9284308659956035,-1.3085452936436468,-0.47723746145950197,-0.3567095726846602,-0.03845915624183888,-0.2370857014215049
0.39,2,0.011809306263650184,0.18660628812853627,-0.3381251713555698,0.5257345967875691,-0.2485703884879909,0.09694606373259769,0.011104283065974108,0.011104283065974108,0.011104283065976883,0.011104283065965781,0.011104283065976883,0.011104283065974108,1.0078784507490426,-2.0449267690648734,0.11561865292245273,-2.3154176785008715,4.298058862325414,3.9234348283960556
0.4,2,0.011911063737059465,0.18670804560194557,-0.33802341388216056,0.5258363542609784,-0.24846863101458166,0.09704782120600697,0.010175747340928146,0.010175747340929187,0.010175747340923635,0.010175747340934738,0.010175747340923635,0.010175747340927799,-3.6826264769049306,-1.287876555654059,2.0844647849827584,1.7012669672972027,-0.0839502918945178,2.33839182051922
0.41000000000000003,2,0.01200343543087736,0.18680041729576347,-0.33793104218834263,0.5259287259547962,-0.24837625932076374,0.09714019289982485,0.009237169381789458,0.009237169381789978,0.009237169381792754,0.009237169381781651,0.009237169381792754,0.00923716938178859,3.035776512889327,0.6875115290954863,-0.8305386955989766,-2.5290556870745724,2.0475596470425788,-3.084830671957625
0.42,2,0.01208633018539424,0.18688331205028033,-0.33784814743382574,0.5260116207093132,-0.24829336456624684,0.09722308765434173,0.008289475451687955,0.008289475451686568,0.008289475451689343,0.008289475451694894,0.008289475451689343,0.008289475451687955,-1.6704737987550757,-3.3904326668206712,-1.1717789329588295,-0.4217041220362483,-1.0844702442958314,2.4787117706441877
0.43,2,0.012159666193495402,0.1869566480583815,-0.3377748114257246,0.5260849567174143,-0.24822002855814568,0.0972964236624429,0.007333600810116234,0.007333600810116581,0.007333600810116581,0.0073336008101110295,0.007333600810116581,0.007333600810116581,-0.5386314823984837,1.1519536903044878,-0.6038216705979305,0.18132863415079478,-0.4344395812784413,-6.6950714722745275
0.44,2,0.012223371081394815,0.18702035294628092,-0.3377111065378252,0.5261486616053137,-0.24815632367024631,0.09736012855034232,0.006370488789941321,0.006370488789941842,0.0063704887899362905,0.006370488789941842,0.0063704887899362905,0.006370488789941842,0.8652133344691709,0.454421574750036,1.2027127634176273,2.3875401537348564,0.09928353418471705,1.3784198391543288
0.45,2,0.012277381980059307,0.1870743638449454,-0.3376570956391607,0.5262026725039782,-0.2481023127715818,0.0974141394490068,0.005401089866449195,0.005401089866449715,0.005401089866452491,0.005401089866452491,0.005401089866452491,0.0054010898664483276,0.452995035140324,2.8897122678478255,0.1319796728430574,1.3886457262229306,0.889299762528519,-1.5623862608002594
0.46,2,0.012321645587252707,0.1871186274521388,-0.3376128320319673,0.5262469361111716,-0.2480580491643884,0.09745840305620021,0.004426360719340071,0.0044263607193395504,0.0044263607193395504,0.004426360719333999,0.0044263607193395504,0.004426360719340938,-1.5700590355626878,1.7232181302063367,-2.6281244926391167,0.7137664402798669,-1.303492300280992,1.0729522649391106
0.47000000000000003,2,0.01235611822013873,0.18715310008502484,-0.33757835939908126,0.5262814087440576,-0.24802357653150237,0.09749287568908623,0.0034472632886022037,0.0034472632886028975,0.0034472632886028975,0.0034472632886028975,0.0034472632886028975,0.0034472632886015098,3.8063895473446006,-1.1201490605198312,-2.22926432363672,2.1015750343414545,-0.9492882668205134,0.6485283044706265
0.48,2,0.012380765858390645,0.18717774772327675,-0.3375537117608294,0.5263060563823095,-0.24799892889325048,0.09751752332733814,0.0024647638251915766,0.0024647638251912296,0.002464763825188454,0.002464763825194005,0.002464763825188454,0.0024647638251912296,-4.780853165006815,-3.0508994445621904,0.5553669820860192,-2.0723716203865257,0.37346851306218853,0.4240891769126659
0.49,2,0.012395564177765245,0.18719254604265134,-0.33753891344145476,0.5263208547016841,-0.24798413057387586,0.09753232164671274,0.0014798319374599578,0.0014798319374592639,0.0014798319374620394,0.0014798319374564883,0.0014798319374620394,0.0014798319374606517,-1.869027933305116,-1.3069726862297388,0.6259560288388576,3.406585502263174,0.9947094298577467,1.329169734868237
0.5,2,0.012400498574107929,0.18719748043899404,-0.33753397904511206,0.5263257890980269,-0.24797919617753317,0.09753725604305542,0.0004934396342684208,0.0004934396342692882,0.0004934396342692882,0.0004934396342748393,0.0004934396342692882,0.0004934396342679004,-0.8933569294996877,3.102213117729655,0.3450300201181197,-5.88066368596691,0.1269238203102639,-0.8328733036485465
0.51,2,0.012395564177765245,0.18719254604265134,-0.33753891344145476,0.5263208547016841,-0.24798413057387586,0.09753232164671274,-0.0004934396342684208,-0.0004934396342692882,-0.0004934396342692882,-0.0004934396342748393,-0.0004934396342692882,-0.0004934396342679004,-1.5143861826859375,0.9323947771200924,-0.6481409173091067,3.107467664011984,-0.15729844346949556,-1.0375925474881385
0.52,2,0.012380765858390645,0.18717774772327675,-0.3375537117608294,0.5263060563823095,-0.24799892889325048,0.09751752332733814,-0.0014798319374599578,-0.0014798319374592639,-0.0014798319374620394,-0.0014798319374564883,-0.0014798319374620394,-0.0014798319374606517,2.828580343052793,1.5419333377046043,1.8717116613384026,-1.42831270902683,-2.4513895299266917,2.0222513616244058
0.53,2,0.01235611822013873,0.18715310008502484,-0.33757835939908126,0.5262814087440576,-0.24802357653150237,0.09749287568908623,-0.0024647638251915766,-0.0024647638251912296,-0.002464763825188454,-0.002464763825194005,-0.002464763825188454,-0.0024647638251912296,-2.9231482734038057,-0.9078668992637711,1.0372190398853691,1.0165791088007259,1.2057586676931762,0.1733560347206233
0.54,2,0.012321645587252707,0.1871186274521388,-0.3376128320319673,0.5262469361111716,-0.2480580491643884,0.09745840305620021,-0.0034472632886022037,-0.0034472632886028975,-0.0034472632886028975,-0.0034472632886028975,-0.0034472632886028975,-0.0034472632886015098,3.5121426953824852,1.3229278018217452,0.9716251908717064,3.1549151589895716,1.892117001056448,-0.9765785027878786
0.55,2,0.012277381980059305,0.1870743638449454,-0.3376570956391607,0.5262026725039782,-0.2481023127715818,0.0974141394490068,-0.004426360719340244,-0.0044263607193395504,-0.0044263607193395504,-0.004426360719333999,-0.0044263607193395504,-0.004426360719340938,-0.15576526446204908,-2.6843750032465525,1.0448459367708947,1.3813903871557516,2.129990519152652,-0.19310361227836673
0.56,2,0.012223371081394815,0.18702035294628092,-0.3377111065378252,0.5261486616053137,-0.24815632367024631,0.09736012855034232,-0.0054010898664490214,-0.005401089866449715,-0.005401089866452491,-0.005401089866452491,-0.005401089866452491,-0.0054010898664483276,-2.3184929285799147,2.2285563721180766,3.500828789987898,1.0055953522009453,0.508873531799727,-0.3661428310691791
0.5700000000000001,2,0.012159666193495403,0.1869566480583815,-0.3377748114257246,0.5260849567174143,-0.24822002855814568,0.0972964236624429,-0.006370488789941148,-0.006370488789941842,-0.0063704887899362905,-0.006370488789941842,-0.0063704887899362905,-0.006370488789941842,-3.7959230581111214,-1.9508566404578398,-1.7408992343179324,1.994412823324749,-0.9972620928814144,-0.5281903492300608
0.58,2,0.012086330185394241,0.18688331205028033,-0.33784814743382574,0.5260116207093132,-0.24829336456624684,0.09722308765434175,-0.007333600810116234,-0.007333600810116581,-0.007333600810116581,-0.0073336008101110295,-0.007333600810116581,-0.007333600810115193,-0.02228500258315197,-3.5873406272019737,-0.5331532671975774,-2.697380497011997,-0.4335750749983508,1.0497443416758263
0.59,2,0.01200343543087736,0.18680041729576347,-0.33793104218834263,0.5259287259547962,-0.24837625932076374,0.09714019289982485,-0.008289475451688129,-0.008289475451686568,-0.008289475451689343,-0.008289475451694894,-0.008289475451689343,-0.008289475451689343,-0.994275057455978,4.887284329581954,-0.36266052227303025,-2.396911901738802,0.5189674903151714,-1.5771783668852433
0.6,2,0.011911063737059465,0.18670804560194557,-0.33802341388216056,0.5258363542609784,-0.24846863101458166,0.09704782120600697,-0.009237169381789458,-0.009237169381789978,-0.009237169381792754,-0.009237169381781651,-0.009237169381792754,-0.00923716938178859,0.8839394970084787,0.6331699943177291,2.8260879546698523,0.8059180131489162,0.17304410155525984,3.2045146684232635
0.61,2,0.011809306263650184,0.18660628812853627,-0.3381251713555698,0.5257345967875691,-0.2485703884879909,0.09694606373259769,-0.010175747340928146,-0.010175747340929187,-0.010175747340923635,-0.010175747340934738,-0.010175747340923635,-0.010175747340927799,-0.48931557285243166,0.5782305481398125,-0.4363260360422412,-0.13204924550857955,-1.479822714792272,0.6102007786849998
0.62,2,0.011698263432990444,0.18649524529787653,-0.33823621418622957,0.5256235539569094,-0.24868143131865067,0.09683502090193795,-0.011104283065973934,-0.011104283065974108,-0.011104283065976883,-0.011104283065965781,-0.011104283065976883,-0.011104283065974108,2.323907032289495,-3.3760391621065757,-1.273620085171438,-0.36275031820573633,-3.1543970642794315,-3.510433759537212
0.63,2,0.011578044830947742,0.18637502669583383,-0.33835643278827227,0.5255033353548667,-0.24880164992069337,0.09671480229989524,-0.012021860204270221,-0.012021860204269874,-0.012021860204269874,-0.012021860204269874,-0.012021860204269874,-0.012021860204271262,0.12738511592873691,1.6086922893133495,0.09949149521154613,2.738713337709401,-0.9013662657200918,0.711173562060332
0.64,2,0.011448769098768123,0.18624575096365423,-0.3384857085204519,0.525374059622687,-0.248930925652873,0.09658552656771562,-0.01292757321796189,-0.012927573217960675,-0.01292757321796345,-0.012927573217969002,-0.01292757321796345,-0.012927573217962063,-0.4357905167921685,2.134951447264762,0.5197608794517128,2.5644600544993583,-0.34459404606669863,-1.70057412494492
0.65,2,0.011310563815991609,0.1861075456808777,-0.33862391380322837,0.5252358543399105,-0.24906913093564947,0.0964473212849391,-0.013820528277651463,-0.013820528277652677,-0.013820528277647126,-0.013820528277652677,-0.013820528277647126,-0.01382052827765129,2.3577871893719733,-0.036695735753813186,2.7025740871510586,-1.581045431566598,0.8266434674500486,0.10391853088910849
0.66,2,0.011163565374546564,0.18596054723943267,-0.33877091224467343,0.5250888558984654,-0.24921612937709453,0.09630032284349406,-0.014699844144504433,-0.014699844144502872,-0.014699844144505647,-0.014699844144505647,-0.014699844144505647,-0.01469984414450426,0.866463989563975,2.140334914439713,-0.4506726234934466,1.1439347935640258,-0.6120913601606223,-0.1472774407878663
0.67,2,0.011007918844147365,0.18580490070903347,-0.33892655877507266,0.5249332093680663,-0.24937177590749376,0.09614467631309487,-0.015564653039919912,-0.015564653039920606,-0.015564653039923382,-0.01556465303991228,-0.015564653039923382,-0.015564653039919218,1.957829916187496,2.69980625391607,-1.0676152446327256,-2.8711336547966777,-0.29699319167434457,1.5117914246129853
0.68,2,0.01084377782912808,0.18564075969401417,-0.33909069979009193,0.524769068353047,-0.24953591692251303,0.09598053529807558,-0.016414101501928575,-0.01641410150192979,-0.016414101501927014,-0.016414101501927014,-0.016414101501927014,-0.016414101501928402,2.7039264170401527,1.4081488362619092,-1.5141226822144613,-2.921080106824075,0.4277669742825928,1.4874030140160657
0.6900000000000001,2,0.010671304316853546,0.18546828618173963,-0.33926317330236644,0.5245965948407725,-0.24970839043478754,0.09580806178580105,-0.017247351227453293,-0.017247351227453467,-0.01724735122745069,-0.017247351227456242,-0.01724735122745069,-0.017247351227453467,-0.18335872428269706,-3.97817804387966,-0.3850189842577161,-1.5321185158454451,3.336189431509152,0.5956235254067378
0.7000000000000001,2,0.010490668517857403,0.1852876503827435,-0.3394438091013626,0.5244159590417763,-0.24988902623378373,0.0956274259868049,-0.018063579899614372,-0.018063579899613158,-0.01806357989961871,-0.01806357989961871,-0.01806357989961871,-0.018063579899614546,0.4779760755709502,-1.951739390560637,5.428542863271781,0.1452911800098755,-0.13175005308521642,3.9701858390135545
0.71,2,0.010302048697864835,0.18509903056275093,-0.33963242892135515,0.5242273392217838,-0.25007764605377625,0.09543880616681233,-0.01886198199925679,-0.018861981999257482,-0.01886198199925193,-0.01886198199925193,-0.01886198199925193,-0.018861981999257482,2.0859301916123743,3.722138666119147,1.0634524016579436,-1.0574728728989053,-2.898436425399211,-1.3006606907103444
0.72,2,0.01010563100186582,0.18490261286675191,-0.3398288466173542,0.5240309215257848,-0.2502740637497753,0.09524238847081332,-0.019641769599901358,-0.01964176959990127,-0.019641769599904046,-0.019641769599898495,-0.019641769599904046,-0.01964176959990127,-4.506540809973194,0.5096387158893799,1.4922647245886314,1.1482367235106334,-1.1723941505525217,2.878071735467323
0.73,2,0.009901609270412524,0.18469859113529863,-0.34003286834880747,0.5238268997943314,-0.2504780854812286,0.09503836673936003,-0.02040217314532959,-0.02040217314532855,-0.02040217314532855,-0.020402173145339653,-0.02040217314532855,-0.02040217314532855,0.18729578458599141,0.5148133492966528,0.2919251920335671,0.21206325300649842,3.8101664640950066,2.9312058182879506
0.74,2,0.009690184848322042,0.18448716671320814,-0.34024429277089796,0.523615475372241,-0.25068950990331906,0.09482694231726954,-0.021142442209048234,-0.02114244220904893,-0.02114244220904893,-0.021142442209043377,-0.02114244220904893,-0.02114244220904893,-0.06323061604861002,-1.3264138687610085,0.563782784309856,2.46758855306335,3.059782206211393,0.816599142477501
0.75,2,0.009471566385973405,0.1842685482508595,-0.3404629112332466,0.5233968569098923,-0.2509081283656677,0.0946083238549209,-0.021861846234863796,-0.021861846234863536,-0.02186184623486631,-0.02186184623486076,-0.02186184623486631,-0.021861846234863536,1.1299010613682374,-0.9425367781430313,1.8582635077690979,1.3271331658755523,2.0678894604066445,1.0568400384252268
0.76,2,0.009245969633394817,0.18404295149828093,-0.3406885079858252,0.5231712601573137,-0.2511337251182463,0.09438272710234231,-0.022559675257858777,-0.022559675257857736,-0.02255967525785496,-0.022559675257860512,-0.02255967525785496,-0.022559675257859124,-1.2255080716842803,2.712896921098718,1.4065409431602192,-1.8449913500110884,1.588703322264549,2.0379805061820315
0.77,2,0.009013617227344447,0.18381059909223055,-0.3409208603918756,0.5229389077512634,-0.2513660775242967,0.09415037469629195,-0.02323524060503703,-0.0232352406050379,-0.023235240605040675,-0.023235240605035123,-0.023235240605040675,-0.02323524060503651,2.562149967579616,3.3194035151517394,0.9751604916635972,2.029302105995425,1.6083656277724212,-0.49792826341530494
0.78,2,0.008774738471594826,0.18357172033648092,-0.34115973914762515,0.5227000289955137,-0.25160495628004625,0.09391149594054232,-0.023887875574961966,-0.023887875574962747,-0.023887875574957196,-0.023887875574968298,-0.023887875574957196,-0.023887875574962747,-1.1100935733719999,1.9114212858285715,0.3044807353422228,-1.500095935805616,-0.2988876857209765,-0.8816458548252197
0.79,2,0.008529569110637692,0.18332655097552378,-0.3414049085085823,0.5224548596345566,-0.2518501256410034,0.0936663265795852,-0.02451693609571348,-0.02451693609571426,-0.02451693609571426,-0.024516936095708708,-0.02451693609571426,-0.02451693609571287,-0.5587855206453197,1.4143778856102103,-0.4372481451071716,1.0422892396850498,1.9100736526265312,-0.7806229137097109
0.8,1,0.0024004985741079288,0.17719748043899403,-0.3475339790451121,0.5163257890980268,-0.2579791961775332,0.08753725604305543,-0.6129070536529764,-0.6129070536529752,-0.6129070536529779,-0.6129070536529779,-0.6129070536529779,-0.6129070536529765,-0.9761088294074434,1.5584018187836852,1.110905893404318,-0.7699057984817675,1.9841614094360636,0.709035688336865
0.81,1,0.00218882015753952,0.1770281377057393,-0.347406971995171,0.5164739639896248,-0.25787335696924896,0.08745258467642807,-0.02116784165684089,-0.01693427332547237,0.01270070499410636,0.014817489159790753,0.010583920828421967,-0.008467136662736185,2.8055887580394594,0.1580341405109171,0.4239406945996549,2.8579416828953166,1.8567571400675702,-0.8173991861189478
0.8200000000000001,1,0.0015619263853946168,0.17652662268802338,-0.3470308357318841,0.5169127896301262,-0.2575599100831765,0.0872018271675701,-0.06268937721449032,-0.050151501771592,0.03761362632869192,0.04388256405014612,0.031344688607243265,-0.025075750885796,-3.8325557748531236,-2.115211231265008,4.516704000639958,1.6670538531858345,-1.0335136310471953,-1.3271538312294213
0.8300000000000001,1,0.0005320294740137038,0.17570270515891864,-0.34641289758505556,0.5176337174680928,-0.2570449616274861,0.08678986840301774,-0.10298969113809127,-0.08239175291047396,0.06179381468285339,0.07209278379666229,0.05149484556904449,-0.04119587645523698,3.904796229999671,-2.5544465727773145,2.346461848079499,-1.185856896060371,-0.4899148108095641,-1.9580237682559627
0.84,1,-0.0008886583602627147,0.17456615489149752,-0.3455604848844897,0.5186281989520863,-0.2563346177103479,0.08622159326930717,-0.14206878342764184,-0.1136550267421127,0.08524127005658522,0.09944814839935034,0.07103439171382009,-0.05682751337105635,3.2698891855344594,2.9074401549642586,-1.1094328778645481,-0.5781401079064606,-1.1284149389716602,-1.8577879912124038
0.85,1,-0.0026879249010941866,0.17312674165883232,-0.34448092495999083,0.5198876855306683,-0.2554349844399321,0.08550188665297458,-0.1799266540831472,-0.14394132326651932,0.1079559924498874,0.1259486578581992,0.08996332704157561,-0.07197066163325966,-0.814789649968863,0.204541781219145,-2.1063516528360653,6.72682695521779,2.1444371292269677,-1.1733980937296278
0.86,1,-0.004853557932140211,0.17139423523399552,-0.3431815451413632,0.5214036286524005,-0.2543521679244091,0.08463563344055618,-0.21656330310460242,-0.17325064248367994,0.1299379818627655,0.15159431217321995,0.10828165155229996,-0.08662532124183997,2.3602706895898606,1.2167469407384541,-0.5702851413385785,-2.339576572871038,0.7521248907377033,-1.1317798410674405
0.87,1,-0.007373345237060307,0.16937840539005944,-0.34166967275841115,0.5231674797658447,-0.2530922742719491,0.08362771851858813,-0.2519787304920096,-0.20158298439360844,0.15118723829520286,0.1763851113444126,0.12598936524600424,-0.10079149219680422,0.5577825233330109,0.6760799136193124,-1.9471523908537272,-1.2635505545459726,0.9252995342663728,0.3125373512369479
0.88,1,-0.010235074599513986,0.1670890219000965,-0.33995263514093893,0.5251706903195622,-0.2516614095907222,0.08248302677360667,-0.2861729362453678,-0.22893834899629373,0.17170376174722168,0.20032105537175493,0.14308646812268844,-0.11446917449814686,3.594311555364294,0.7692541139001685,-0.7043597063937215,-1.171985465686848,1.2871618041083104,-1.458656830430217
0.89,1,-0.013426533803160761,0.1645358545371791,-0.3380377596187509,0.5274047117621149,-0.25006567998889884,0.08120644309214796,-0.31914592036467754,-0.25531673629174134,0.1914875522188053,0.22340214425526916,0.1595729601823359,-0.12765836814587067,2.1803975911239792,0.9276296837349493,-1.7341351146530228,-2.1542133638800776,-2.6931300950416777,1.072929435351907
0.9,1,-0.01693551063166015,0.16172867307437958,-0.33593237352165123,0.5298609955420645,-0.24831119157464915,0.0798028523607482,-0.3508976828499388,-0.2807181462799513,0.21053860970996485,0.2456283779949553,0.17544884142496886,-0.14035907313997564,4.655705207303844,1.6237693903631851,-0.4565139214635502,-1.9506119136192797,1.8893951969226794,4.020786855721115
0.91,1,-0.02074979286867167,0.15867724728477034,-0.33364380417944434,0.5325309931079726,-0.2464040504561434,0.07827713946594358,-0.38142822370115204,-0.30514257896092356,0.2288569342206892,0.2669997565908133,0.19071411185057618,-0.15257128948046178,-2.8648173609780008,-1.3151407154589587,-0.44035024836377956,-0.06694678460975823,-0.9614446029661916,2.5798754945910396
0.92,1,-0.024857168297854827,0.1553913469414238,-0.33117937892193444,0.5354061559084008,-0.2443503627415518,0.07663418929427032,-0.41073754291831577,-0.3285900343346526,0.24644252575098946,0.28751628004282104,0.20536877145915788,-0.1642950171673263,0.6319706976109916,2.5755698700485024,0.4763942437478058,1.096589844169716,-0.7851051144082636,-2.0457627186183402
0.93,1,-0.02924542470286915,0.15188074181741237,-0.32854642507892584,0.5384779353919108,-0.24215623453904464,0.0748788867322646,-0.4388256405014324,-0.351060512401144,0.2632953843008601,0.30717794835100065,0.21941282025071673,-0.175530256200572,-3.209369077908371,-1.2741338907157875,-0.2397270286983199,-3.049767690085248,-1.562222468655218,-0.5265915985856686
0.9400000000000001,1,-0.03390234986737414,0.14815520168580837,-0.32575226998022283,0.5417377830070643,-0.23982777195679214,0.0730161166664626,-0.4656925164504992,-0.3725540131604005,0.27941550987030106,0.32598476151535216,0.23284625822524996,0.0,-0.8092672722126143,0.6706368518039867,-1.6387569439926049,-0.8734937228949028,0.26352144536751754,-2.474271659382201
0.9500000000000001,1,-0.038815731575029315,0.14422449631968423,-0.3228042409556297,0.5451771502024229,-0.23737108110296457,0.07105076398340053,-0.49133817076551717,-0.39307053661241376,0.2948029024593124,0.34393671953585336,0.24566908538275756,-0.19653526830620688,4.716562772720294,-2.1840807830688056,2.58727878714038,-1.48585226328295,-0.03595038152549726,0.45248440840127846
0.96,1,-0.04397335760949415,0.14009839549211237,-0.3197096653349508,0.5487874884265483,-0.23479226808573214,0.0689877135696146,-0.5157626034464832,-0.4126100827571866,0.30945756206788855,0.36103382241254867,0.2578813017232423,-0.2063050413785933,1.1425407191206316,-0.16134926891974888,0.9549415450418329,-2.2262326160862695,-2.6903284195484876,0.5635678230845147
0.97,1,-0.04936301575442824,0.1357866689761651,-0.31647587044799036,0.5525602491280022,-0.2320974390132651,0.06683185031164096,-0.5389658144934091,-0.4311726515947273,0.32337948869604616,0.37727607014538256,0.2694829072467042,-0.21558632579736364,2.1639013642262,-1.1579084541341915,-0.9486221372038326,2.098814186598976,-3.492424562436815,0.40065335789233336
0.98,1,-0.05497249379349107,0.13129908654491482,-0.3131101836245527,0.5564868837553462,-0.22929269999373367,0.06458805909601582,-0.5609478039062831,-0.44875824312502754,0.3365686823437686,0.39266346273439945,0.28047390195314326,-0.22437912156251377,1.2111832231024786,0.1998641891286875,-1.6407458241815798,-1.4303927304556128,-0.32530651447700987,-2.050926067675617
0.99,1,-0.06078957951034214,0.12664541797143397,-0.30961993219444206,0.5605588437571419,-0.22638415713530813,0.0622612248092754,-0.5817085716851071,-0.4653668573480846,0.34902514301106136,0.40719600017957713,0.2908542858425539,-0.2326834286740423,1.0725354995581893,1.6117687498776836,-2.811877058407071,-2.64785132036312,1.7014695437768126,-1.2561263071927933
1.0,1,-0.06680206068864097,0.1218354330287949,-0.30601244348746276,0.5647675805819511,-0.22337791654615874,0.05985623233795587,-0.6012481178298834,-0.48099849426390673,0.36074887069793005,0.4208736824809156,0.30062405891493893,-0.24049924713195336,-2.88341701119712,-1.686615355143575,-4.613209476445183,0.2280309147962336,0.20911251609590664,0.6857637398604277
1.01,1,-0.07299772511204712,0.11687890149006999,-0.30229504483341907,0.5691045456783353,-0.22028008433445564,0.05737796656859341,-0.6195664423406146,-0.4956531538724912,0.3717398654043691,0.433696509638426,0.30978322117030943,-0.2478265769362456,-1.4892554618802492,3.8649876362517825,2.1304791037401873,2.543229364366962,2.024545920784945,0.7755313840088635
1.02,1,-0.07936436056422003,0.11178559312833167,-0.29847506356211534,0.5735611904948564,-0.21709676660836918,0.05483131238772425,-0.6366635452172905,-0.5093308361738325,0.38199812713037296,0.44566448165210826,0.318331772608646,-0.25466541808691623,-1.3199263551761453,1.4179043946003005,1.9916873394331414,0.5996933870732155,-0.32445619848049023,-1.7913492218945608
1.03,1,-0.08588975482881923,0.1065652777166523,-0.29455982700335576,0.5781289664800758,-0.2138340694760696,0.05222115468188457,-0.6525394264599207,-0.522031541167936,0.3915236558759583,0.4567775985219402,0.3262697132299597,-0.261015770583968,-5.8444959447462255,-0.7563990293407724,-0.9804016845574657,-1.6687684047201428,-0.5857016394962318,-2.661483732199271
1.04,1,-0.09256169568950424,0.10122772502810429,-0.2905566624869448,0.5827993250825554,-0.21049809904572708,0.04955237833761056,-0.6671940860685011,-0.533755268854802,0.4003164516410973,0.4670358602479552,0.33359704303425053,-0.266877634427401,-0.7218497755471776,-0.6052727404056726,3.0046684478504204,-0.2491459844300432,-0.04715092679466937,-0.27889169959691035
1.05,1,-0.09936797092993463,0.09578270483575999,-0.28647289734268655,0.5875637177508566,-0.2070949614255119,0.04682986824143841,-0.6806275240430384,-0.5445020192344302,0.40837651442582334,0.47643926683011983,0.34031376202151853,-0.2722510096172151,-0.2636168562232029,0.18122529391844122,1.5950096116548815,-0.9061534874577936,1.8397736766273112,-0.4195930580776308
1.06,1,-0.10629636833376988,0.09023998691269179,-0.2823158589003854,0.5924135959335413,-0.20363076272359426,0.04405850927990431,-0.6928397403835246,-0.5542717923068193,0.4157038442301142,0.4849878182684675,0.3464198701917637,-0.27713589615340967,-2.1782922214659104,0.6857816446951827,0.8619250225222267,0.40714918976498166,3.514300466666403,-2.7892521951098628
1.07,1,-0.11333467568466946,0.08460934103197212,-0.27809287448984565,0.597340411079171,-0.20011160904814448,0.04124318633954448,-0.7038307350899581,-0.5630645880719667,0.4222984410539754,0.49268151456297593,0.35191536754497765,-0.28153229403598334,-1.4082534826002044,-3.3465207079438075,2.277776592590239,2.04382525229781,-0.5710042357055941,-0.8767629418810401
1.08,1,-0.12047068076629291,0.07890053696667336,-0.2738112714408716,0.6023356146363075,-0.19654360650733277,0.038388784306895095,-0.7136005081623459,-0.5708804065298764,0.428160304897407,0.49952035571364517,0.35680025408117155,-0.2854402032649382,-0.31384440280091264,0.23269698476525358,1.893621447438218,0.6714697385352342,-0.11908548647698947,-1.2739504977691904
1.09,1,-0.1276921713622998,0.07312334448986788,-0.26947837708326744,0.6073906580535122,-0.19293286120932931,0.03550018806849235,-0.722149059600688,-0.5777192476805484,0.43328943576041445,0.5055043417204752,0.3610745298003454,-0.2888596238402742,0.1790856820235056,-3.625290176445086,1.0709603339523146,0.8284234209875079,0.5392324151222115,-1.5249611512200965
1.1,1,-0.13498693525634953,0.06728753337462806,-0.2651015187468376,0.6124969927793471,-0.18928547926230443,0.032582282510872446,-0.7294763894049733,-0.5835811115239814,0.4376858336429812,0.5106334725834882,0.36473819470248803,-0.2917905557619907,-4.221752811324589,-0.3038630655377075,0.39430859736790475,-0.07371778508669158,0.013744554182804403,-1.2526801706679194
1.11,1,-0.14234276023210177,0.06140287339402628,-0.2606880237613863,0.6176460702623736,-0.18560756677442833,0.02963995252057156,-0.735582497575224,-0.5884659980601781,0.44134949854513494,0.514907748302651,0.3677912487876106,-0.29423299903008904,-3.659847811297837,0.636558233662956,0.7744568770338309,2.40235973692374,-0.5484510014470345,0.10458380464177902
1.12,1,-0.1497474340732159,0.05547913432113498,-0.2562452194567178,0.6228293419511535,-0.18190522985387125,0.026678082984125908,-0.7404673841114123,-0.5923739072891301,0.44428043046684795,0.5183271688779856,0.37023369205570755,-0.29618695364456504,-0.816600431691026,-1.1495210783391183,-2.1092052371954395,1.9323720115984315,0.4320013863598537,-0.31302054461395845
1.1300000000000001,1,-0.15718874456335152,0.04952608592902649,-0.25178043316263643,0.6280382592942485,-0.17818457460880344,0.023701558788071665,-0.7441310490135633,-0.5953048392108486,0.4464786294081369,0.5208917343095032,0.37206552450678165,-0.2976524196054243,-1.404299418730373,-6.590757878169755,-0.37359411180334523,-2.3546299113576414,-0.826049995904553,1.969503537548613
1.1400000000000001,1,-0.16465447948616807,0.04355349799077324,-0.24730099220894647,0.63326427374022,-0.17445170714739516,0.020715264818945037,-0.7465734922816547,-0.5972587938253254,0.44794409536899615,0.5226014445971483,0.37328674614082735,-0.2986293969126627,-0.16039398626299217,-5.698850744567593,4.952312457914459,-2.1127087476861206,2.279861311701286,-0.19473612836987186
1.1500000000000001,1,-0.17213242662532513,0.03757114027944761,-0.24281422392545227,0.63849883673763,-0.17071273357781663,0.017724085963282222,-0.747794713915706,-0.5982357711325631,0.44867682834942024,0.5234562997409986,0.373897356957853,-0.29911788556628155,-0.5168131237514944,-1.2078319324336952,-0.1760208945073023,0.9178354398642689,3.851201119068028,0.9692564462875819
1.16,1,-0.17961037376448202,0.03158878256812209,-0.23832745564195812,0.6437333997350397,-0.16697376000823821,0.01473290710761946,-0.7477947139156893,-0.598235771132552,0.4486768283494147,0.5234562997409764,0.3738973569578419,-0.299117885566276,1.42750427174464,-7.44382107433381,-2.0929402258204988,3.6554719074282307,0.4115995154612716,-3.3379164169142284
1.17,1,-0.18707610868729863,0.02561619462986881,-0.23384801468826816,0.6489594141810114,-0.16324089254682989,0.01174661313849282,-0.7465734922816603,-0.5972587938253282,0.44794409536899615,0.5226014445971705,0.3732867461408329,-0.2986293969126641,-4.272969751667367,-1.5231424980302157,3.548118999918911,4.182347397668848,4.3827395473485735,-0.43812840227245303
1.18,1,-0.1945174191774342,0.019663146237760363,-0.22938322839418682,0.6541683315241064,-0.15952023730176212,0.008770088942438596,-0.7441310490135578,-0.5953048392108445,0.4464786294081341,0.5208917343094921,0.3720655245067761,-0.29765241960542227,-0.8206350987876503,-0.9830661412063368,2.37136394716909,3.5115835806043094,0.9188084668682333,-1.537824213202115
1.19,1,-0.20192209301854835,0.01373940716486902,-0.22494042408951834,0.6593516032128862,-0.15581790038120502,0.005808219405992926,-0.7404673841114151,-0.5923739072891343,0.44428043046684795,0.5183271688779856,0.37023369205571033,-0.29618695364456715,-6.112758246339198,-0.8950663558199543,2.6197293653879905,1.822481083025497,-0.1812406411819878,0.603276644547492
1.2,1,-0.2092779179943005,0.007854747184267295,-0.22052692910406704,0.6645006806959127,-0.15213998789332894,0.002865889415692063,-0.7355824975752157,-0.5884659980601725,0.4413494985451294,0.514907748302651,0.3677912487876078,-0.29423299903008626,0.21625897093299962,-3.863617608672756,1.8324711541519252,5.193032900508424,2.6659540271507165,-0.38800326553218933
1.21,1,-0.2165726818883503,0.002018936069027453,-0.21615007076763715,0.6696070154217476,-0.14849260594630406,-5.201614192785781e-05,-0.7294763894049788,-0.5835811115239842,0.4376858336429895,0.5106334725834882,0.36473819470248803,-0.2917905557619921,-3.965234476077839,-2.7210987032026512,4.108040520607272,0.9587193887544601,-0.47485679388874624,2.2021562394275853
1.22,1,-0.22379417248435726,-0.003758256407778101,-0.21181717641003298,0.6746620588389525,-0.14488186064830058,-0.0029406123803306346,-0.7221490596006963,-0.5777192476805554,0.43328943576041723,0.5055043417204863,0.36107452980034815,-0.2888596238402777,-4.096545075664041,-3.3996249371724496,5.486112468606473,1.8630014417611782,2.702203882967172,-2.8636213497164196
1.23,1,-0.2309301775659806,-0.009467060473076768,-0.207535573361059,0.6796572623960888,-0.14131385810748892,-0.005795014412979968,-0.7136005081623348,-0.5708804065298667,0.42816030489739865,0.49952035571363407,0.356800254081166,-0.28544020326493336,-3.5093771739727977,-6.983885902883916,1.5251367153798996,-0.1548438822317788,2.0432855523194293,-2.474380030090359
1.24,1,-0.23796848491688025,-0.015097706353796505,-0.20331258895051918,0.6845840775417186,-0.1377947044320391,-0.008610337353339837,-0.7038307350899636,-0.5630645880719737,0.42229844105398096,0.49268151456297593,0.3519153675449832,-0.28153229403598684,-8.51079662143227,-2.7701697810143537,3.9758739834624834,2.1387547928407655,0.8094689396271413,-0.42108279753378486
1.25,1,-0.2448968823207154,-0.02064042427686463,-0.1991555505082181,0.6894339557244031,-0.1343305057301215,-0.0113816963148739,-0.6928397403835163,-0.5542717923068124,0.41570384423010864,0.4849878182684564,0.34641987019175813,-0.2771358961534062,-8.262131587562116,-1.7020696896727459,5.089766400173134,1.2486041060774404,0.6795144346646271,-1.4146496510448974
1.26,1,-0.2517031575611458,-0.02608544446920896,-0.19507178536395983,0.6941983483927044,-0.1309273681099063,-0.014104206411046065,-0.6806275240430426,-0.544502019234433,0.4083765144258261,0.47643926683013094,0.3403137620215213,-0.2722510096172165,-6.1950466726786155,-3.327526420111444,1.8402752892396599,6.19040636407383,0.03425893197056995,-3.0935576622778402
1.27,1,-0.2583750984218308,-0.03142299715775698,-0.19106862084754883,0.698868706995184,-0.1275913976795638,-0.016772982755320073,-0.6671940860685011,-0.533755268854802,0.4003164516411001,0.4670358602479552,0.33359704303425053,-0.266877634427401,-6.049460035464464,-5.935380266063735,6.1581352623514585,5.939070501912017,3.924370534308528,-0.510945764809786
1.28,1,-0.2649004926864301,-0.03664331256943637,-0.1871533842887893,0.7034364829804034,-0.12432870054726416,-0.019383140461159767,-0.6525394264599249,-0.5220315411679388,0.3915236558759527,0.4567775985219402,0.32626971322996245,-0.2610157705839694,-2.890540855629112,-3.673134932814166,5.5124164058751255,3.5256058722750243,1.4968581850922429,-2.298645688122254
1.29,1,-0.271267128138603,-0.04173662093117467,-0.18333340301748555,0.7078931277969245,-0.1211453828211777,-0.021929794642028915,-0.636663545217292,-0.5093308361738297,0.38199812713037573,0.44566448165210826,0.318331772608646,-0.25466541808691484,-9.268553766687033,-2.780489599487108,0.9408682938693822,4.474273867194155,2.6455133524572827,-0.45719594581925893
1.3,1,-0.2774627925620091,-0.04669315246989958,-0.17961600436344188,0.7122300928933087,-0.11804755060947467,-0.02440806041139137,-0.6195664423406078,-0.4956531538724912,0.3717398654043663,0.433696509638426,0.3097832211703039,-0.2478265769362456,-4.603540551701965,-3.265116363401483,6.757144205784356,2.4724541780969496,2.0813424209602545,-4.807687357642871
1.31,1,-0.283475273740308,-0.051503137412538647,-0.17600851565646258,0.716438829718118,-0.11504131002032522,-0.026813052882710905,-0.601248117829889,-0.48099849426390673,0.36074887069793005,0.4208736824809267,0.3006240589149445,-0.24049924713195336,-8.527656355996276,-3.7644662946502137,1.3295942393596727,-1.2530262130945728,1.758798990782004,-2.0437172320490853
1.32,1,-0.28929235945715903,-0.05615680598601955,-0.1725182642263519,0.7205107897199138,-0.11213276716189968,-0.029139887169451355,-0.5817085716851078,-0.46536685734809013,0.3490251430110697,0.40719600017957713,0.2908542858425539,-0.23268342867404507,-8.866367491810362,-9.22098344989551,2.474474868927927,2.4334777013418485,2.914724922967441,-1.1914233750630339
1.33,1,-0.2949018374962218,-0.06064438841726974,-0.16915257740291426,0.7244374243472577,-0.1093280281423683,-0.031383678385076455,-0.5609478039062754,-0.4487582431250192,0.336568682343763,0.39266346273438835,0.2804739019531377,-0.2243791215625096,-8.943648577555198,-5.457984006211459,5.356130955312802,5.590966581046376,3.364022242973313,-1.2142195352974583
1.34,1,-0.300291495641156,-0.0649561149332171,-0.16591878251595377,0.7282101850487116,-0.10663319906990121,-0.03353954164305013,-0.5389658144934195,-0.4311726515947356,0.32337948869604893,0.37727607014539366,0.26948290724670976,-0.2155863257973678,-28.597421633753182,-5.178024652245744,6.2097692254354095,5.1062796098643215,2.69414608239219,-0.2015293784781229
1.35,1,-0.3054491216756209,-0.06908221576078899,-0.16282420689527483,0.731820523272837,-0.10405438605266878,-0.03560259205683608,-0.5157626034464846,-0.41261008275718936,0.3094575620678941,0.36103382241253756,0.2578813017232423,-0.20630504137859468,-8.251624497752776,-4.604309969572951,4.460641285510073,3.578824837168709,2.115334586867857,-2.1343723177818212
1.36,1,-0.310362503383276,-0.0730129211269131,-0.15987617787068176,0.7352598904681956,-0.10159769519884121,-0.037567944739898135,-0.4913381707655151,-0.393070536612411,0.29480290245930685,0.34393671953586447,0.24566908538275756,-0.1965352683062055,-10.313705198122246,-5.859763860702742,3.1381512524896173,5.972836059396073,0.3945856447129046,-0.7950172439589928
1.37,1,-0.3150194285477811,-0.07673846125851713,-0.15708202277197872,0.7385197380833491,-0.09926923261658868,-0.03943071480570015,-0.46569251645050547,-0.37255401316040326,0.27941550987030384,0.32598476151535216,0.23284625822525273,-0.18627700658020163,-12.639699161164213,-3.9932186418933275,4.010213005718816,3.6806900284879553,1.434300572585824,-1.8730386503453837
1.3800000000000001,1,-0.31940768495279526,-0.08024906638252849,-0.1544490689289702,0.741591517566859,-0.0970751044140816,-0.04118601736770583,-0.4388256405014168,-0.35106051240113567,0.26329538430085175,0.30717794835098955,0.2194128202507084,-0.17553025620056784,-10.64472868958127,-10.955305574588209,3.903750549308926,2.4650687854973308,2.101139122707182,-0.3102261372572579
1.3900000000000001,1,-0.3235150603819785,-0.08353496672587507,-0.15198464367146028,0.7444666803672874,-0.09502141669948996,-0.04282896753937912,-0.41073754291832687,-0.32859003433465817,0.24644252575099224,0.28751628004283214,0.20536877145916344,-0.16429501716732908,-9.481027824734264,-6.381454531899976,6.4709510743104035,6.350647148218693,2.8157937297385165,-4.893792194178487
1.4000000000000001,1,-0.32732934261898994,-0.08658639251548422,-0.14969607432925341,0.7471366779331953,-0.09311427558098426,-0.044354680434183696,-0.38142822370114127,-0.30514257896091523,0.22885693422068643,0.2669997565907911,0.19071411185057063,-0.15257128948045762,-13.478540163137824,-6.734399441038995,4.1018307966536565,3.7679983716952163,-0.6258217255012117,-7.067161867796533
1.41,1,-0.3308383194474892,-0.08939357397828362,-0.14759068823215385,0.7495929617131448,-0.09135978716673462,-0.0457582711655834,-0.3508976828499266,-0.2807181462799402,0.21053860970995653,0.2456283779949553,0.1754488414249633,-0.1403590731399701,-9.78369639439236,-6.076558248956088,3.732038529857591,7.161838487212998,4.158137967716652,0.6099077798217949
1.42,1,-0.33402977865113614,-0.09194674134120118,-0.14567581270996569,0.7518269831556976,-0.08976405756491115,-0.04703485484704217,-0.319145920364694,-0.2553167362917552,0.19148755221881641,0.22340214425528027,0.159572960182347,-0.1276583681458776,-8.853194739100697,-4.982360645460307,2.2002352057172616,1.2268357949510302,3.626271411072128,-3.0719692299534618
1.43,1,-0.3368915080135898,-0.09423612483116417,-0.14395877509249344,0.7538301937094153,-0.0883331928836843,-0.04817954659202367,-0.2861729362453713,-0.22893834899629928,0.17170376174722446,0.20032105537176603,0.14308646812268566,-0.11446917449814964,-8.51416693044829,-10.022462558681225,4.081893006159408,4.193000753892825,1.88301521628348,-5.377611144781239
1.44,1,-0.3394112953185099,-0.09625195467510017,-0.1424469027095414,0.7555940448228593,-0.08707329923122425,-0.04918746151399167,-0.2519787304920085,-0.20158298439360012,0.15118723829520286,0.1763851113444015,0.12598936524600424,-0.10079149219680006,-11.050923557622948,-5.40244481823467,5.145647849310072,6.632513945222128,1.274960084973094,-2.326813078754137
1.45,1,-0.341576928349556,-0.09798446109993703,-0.14114752289091378,0.7571099879445915,-0.08599048271570123,-0.0500537147264101,-0.21656330310460548,-0.1732506424836855,0.12993798186276273,0.15159431217321995,0.10828165155230274,-0.08662532124184275,-15.579715747526699,-6.957349964781432,3.229813343845687,6.527903660880378,1.7925389859411656,-3.0752288673792503
1.46,1,-0.3433761948903874,-0.09942387433260219,-0.14006796296641494,0.7583694745231736,-0.08509084944528553,-0.05077342134274268,-0.17992665408314013,-0.14394132326651654,0.10795599244988463,0.1259486578582103,0.08996332704157006,-0.07197066163325827,-10.91078881328848,-9.122738676826991,2.105358442674424,5.195628169035805,0.5742977442801984,-1.3309770528588765
1.47,1,-0.3447968827246638,-0.10056042460002329,-0.1392155502658491,0.759363956007167,-0.08438050552814733,-0.05134169647645323,-0.14206878342764018,-0.11365502674210992,0.08524127005658522,0.09944814839933924,0.07103439171382009,-0.05682751337105496,-10.498263484470442,-10.72057124232262,7.654668981077977,6.305805964197312,2.5962942759914784,-1.1139177550647346
1.48,1,-0.3458267796360448,-0.10138434212912811,-0.1385976121190205,0.7600848838451337,-0.08386555707245683,-0.05175365524100564,-0.10298969113810008,-0.08239175291048229,0.06179381468285894,0.07209278379667339,0.05149484556905004,-0.04119587645524114,-14.04272627357308,-8.657894178717047,3.7893918227348142,6.100029522633595,2.9665631742286096,-2.960731664382112
1.49,1,-0.34645367340818967,-0.101885857146844,-0.13822147585573358,0.7605237094856351,-0.08355211018638439,-0.05200441274986359,-0.06268937721448653,-0.050151501771589224,0.03761362632869192,0.04388256405013502,0.031344688607243265,-0.025075750885794612,-13.002061600937513,-8.619332048866235,3.262349340751284,2.9252714184914166,5.210269258841813,-0.2933957699406473
1.5,1,-0.346665351824758,-0.1020551998800987,-0.13809446880579254,0.760671884377233,-0.0834462709781002,-0.052089084116490936,-0.021167841656838382,-0.016934273325469595,0.012700704994103584,0.014817489159790753,0.010583920828419191,-0.008467136662734798,-12.086032070376772,-8.640756833447442,9.105938443463533,5.254606457480332,4.366791058754234,-4.596684943463043
1.51,1,-0.34645730857792034,-0.10188876528262852,-0.1382192947538952,0.7605262541044466,-0.08355029260151907,-0.05200586681775585,0.020804324683770803,0.016643459747017753,-0.012482594810264702,-0.014563027278635676,-0.01040216234188679,0.008321729873508876,-9.664254340417346,-10.70141617712251,7.7451820593223415,6.50979215993114,5.95424861120789,-6.89727466280618
1.52,1,-0.34583876389101353,-0.10139392953310308,-0.13859042156603926,0.7600932728236118,-0.08385956494497246,-0.05175844894299313,0.061854468690680786,0.049483574952544074,-0.03711268121440736,-0.04329812808347988,-0.030927234345339005,0.024741787476272037,-13.924539410717774,-8.344823054204141,8.17400564240297,7.135051421911258,3.7230731532129364,-1.9202973184741983
1.53,1,-0.3448180953444472,-0.10057739469585006,-0.13920282269397902,0.7593788048410154,-0.0843698992182556,-0.051350181524366614,0.10206685465662946,0.08165348372530246,-0.061240112793975454,-0.0714467982596445,-0.05103342732831473,0.04082674186265123,-11.792425069642047,-10.481819657623676,7.20326510001821,6.054205745302348,1.71174443810916,-2.748482321268339
1.54,1,-0.343403680518631,-0.09944586283519709,-0.14005147158946873,0.7583887144629441,-0.0850771066311637,-0.05078441559404013,0.14144148258162237,0.11315318606529706,-0.08486488954897176,-0.09900903780712955,-0.0707207412908098,0.05657659303264853,-13.09198196464127,-7.335742743448229,8.879651520049133,5.136378594039831,7.047277693920336,-6.03638689334084
1.55,1,-0.3416038969939744,-0.09800603601547185,-0.14113134170426267,0.7571288659956845,-0.08597699839349199,-0.05006450218417751,0.17997835246565397,0.14398268197252373,-0.10798701147939349,-0.12598484672595722,-0.08998917623282837,0.07199134098626186,-13.462417559620874,-6.437206318401836,8.081743527667498,3.6209586372576603,2.9571573376416085,-1.0410603756306553
1.56,1,-0.3394271223508871,-0.09626461630100198,-0.14243740649011508,0.7556051237455234,-0.08706538571503565,-0.04919379232694258,0.2176774643087298,0.17414197144698662,-0.13060647858524066,-0.15237422501611642,-0.10883873215436629,0.08707098572349331,-11.323595635299023,-11.561773219332153,5.677860801143275,7.838755673991187,0.5277448483878593,-5.666364775633876
1.57,1,-0.3368817341697786,-0.09422830575611515,-0.1439646393987802,0.7538233520187474,-0.08833807980558991,-0.04817563705449916,0.25453881811085544,0.20363105448868296,-0.15272329086651326,-0.17817717267759603,-0.12726940905542633,0.10181552724434148,-15.756719208166826,-9.885639922068373,4.282000889854241,7.6555060982858585,4.080462570802389,-2.5020078594557207
1.58,1,-0.3339761100310584,-0.09190380644513903,-0.1457080138820123,0.7517894151216433,-0.08979089187495,-0.0470133873990111,0.29056241387201975,0.23244993109761275,-0.17433744832320852,-0.20339368971040717,-0.1452812069360085,0.11622496554880637,-13.727991461989122,-8.119483342019768,3.8844942182475073,8.37405577710236,0.47720128636029013,-0.7480284586429871
1.59,1,-0.33071862751513625,-0.08929782043240125,-0.14766250339156564,0.7495091773604977,-0.09141963313291111,-0.04571039439264221,0.3257482515922172,0.2605986012737774,-0.19544895095533477,-0.22802377611456093,-0.16287412579611138,0.1302993006368887,-14.214464430381032,-9.559646640803066,6.203191073907522,4.26557145649356,3.5006280151187696,-1.770480984089311
1.6,1,-0.3271176642024215,-0.08641704978222949,-0.14982308137919445,0.7469885030415975,-0.09322011478926846,-0.04427000906755633,0.36009633127147556,0.28807706501717684,-0.2160577987628809,-0.252067431890024,-0.180048165635735,0.14403853250858842,-17.34731823403588,-12.85291236713838,4.30729225024294,6.681795880884257,2.7281313334928026,-1.8825959794501101
1.61,1,-0.3231815976733239,-0.08326819655895139,-0.15218472129665303,0.7442332564712291,-0.09518814805381727,-0.04269558245591728,0.3936066529097615,0.31488532232780975,-0.236163991745858,-0.2755246570368408,-0.19680332645488074,0.15744266116390487,-11.917079098493815,-8.443245175502225,4.929280337128965,5.061217728163556,4.730666444072138,-3.2285596521246256
1.62,1,-0.3189188055082529,-0.07985796282689461,-0.1547423965956956,0.7412493019556794,-0.09731954413635276,-0.04099046558988889,0.42627921650709166,0.3410233732056775,-0.2557675299042578,-0.29839545155496694,-0.2131396082535486,0.17051168660283875,-12.756614497100506,-11.39754262639537,6.22987781471378,6.538933038315557,5.590521301700382,-1.9369054698724886
1.6300000000000001,1,-0.3143376652876182,-0.07619305065038684,-0.15749108072807644,0.7380425038012352,-0.09961011424667011,-0.039158009501635005,0.4581140220634772,0.3664912176507773,-0.274868413238083,-0.3206798154444246,-0.2290570110317358,0.18324560882538865,-14.362440263107683,-9.786052949480089,9.332276080520256,12.25173719525614,3.0295557415776733,-1.2476015630838766
1.6400000000000001,1,-0.30944655459182924,-0.0722801620937557,-0.1604257471455498,0.7346187263141829,-0.10205566959456458,-0.03720156522331944,0.4891110695788903,0.39128885566311333,-0.2934666417473364,-0.34237774870522486,-0.24455553478944653,0.19564442783155667,-14.951165935891721,-12.16356672148843,3.5094252968328843,8.229961420466894,2.8778110841294455,-3.5416380653548916
1.6500000000000001,1,-0.30425385100129576,-0.06812599922132888,-0.1635413692998699,0.7309838338008094,-0.10465202138983135,-0.035124483787106024,0.5192703590533532,0.4154162872426828,-0.3115622154320097,-0.36348925133734555,-0.2596351795266766,0.2077081436213414,-14.408343167175607,-8.5619269321868,6.575889524839395,4.8873156020580275,5.172632642876551,-4.498808764726183
1.6600000000000001,1,-0.29876793209642716,-0.063737264097434,-0.16683292064279107,0.7271436905674014,-0.10739498084226565,-0.03293011622515858,0.5485918904868603,0.4388735123894885,-0.32915513429211674,-0.38401432334080887,-0.27429594524343015,0.21943675619474426,-12.956104549827337,-10.955655184832128,3.9910042509009926,5.860706842870567,2.104156106256883,-0.6420025070713034
1.67,1,-0.29299717545763326,-0.05912065878639887,-0.17029537462606742,0.7231041609202457,-0.1102803591616626,-0.03062181356964102,0.5770756638793895,0.4616605311035117,-0.34624539832763535,-0.4039529647155704,-0.28853783193969473,0.23083026555175584,-14.208311340498192,-8.261637063097773,5.34996967440733,5.600411331934315,3.7429798308702362,1.506572004312956
1.68,1,-0.28694995866532325,-0.05428288535255091,-0.17392370470145338,0.7188711091656287,-0.11330396755781758,-0.028202926852717036,0.6047216792309962,0.4837773433847968,-0.36283300753859604,-0.42330517546169677,-0.3023608396154981,0.2418886716923984,-15.573060888087678,-10.427301970363553,8.282278631889636,6.522025700593812,4.668246964835678,0.8176824508903682
1.69,1,-0.28063465929990694,-0.04923064586021787,-0.17771288432070317,0.7144503996098373,-0.11646161724052573,-0.02567680710655052,0.6315299365416305,0.5052239492333028,-0.3789179619249794,-0.44207095557914355,-0.31576496827081524,0.2526119746166514,-15.176394158131595,-10.880837494719676,4.676739775269379,3.1667601062283053,1.970036048119976,-7.396087404405462
1.7,1,-0.27405965494179396,-0.04397064237372744,-0.181657886935571,0.7098478965591581,-0.11974911941958225,-0.023046805363305303,0.6575004358113035,0.5260003486490438,-0.39450026148678263,-0.46025030506791076,-0.32875021790565173,0.2630001743245219,-14.050386285437794,-9.000175150598558,5.788195984724028,6.793100304753646,2.9105391513939134,0.39145098290181
1.71,1,-0.2672333231713937,-0.03850957695740724,-0.18575368599781114,0.7050694643198779,-0.12316228530478238,-0.020316272655145202,0.6826331770400262,0.5461065416320201,-0.4095799062240141,-0.4778432239280206,-0.3413165885200131,0.27305327081601005,-15.757085617795548,-11.866835970511644,6.5302784025338365,1.8333786975878335,3.669582789030809,-3.3451236264676307
1.72,1,-0.2601640415691159,-0.03285415167558499,-0.18999525495917782,0.7001209671982834,-0.1266969261059213,-0.017488560014234076,0.7069281602277822,0.5655425281822252,-0.4241568961366682,-0.49484971215945084,-0.3534640801138911,0.2827712640911126,-13.077359628328347,-6.005782299002542,7.577880817305111,2.640531775463941,6.081995156427441,1.5613698640603468
1.73,1,-0.25286018771537,-0.027011068592588294,-0.19437756727142536,0.6950082695006614,-0.1303488530327942,-0.014567018472735732,0.7303853853745823,0.5843083082996692,-0.43823123122475327,-0.5112697697622015,-0.36519269268729115,0.2921541541498346,-15.168575724146516,-9.105922262953543,5.001049513019511,9.901057606755238,0.9511711049019844,-4.078744589825736
1.74,1,-0.24533013919056565,-0.0209870297727448,-0.19889559638630797,0.6897372355332984,-0.1341138772951964,-0.011554999062813985,0.7530048524804378,0.6024038819843494,-0.451802911488261,-0.5271033967363059,-0.3765024262402189,0.3012019409921747,-15.316518894889068,-10.475578281946522,8.533873011287273,5.082528638973337,3.0182146814139754,-4.21822255353484
1.75,1,-0.2375822735751124,-0.014788737280382224,-0.2035443157555799,0.684313729602481,-0.137987810102923,-0.008455852816632697,0.7747865615453237,0.6198292492362575,-0.4648719369271942,-0.5423505930817307,-0.38739328077266044,0.30991462461812874,-6.83397668972294,-9.99885625636381,5.031848300113735,8.557606311553556,5.967556881712898,-2.0201611216093096
1.76,1,-0.22962496844941985,-0.008422893179828177,-0.20831869883099544,0.6787436160144963,-0.1419664626657693,-0.005272930766355673,0.7957305125692565,0.6365844100554047,-0.4774383075415528,-0.557011358798476,-0.39786525628462965,0.31829220502770234,-9.140369624928654,-9.013601578320465,6.795087240688101,3.9807212485506027,5.143295932816284,-2.680218841414108
1.77,1,-0.22146660139389757,-0.0018961995354103527,-0.2132137190643088,0.6730327590756306,-0.14604564619353044,-0.0020095839441467605,0.8158367055522281,0.6526693644417825,-0.48950202333133686,-0.5710856938865638,-0.40791835277611543,0.32633468222089124,-12.51978277338306,-6.897354056884299,5.34544285542755,1.288982450146671,2.5871443270453005,-2.5361488468914923
1.78,1,-0.21311554998895507,0.00478464158854364,-0.2182243499072743,0.6671870230921709,-0.15022117189600168,0.001330836617830236,0.8351051404942494,0.6680841123953992,-0.5010630842965491,-0.5845735983459721,-0.41755257024712333,0.3340420561976996,-10.881344567971187,-10.510230169615584,7.100746241331358,3.2767457943308886,2.9305706009529398,0.10042333569514761
1.79,1,-0.20458019181500198,0.011612928127706122,-0.22334556481164616,0.6612122723704038,-0.1544888509829782,0.004744979887411477,0.8535358173953095,0.6828286539162481,-0.5121214904371868,-0.5974750721767119,-0.42676790869765335,0.34141432695812407,-10.305624213751361,-9.283107232019034,9.562537059161965,10.63552465674578,3.924299584919608,0.735070874638593
1.8,1,-0.1958689044524479,0.018581958017749384,-0.2285723372291786,0.6551143712166159,-0.15884449466425526,0.008229494832433107,0.8711287362554082,0.6969029890043262,-0.5226772417532444,-0.6097901153787944,-0.4355643681277055,0.3484514945021631,-12.251325139620375,-8.461298345541794,4.8359826856162105,2.315035712693507,3.8953411307939647,-3.5767746101945193
1.81,1,-0.18699006548170233,0.025685029194345847,-0.23389964061162596,0.648899183937094,-0.16328391414962806,0.011781030420731338,0.8878838970745567,0.7103071176596462,-0.5327303382447357,-0.6215187279521861,-0.44394194853727975,0.3551535588298231,-11.276952385121463,-5.086699190042689,5.238036674264989,8.561847852045819,5.618495895135359,1.6420308858566406
1.82,1,-0.17795205248317486,0.03291543959316781,-0.23932244841074243,0.6425725748381248,-0.1678029206488918,0.015396235620142322,0.9038012998527467,0.7230410398821968,-0.5422807799116469,-0.6326609098969205,-0.45190064992637335,0.3615205199410984,-12.098275387938322,-5.9755825033164625,4.280273609207952,5.5675269488966705,5.049832524242657,-4.048147029062128
1.83,1,-0.1687632430372751,0.04026648714988759,-0.2448357340782823,0.6361404082259949,-0.17239732537184166,0.019071759398502214,0.9188809445899754,0.7351047556719781,-0.5513285667539863,-0.6432166612129864,-0.4594404722949863,0.36755237783598904,-8.783843668808716,-4.588852228741091,3.842220890156747,4.980888582723126,-0.05531333734158306,-2.7427560675646623
1.84,1,-0.15943201472441265,0.04773146980017759,-0.25043447106599975,0.6296085484069912,-0.1770629395282729,0.022804250723647213,0.9331228312862455,0.7464982650289997,-0.5598736987717456,-0.6531859819003727,-0.46656141564312414,0.37324913251449987,-8.46768286374258,-7.495780179711735,3.4809867395779426,3.104184899978244,-0.5607410863947577,3.5870827658985376
1.85,1,-0.14996674512499694,0.05530368547971015,-0.2561136328256492,0.6229828596874002,-0.18179557432798074,0.026590358563413494,0.946526959941571,0.7572215679532562,-0.5679161759649443,-0.6625688719591016,-0.4732634799707841,0.3786107839766281,-7.584525148471738,-4.474563455352628,4.70357908768756,2.6553025205482252,1.4599273462421416,-0.685130863600661
1.86,1,-0.14037581181943767,0.06297643212415754,-0.2618681928089847,0.6162692063735088,-0.18659104098076038,0.03042673188563719,0.9590933305559268,0.7672746644447392,-0.5754559983335517,-0.6713653313891399,-0.4795466652779634,0.3836373322223696,-9.86896441584332,-4.5815420050208395,3.0441872482929195,5.438600768816505,-1.2419242416583272,-2.6822276045102282
1.87,1,-0.13066759238814443,0.07074300766919214,-0.26769312446776067,0.6094734527716035,-0.191445150696407,0.034310019658154486,0.9708219431293241,0.7766575545034599,-0.5824931658775956,-0.6795753601905319,-0.48541097156466206,0.38832877725172993,-5.749070033455857,-5.492629724033961,2.9582757886085607,6.7981282997808385,5.001776334543784,-0.7828656179161493
1.8800000000000001,1,-0.12085046441152675,0.0785967100504863,-0.2735834012537313,0.6026014631879711,-0.19635371468471585,0.03823687084880156,0.9817127976617684,0.7853702381294153,-0.589027678597065,-0.6871989583632332,-0.4908563988308856,0.39268511906470766,-9.912555471399607,-5.096483075326937,-2.0297765367949197,4.397951684905539,-0.703001239912052,0.1588143674913729
1.8900000000000001,1,-0.11093280546999418,0.08653083720371235,-0.2795339966186508,0.5956591019288983,-0.2013125441554821,0.04220393442541459,0.991765894153257,0.7934127153226056,-0.5950595364919486,-0.6942361259072882,-0.4958829470766257,0.3967063576613028,-5.33295553914727,-7.598459161704881,6.917240411529971,5.3270751123719045,1.6004758621394761,-0.5182760557859998
1.9000000000000001,1,-0.10092299314395625,0.09453868706454269,-0.2855398840142736,0.5886522333006717,-0.20631745031850107,0.04620785935582976,1.0009812326037926,0.8007849860830335,-0.60058873956228,-0.7006868628226526,-0.5004906163018963,0.40039249304151675,-10.012504258596586,-2.5062752256699206,7.277636552234229,2.8362473234774477,0.36475198323099467,1.4281033138464263
1.9100000000000001,1,-0.09082940501382267,0.10261355756864957,-0.29159603689235375,0.5815867216095782,-0.21136424438356788,0.0502452946078832,1.0093588130133584,0.8074870504106879,-0.6056152878080145,-0.7065511691093485,-0.5046794065066806,0.40374352520534396,-11.332333959838273,-6.401721790502164,5.126974672880146,7.870153202767973,-1.1604725558339122,-2.8021268893960407
1.92,1,-0.08066041866000304,0.11074874665170525,-0.2976974287046455,0.5744684311619045,-0.2164487375604777,0.05431288914941104,1.0168986353819631,0.8135189083055688,-0.6101391812291745,-0.7118290447673759,-0.5084493176909816,0.4067594541527844,-4.326181071003504,-4.535777601554022,1.918005398342552,3.834928580107422,4.280225857959431,-2.317486910743132
1.93,1,-0.07042441166290672,0.1189375522493823,-0.3038390329029033,0.5673032262639371,-0.22156674105902585,0.05840729194824956,1.0236006997096314,0.818880559767704,-0.6141604198257822,-0.7165204897967348,-0.5118003498548157,0.409440279883852,-6.6985170504766325,-4.040977810192281,0.972139250679775,7.255289045627335,0.6687512729264216,-2.7276361407728906
1.94,1,-0.06012976160294339,0.12717327229735298,-0.3100158229388813,0.5600969712219628,-0.22671406608900752,0.0625251519722349,1.0294650059963328,0.8235720047970685,-0.6176790035977986,-0.7206255041974363,-0.5147325029981664,0.41178600239853425,-6.611965945969313,-7.871930924735389,0.20063998502072655,1.0871225869874455,5.538396960465314,-2.5453094336397797
1.95,1,-0.0497848460605225,0.13544920473128969,-0.3162227722643339,0.5528555303422681,-0.23188652386021796,0.06666311818920326,1.0344915542420896,0.8275932433936706,-0.6206949325452571,-0.7241440879694694,-0.5172457771210448,0.4137966216968353,-7.99592039321511,-4.962225273477286,4.435829431416072,2.753800631486091,4.435850335689394,-0.735204888089604
1.96,1,-0.03939804261605398,0.1437586474868645,-0.32245485433101495,0.5455847679311402,-0.23707992558245222,0.07081783956699067,1.0386803444468518,0.8309442755574825,-0.6232082066681077,-0.7270762411127896,-0.5193401722234259,0.41547213777874126,-8.58412531823264,-4.180209915771001,5.513457677147889,4.8109080865285945,1.5181872166973025,-2.8830482131781747
1.97,1,-0.028977728849946954,0.1520948984997501,-0.3287070425906792,0.5382905482948652,-0.24229008246550574,0.07498596507343347,1.0420313766107026,0.8336251012885598,-0.6252188259664226,-0.7294219636274968,-0.5210156883053513,0.4168125506442799,-8.007677231286767,-4.537039853904513,3.1380269950365873,2.7739883944579953,-2.7676002342673116,-0.10923845867140103
1.98,1,-0.0185322823426112,0.16045125570561874,-0.33497431049508064,0.5309787357397302,-0.2475128057191736,0.07916414367636779,1.0445446507335754,0.8356357205868636,-0.6267267904401463,-0.7311812555135022,-0.5222723253667877,0.4178178602934318,-5.8382319525477335,-4.1086661395322,4.342286960351823,3.345570606577062,0.6396541767468443,0.6404874039602141
1.99,1,-0.008070080674456498,0.16882101704014246,-0.34125163149597343,0.5236551945720219,-0.25274390655325096,0.08334902434362965,1.0462201668154703,0.8369761334523718,-0.6277321000892788,-0.7323541167708281,-0.5231100834077351,0.4184880667261859,-6.019021492277263,-0.7616039566550228,3.335042231974899,0.17291677265166605,5.788071039324141,-3.0042850245949584
2.0,1,0.0024004985741079288,0.17719748043899403,-0.34753397904511213,0.5163257890980268,-0.2579791961775332,0.08753725604305543,1.0470579248564427,0.8376463398851564,-0.62823475491387,-0.7329405473995076,-0.5235289624282213,0.4188231699425782,-9.19854986801983,-5.115112128435595,0.7203932912442146,1.134252240324695,1.9679560348459186,-1.7527820891931705
2.0100000000000002,1,0.012871077822672522,0.1855739438378457,-0.35381632659425083,0.5089963836240317,-0.26321448580181545,0.09172548774248127,1.0470579248564593,0.8376463398851675,-0.62823475491387,-0.7329405473995187,-0.5235289624282269,0.41882316994258373,-1.5244524444772876,-5.7095283830134065,4.096139024262998,0.009892804326192328,0.6714137908192557,-1.446951485759644
2.02,1,0.023333279490827225,0.19394370517236947,-0.3600936475951437,0.5016728424563234,-0.26844558663589285,0.09591036840974315,1.0462201668154703,0.8369761334523773,-0.6277321000892844,-0.7323541167708281,-0.5231100834077407,0.41848806672618866,-5.342121082245718,-4.053730895066788,3.781786137434887,1.4034629903398597,-0.32318627332403005,-0.7976848713171075
2.0300000000000002,1,0.033778725998163034,0.2023000623782381,-0.36636091549954514,0.49436102990118824,-0.27366830988956076,0.10008854701267747,1.044544650733581,0.8356357205868636,-0.6267267904401463,-0.7311812555135133,-0.5222723253667905,0.4178178602934318,-1.613087856887284,-1.0987766632964635,-0.2783418177368886,1.0105235834330306,2.5671425929785525,-0.6211330299373652
2.04,1,0.04419903976426967,0.21063631339112343,-0.37261310375920914,0.4870668102649136,-0.278878466772614,0.10425667251912013,1.0420313766106637,0.8336251012885321,-0.6252188259664004,-0.7294219636274635,-0.5210156883053263,0.41681255064426603,-5.085228169093385,-0.6084613340607763,3.1275122822521984,0.1410221866461725,1.4246122983163247,1.5861835742655828
2.05,1,0.0545858432087383,0.2189457561466983,-0.37884518582589033,0.4797960478537856,-0.2840718684948484,0.10841139389690757,1.0386803444468629,0.8309442755574881,-0.6232082066681188,-0.7270762411128007,-0.519340172223437,0.41547213777874403,-2.945423847681071,-0.7826027454393314,1.0276076550076114,2.274697350602485,1.144930727567683,1.80245029786815
2.06,1,0.06493075875115914,0.22722168858063502,-0.38505213515134284,0.47255460697409096,-0.2892443262660588,0.11254936011387592,1.034491554242084,0.8275932433936706,-0.6206949325452515,-0.7241440879694638,-0.5172457771210393,0.4137966216968353,-0.8891498049429578,0.12771031451819348,0.6095554665853548,-1.31017357377431,2.7408811074397494,-1.7062310258867095
2.07,1,0.07522540881112241,0.2354574086286056,-0.39122892518732083,0.4653483519321167,-0.29439165129604045,0.11666722013786121,1.0294650059963273,0.8235720047970574,-0.6176790035977986,-0.7206255041974252,-0.5147325029981664,0.4117860023985287,-0.7415659636751573,-0.8838553183077288,1.7202096081704208,-3.6686306933498765,2.5246423270047043,1.3616194553863594
2.08,1,0.085461415808219,0.2436462142262829,-0.39737052938557876,0.4581831470341491,-0.29950965479458874,0.12076162293669987,1.0236006997096592,0.8188805597677318,-0.6141604198257933,-0.7165204897967625,-0.5118003498548296,0.4094402798838659,-2.5208214379772693,-2.1309440714680337,1.4653741285297814,-0.704249888259582,1.1252761233792778,2.795722854785959
2.09,1,0.09563040216203852,0.2517814033093385,-0.4034719211978705,0.45106485658647544,-0.3045941479714985,0.12482921747822767,1.016898635381952,0.8135189083055605,-0.6101391812291745,-0.7118290447673647,-0.5084493176909732,0.40675945415278025,-0.5394466552145982,-2.6834075627009,2.329721726933415,4.552548846131212,-3.0321671885471124,2.532487656377173
2.1,1,0.10572399029217236,0.25985627381344556,-0.40952807407595077,0.4439993448953818,-0.3096409420365654,0.1288666527302812,1.0093588130133835,0.8074870504107018,-0.6056152878080256,-0.7065511691093651,-0.5046794065066917,0.4037435252053509,0.22189736707797314,-3.0149392631032623,-1.3402568273623787,1.076240112901744,-1.9323509312787737,0.5905852532406286
2.11,1,0.11573380261821006,0.2678641236742757,-0.41553396147157334,0.43699247626715537,-0.31464584819958424,0.13287057766069627,1.0009812326037704,0.8007849860830141,-0.6005887395622578,-0.7006868628226415,-0.5004906163018852,0.40039249304150704,-0.99697878962245,-0.6423187349217172,1.2952981892116096,-1.827337357820622,-1.3102291525014065,0.13942314329867192
2.12,1,0.1256514615597429,0.275798250827502,-0.42148455683649305,0.4300501150080824,-0.31960467767035067,0.1368376412373094,0.9917658941532848,0.7934127153226278,-0.5950595364919709,-0.6942361259072993,-0.4958829470766424,0.3967063576613139,-2.499177367895354,1.691538349165967,-2.3501944819024,0.5640642865525398,-0.26082876505199964,-2.492082946651084
2.13,1,0.1354685895363604,0.283651953208796,-0.4273748336224636,0.42317812542445016,-0.3245132416586594,0.1407644924279564,0.981712797661749,0.7853702381294014,-0.5890276785970538,-0.6871989583632221,-0.4908563988308745,0.3926851190647007,-1.0913282292475446,0.8913654530334845,-0.582060183668464,-0.7851607508120648,2.7026670578377345,-0.4442659912571022
2.14,1,0.14517680896765386,0.2914185287538308,-0.43319976528123966,0.41638237182254473,-0.3293673513743061,0.1446477802004738,0.9708219431293463,0.7766575545034793,-0.5824931658776067,-0.679575360190543,-0.4854109715646704,0.38832877725173964,-0.17127323717233667,0.7657627025157822,-0.642808646923289,0.06796855939325042,3.701048411053696,-2.5395457137171977
2.15,1,0.15476774227321285,0.29909127539827796,-0.43895432526457506,0.40966871850865344,-0.33416281802708564,0.1484841535226974,0.9590933305558991,0.767274664444717,-0.5754559983335406,-0.6713653313891288,-0.4795466652779523,0.3836373322223585,1.0681784358520274,-1.0891608125480596,1.3276913748048518,0.8643500399668028,0.27071517900358677,2.794717840092532
2.16,1,0.1642330118726287,0.30666349107781066,-0.4446334870242246,0.4030430297890623,-0.33889545282679356,0.15227026136246374,0.9465269599415849,0.7572215679532701,-0.5679161759649554,-0.6625688719591127,-0.47326347997079243,0.37861078397663506,4.628860281949909,6.4810101952766095,-0.7871204319196106,-0.6991892429346502,0.4797111278935484,0.05265391313172396
2.17,1,0.17356424018549108,0.3141284737281005,-0.450232224011942,0.39651116997005864,-0.34356106698322475,0.15600275268760866,0.9331228312862372,0.7464982650289831,-0.5598736987717401,-0.6531859819003671,-0.4665614156431186,0.37324913251449154,3.6859299027164374,-0.02863283676916306,-1.5219202905205464,-1.0333399960078662,-3.7506795135724103,0.47250302818713075
2.18,1,0.1827530496313909,0.3214795212848205,-0.45574550967948196,0.3900790033579287,-0.34815547170617467,0.15967827646596866,0.9188809445899837,0.7351047556720003,-0.5513285667539947,-0.6432166612129919,-0.45944047229499185,0.36755237783600014,0.6641952009266123,2.1620142343164015,1.6618317887776386,1.5113739909535397,-1.6807725157505549,-0.5248658501935348
2.19,1,0.19179106262991805,0.32870993168364215,-0.46116831747859816,0.38375239425895974,-0.35267447820543824,0.1632934816653795,0.9038012998527134,0.7230410398821663,-0.5422807799116192,-0.6326609098968983,-0.4519006499263567,0.36152051994108314,6.392881920664065,4.223786986740361,-2.2388530822087973,-0.5683154586320571,-2.047783130699071,-2.0464314329401283
2.2,1,0.20066990160066409,0.33581300286023896,-0.46649562086104573,0.3775372069794376,-0.35711389769081126,0.1668450172536779,0.8878838970746039,0.7103071176596809,-0.5327303382447579,-0.6215187279522139,-0.44394194853730196,0.35515355882984045,2.983514424264473,2.5976019603038365,-2.512891530128137,-1.442674519764985,-2.3203576848339305,2.2627150979230093
2.21,1,0.20938118896321797,0.3427820327502821,-0.4717223932785782,0.3714393058256498,-0.3614695413720882,0.17032953219869945,0.8711287362553888,0.696902989004311,-0.5226772417532444,-0.6097901153787777,-0.4355643681276944,0.3484514945021555,4.904568269845668,1.1922370074732511,-5.512048176721728,-1.9311584667132171,0.007669245476985553,1.9045036961074735
2.22,1,0.2179165471371712,0.34961031928944464,-0.4768436081829501,0.36546455510388254,-0.3657372204590648,0.17374367546828073,0.8535358173953234,0.6828286539162565,-0.5121214904371896,-0.5974750721767286,-0.4267679086976617,0.34141432695812823,6.293994143095865,4.714367145564741,-2.3798522141281624,-3.329005823074705,-2.157474401995784,2.829751641691659
2.23,1,0.2262675985421134,0.35629116041339837,-0.48185423902591534,0.35961881912042304,-0.3699127461615359,0.1770840960302576,0.8351051404942189,0.6680841123953729,-0.5010630842965269,-0.5845735983459499,-0.41755257024710946,0.33404205619768645,3.4842897105806623,0.7063866433873573,-4.010992299298755,-4.868144954435644,-5.148605054837378,-2.4805426249033546
2.24,1,0.23442596559763582,0.3628178540578164,-0.4867492592592289,0.3539079621815573,-0.3739919296892971,0.18034744285246662,0.815836705552242,0.6526693644418047,-0.4895020233313563,-0.5710856938865749,-0.407918352776121,0.32633468222090234,6.873912678801162,7.155330624349954,-2.8168794799902748,-1.2142308597897957,0.22517654621556815,3.7219692873420382
2.25,1,0.2423832707233283,0.36918369815837027,-0.49152364233464435,0.34833784859357264,-0.37797058225214336,0.18353036490274355,0.7957305125692482,0.6365844100553852,-0.4774383075415445,-0.5570113587984649,-0.3978652562846241,0.3182922050276926,3.445710026886547,4.518491271168818,-2.0174401736918326,-0.1777590675293923,0.8464533533956307,0.8928203688371579
2.2600000000000002,1,0.2501311363387816,0.37538199065073297,-0.49617236170391626,0.3429143426627553,-0.38184451505987,0.1866295111489249,0.7747865615453264,0.61982924923627,-0.4648719369271914,-0.5423505930817363,-0.3873932807726632,0.309914624618135,5.715027647765286,3.7268076707295146,-4.8474878966292785,-2.048971772372881,-1.083255587907468,2.757474749745544
2.27,1,0.2576611848635858,0.38140602947057634,-0.5006903908187988,0.3376433086953924,-0.3856095393222721,0.18964153055884658,0.7530048524804211,0.6024038819843369,-0.4518029114882527,-0.5271033967362893,-0.3765024262402106,0.30120194099216846,6.9432129234131965,1.677048925300964,-4.501006114321404,-1.9441319164333548,-2.0941444399799223,-4.010620649028501
2.2800000000000002,1,0.2649650387173318,0.3872491125535731,-0.5050727031310465,0.33253061099777015,-0.3892614662491451,0.19256307210034496,0.730385385374599,0.5843083082996747,-0.4382312312247616,-0.5112697697622237,-0.3651926926872995,0.29215415414983736,4.347365187820834,2.478390640500474,-6.229415611843891,-5.0190586696503345,-3.6529864111828845,2.1376635152338794
2.29,1,0.2720343203196097,0.39290453783539536,-0.5093142720924132,0.32758211387617564,-0.39279610705028406,0.1953907847412561,0.7069281602277933,0.5655425281822279,-0.42415689613667373,-0.49484971215945084,-0.35346408011389663,0.28277126409111397,3.2248290036033933,4.946807716035994,-4.223111871104101,-4.603485165053893,-3.6237967121773376,1.2258752535229938
2.3000000000000003,1,0.2788606520900099,0.39836560325171555,-0.5134100711546533,0.3228036816368955,-0.39620927293548414,0.1981213174494162,0.6826331770400151,0.5461065416320188,-0.4095799062240113,-0.47784322392801504,-0.34131658852000757,0.2730532708160094,8.975785007322955,9.101013773990552,-5.262829231909362,-6.138174430105129,0.09933107529789886,0.986094645731059
2.31,1,0.2854356564481231,0.403625606738206,-0.5173550737695212,0.3182011785862163,-0.39949677511454074,0.20075131919266143,0.6575004358113201,0.5260003486490472,-0.3945002614867854,-0.4602503050679163,-0.32875021790566006,0.2630001743245236,13.263041012219851,6.04163884442439,0.7469121272233368,-4.234087954735331,-3.6310656901191525,1.2842223110520998
2.32,1,0.29175095581353927,0.40867784623053904,-0.5211442533887709,0.31378046903042495,-0.40265442479724883,0.20327743893882794,0.6315299365416194,0.5052239492333022,-0.37891796192497385,-0.442070955579138,-0.3157649682708097,0.2526119746166511,8.823068559966096,6.525384282094014,-0.6980892813394433,-1.9260733403781094,1.801032174966985,0.34070896290779995
2.33,1,0.29779817260584884,0.41351561966438666,-0.5247725834641567,0.30954741727580826,-0.4056780331934036,0.20569632565575174,0.6047216792309573,0.4837773433847614,-0.3628330075385766,-0.423305175461669,-0.30236083961547866,0.2418886716923807,9.569356108030481,6.854230861050066,-1.184112217735012,-5.4415417841424905,-0.4131619465487073,-1.240785117342711
2.34,1,0.3035689292446433,0.41813222497542224,-0.5282350374474334,0.30550788762865216,-0.40856341151280084,0.20800462831126953,0.577075663879445,0.4616605311035582,-0.3462453983276714,-0.40395296471560926,-0.2885378319397225,0.2308302655517791,6.8553738305698015,11.05579354532539,-6.615776610671233,-4.346848752632808,-1.7192811368086045,-0.8953791335653429
2.35,1,0.3090548481495118,0.42252096009931706,-0.5315265887903544,0.3016677443952442,-0.4113063709652351,0.21019899587321694,0.5485918904868492,0.4388735123894816,-0.32915513429210286,-0.38401432334079777,-0.2742959452434246,0.2194367561947408,11.911319184621497,5.685326023929695,-4.535980914002901,-2.939933767114914,2.9463426088557796,1.7351169056786053
2.36,1,0.31424755174004526,0.4266751229717438,-0.5346422109446745,0.2980328518818708,-0.41390272276050183,0.21227607730943032,0.5192703590533476,0.4154162872426759,-0.31156221543200413,-0.36348925133734,-0.2596351795266738,0.20770814362133794,8.559349240791148,9.933910345722904,-6.739156014214634,-2.0722435800863086,-0.013392119086216958,4.351032413579788
2.37,1,0.3191386624358341,0.430588011528375,-0.5375768773621479,0.29460907439481854,-0.41634827810839625,0.21423252158774592,0.4891110695788847,0.3912888556631189,-0.29346664174734194,-0.34237774870522486,-0.24455553478944236,0.19564442783155944,11.973352801354668,6.234921387283055,-0.7949872509770728,-7.922397287585651,-3.5056116518073823,3.98719608164801
2.38,1,0.3237198026564688,0.43425292370488267,-0.5403255614945287,0.29140227624037424,-0.4186388482187136,0.21606497767599975,0.4581140220634716,0.3664912176507662,-0.274868413238083,-0.32067981544443014,-0.2290570110317358,0.1832456088253831,11.185340198480745,5.847959820068585,-2.9625012236771364,-5.717584944766399,-4.769702496762928,2.2778769953600593
2.39,1,0.3279825948215398,0.4376631574369394,-0.5428832367935712,0.2884183217248246,-0.4207702443012491,0.21777009454202811,0.4262792165070972,0.34102337320567333,-0.25576752990424945,-0.2983954515549614,-0.2131396082535486,0.17051168660283667,11.55042031975186,7.312837289994012,-6.8699036788513,-6.3725446391492415,-3.6456928082376487,0.881954094681877
2.4,1,0.3319186613506375,0.4408120106602177,-0.54524487671103,0.28566307515445616,-0.42273827756579796,0.21934452115366726,0.3936066529097726,0.3148853223278292,-0.23616399174587466,-0.27552465703684637,-0.1968033264548863,0.1574426611639146,11.781040163492646,7.5133775717677524,-4.161727721288322,-6.776912784607495,-3.0759662025123187,6.026046776198339
2.41,1,0.3355196246633524,0.4436927813103896,-0.5474054546986589,0.28314240083555575,-0.4245387592221554,0.2207849064787532,0.36009633127148666,0.2880770650171893,-0.216057798762892,-0.25206743189004066,-0.18004816563574333,0.14403853250859466,12.015484081913874,9.010195192501438,-7.997470284859737,-5.912558176466214,-4.457609255208998,3.300582179248547
2.42,1,0.338777107179274,0.4462987673231269,-0.5493599442082118,0.2808621630744106,-0.4261675004801162,0.22208789948512186,0.3257482515921617,0.2605986012737316,-0.19544895095529036,-0.22802377611451652,-0.16287412579608085,0.1302993006368658,11.748029850721384,3.43496780026641,-5.432559297742648,-9.16018431690414,-5.257600614273329,3.1652104887087704
2.43,1,0.34168273131799454,0.44862326663410323,-0.5511033186914441,0.2788282261773063,-0.42762031254947647,0.22325014914061003,0.29056241387205306,0.23244993109763357,-0.17433744832323628,-0.20339368971042937,-0.14528120693602653,0.11622496554881678,13.398525544947306,8.56825107862745,-5.6333913500887585,-6.114308869774818,-2.602913807755362,-0.6536453591373967
2.44,1,0.34422811949910304,0.4506595771789901,-0.5526305516001092,0.2770464544505303,-0.4288930066400307,0.22426830441305345,0.2545388181108499,0.20363105448868435,-0.1527232908665077,-0.17817717267760158,-0.12726940905542494,0.10181552724434217,10.2764312707319,7.257226782142618,-3.920918424660279,-5.418138318063447,-1.359671734692052,2.555890584934559
2.45,1,0.34640489414219033,0.4524009968934599,-0.5539366163859616,0.27552271220036917,-0.42998139396157437,0.22513901427028837,0.2176774643087298,0.17414197144698385,-0.13060647858523788,-0.15237422501611086,-0.1088387321543649,0.08707098572349192,11.508861682693796,7.1813653139901135,-3.5376062474058223,-7.678494984200784,0.5198424580024161,-0.3991972200752034
2.46,1,0.34820467766684726,0.45384082371318535,-0.5550164865007557,0.2742628637331094,-0.43088128572390283,0.2258589276801511,0.17997835246569283,0.14398268197254316,-0.1079870114794157,-0.12598484672597943,-0.08998917623284641,0.07199134098627158,15.169761988947329,6.204390714104454,-5.58068336757809,-6.654583488646277,-3.098703229006294,6.269510050913674
2.47,1,0.3496190924926632,0.4549723555738382,-0.5558651353962453,0.27327277335503825,-0.4315884931368108,0.2264246936104775,0.1414414825815946,0.11315318606528457,-0.08486488954895233,-0.0990090378071129,-0.0707207412907973,0.056576593032642286,12.81525471579988,8.224903054318053,-6.172200900888077,-5.745705760097896,-2.1006100341003338,0.45199214404279475
2.48,1,0.35063976103922934,0.45578889041109105,-0.556477536524185,0.2725583053724419,-0.43209882741009387,0.22683296102910394,0.1020668546566128,0.0816534837252858,-0.0612401127939699,-0.0714467982596334,-0.0510334273283064,0.0408267418626429,12.041858117101702,8.07151791501971,-12.292262703662967,-5.633416862434034,-7.058392753870695,0.9461326410700455
2.49,1,0.35125830572613637,0.45628372616061674,-0.5568486633363292,0.27212532409160695,-0.4324080997535474,0.2270803789038668,0.06185446869070299,0.049483574952569054,-0.037112681214424015,-0.043298128083496534,-0.030927234345351495,0.024741787476284527,14.975876106510242,8.393112949144683,-2.789553273291195,-9.224557527525409,-1.6860206831718911,0.884800904591214
2.5,1,0.3514663489729739,0.45645016075808675,-0.5569734892844317,0.2719796938188207,-0.43251212137696615,0.2271635962026018,0.02080432468375415,0.0166434597470011,-0.012482594810248049,-0.014563027278624574,-0.010402162341877075,0.00832172987350055,14.781168242827373,6.101989833473461,-7.315414499339918,-4.632149071086163,-5.464913492787705,1.4645374376261022
2.5100000000000002,1,0.3514200137134247,0.4564130925504474,-0.5569456881287022,0.27201212850050516,-0.43248895374719154,0.2271450620987821,-0.004633525954922391,-0.0037068207639379125,0.0027801155729534344,0.0032434681684456734,0.0023167629774611953,-0.0018534103819689562,10.694268879033178,9.69928502281306,-5.876590082250935,-4.655130787573007,-2.878244864482385,3.5650246511467403
2.52,1,0.351281835350126,0.45630254985980845,-0.556862781110723,0.2721088533548142,-0.4324198645655422,0.22708979075346264,-0.013817836329865774,-0.011054269063892619,0.008290701797919464,0.009672485430906042,0.006908918164932887,-0.0055271345319463094,14.928471160792625,8.034227133983649,-1.6374183554564299,-7.653685622994253,-3.6112867535828475,2.2473873549073846
2.5300000000000002,1,0.3510530550061016,0.45611952558458896,-0.5567255129043084,0.2722689995956313,-0.43230547439353,0.2269982786158529,-0.022878034402440406,-0.018302427521948994,0.013726820641457582,0.016014624081706064,0.011439017201220203,-0.009151213760974497,13.904747364983251,6.4523960774984275,-8.612351036732111,-2.8718258946689916,-4.04242732140685,2.3408275739167053
2.54,1,0.35073491380437516,0.4558650126232078,-0.5565346281832725,0.27249169843683985,-0.4321464037926668,0.2268710221351623,-0.03181412017264629,-0.02545129613811814,0.019088472103589993,0.022269884120856842,0.015907060086323144,-0.01272564806905907,15.201767314324986,8.721373575575319,-6.244102451922186,-5.368670426025993,-6.556206084302927,3.7068897451204217
2.5500000000000003,1,0.3503286528679701,0.4555400038740838,-0.5562908716214294,0.2727760810923233,-0.4319432733244643,0.2267085177606003,-0.04062609364050007,-0.03250087491240006,0.024375656184305594,0.028438265548347275,0.02031304682024726,-0.01625043745620003,13.93335930686669,8.354791347529238,-5.348949231643021,-5.703940805852353,-5.129144517216648,-0.755936731592572
2.56,1,0.34983551331991036,0.45514549223563594,-0.5559949878925936,0.27312127877596515,-0.4316967035504344,0.22651126194137639,-0.049313954805974,-0.03945116384478364,0.02958837288358218,0.03451976836418291,0.024656977402992553,-0.01972558192239182,14.960294997899961,10.060240830332289,-4.2072292868295555,-4.999917425754074,-5.546799854640595,3.7827862910771275
2.57,1,0.3492567362832194,0.4546824706062832,-0.555647721670579,0.27352642270164884,-0.4314073150320889,0.2262797511267,-0.05787770366909584,-0.04630216293527445,0.03472662220146416,0.040514392568369306,0.02893885183454792,-0.023151081467637225,10.474861378892586,8.91951423928065,-6.432513506010826,-8.464852032948915,-4.844671465539921,2.5610230042153073
2.58,1,0.3485935628809209,0.45415193188444436,-0.5552498176291999,0.2739906440832578,-0.43107572833093966,0.2260144817657806,-0.06631734022985447,-0.05305387218388358,0.03979040413790713,0.046422138160895354,0.03315867011492446,-0.02652693609194179,12.437243909658948,7.1973330957348995,-4.119753830408676,-7.131660574085231,-1.3064369190176124,0.8888442119218734
2.59,1,0.34784723423603847,0.4535548689685384,-0.5548020204422704,0.2745130741346755,-0.43070256400849843,0.22571595030782762,-0.07463286448824435,-0.059706291590594374,0.04477971869294439,0.05224300514177216,0.03731643224412218,-0.029853145795297187,15.782323830720326,8.362661428191332,-7.331178211382363,-5.2084744970754,-4.387511276204678,2.5580529745781644
2.6,1,0.34701899147159576,0.45289227475698424,-0.5543050747836048,0.2750928440697854,-0.4302884426262771,0.22538465320205053,-0.08282427644427104,-0.06625942115541794,0.049694565866564844,0.05797699351098862,0.04141213822213552,-0.03312971057770897,19.604419165217465,6.71786133560995,-5.434701891752166,-8.050949043892757,-5.0345991281413465,2.5186085190175547
2.61,1,0.34611007571061647,0.4521651421482008,-0.5537597253270172,0.2757290851024709,-0.42983398474578743,0.22502108689765882,-0.09089157609792897,-0.07271326087834318,0.05453494565875738,0.06362410326855028,0.045445788048964486,-0.03635663043917159,15.139604636381234,12.46582268932183,-5.708375359618122,-7.1646353480434835,-2.3921756362788256,-2.9609778158202933
2.62,1,0.34512172807612407,0.45137446404060694,-0.5531667167463218,0.27642092844661553,-0.42933981092854123,0.22462574784386188,-0.09883476344923481,-0.07906781075938674,0.059300858069544216,0.0691843344144627,0.04941738172462018,-0.03953390537969337,13.04669970367331,12.796063835319908,-6.725619076143891,-5.254605515099396,-3.036350051080905,5.028467496529262
2.63,1,0.34405518969114246,0.4505212333326216,-0.5525267937153329,0.2771675053161027,-0.42880654173605043,0.22419913248986922,-0.10665383849816634,-0.08532307079853196,0.06399230309889203,0.07465768694871477,0.053326919249080396,-0.04266153539926598,14.713797000874083,13.035081482791602,-5.8959235781937425,-5.826222522269863,0.38119420507722745,4.685628798765073
2.64,1,0.342911701678695,0.4496064429226637,-0.5518407009078644,0.27796794692481586,-0.42823479772982675,0.22374173728489027,-0.11434880124474023,-0.09147904099578996,0.06860928074684525,0.0800441608713176,0.05717440062236734,-0.04573952049789498,12.649872719610798,9.00237132281146,-8.283836190968263,-6.385565436052304,-1.6505650973215147,-0.3575546202662778
2.65,1,0.3416925051618056,0.44863108570915217,-0.5511091829977307,0.27882138448663846,-0.42762519947138206,0.2232540586781345,-0.12191965168893981,-0.09753572135115518,0.07315179101337055,0.08534375618226009,0.060959825844469906,-0.04876786067557759,16.9128550109152,12.748768120608503,-7.115894727361789,-6.275866343946819,-7.635487996548345,0.7265521831993844
2.66,1,0.34039884126349773,0.44759615459050583,-0.550332984658746,0.279726949215454,-0.4269783675222281,0.22273659311881133,-0.1293663898307873,-0.10349311186463317,0.07761983389846794,0.09055647288155333,0.06468319491539365,-0.051746555932316585,14.468261830752317,10.92846081881608,-9.06820359525365,-6.7163081935303754,-2.027668188595527,4.926036404243133
2.67,1,0.3390319511067952,0.44650264246514376,-0.5495128505647244,0.2806837723251458,-0.4262949224438768,0.2221898370561303,-0.13668901567026048,-0.10935121253620728,0.08201340940215962,0.09568231096918067,0.06834450783513302,-0.05467560626810364,16.419484273007733,8.417269170413967,-7.345216793092374,-4.618297028883771,-2.2413231730085545,3.5254041840825376
2.68,1,0.3375930758147213,0.4453515422314847,-0.5486495253894802,0.2816909850295975,-0.42557548479783985,0.22161428693930077,-0.14388752920738157,-0.11511002336590526,0.08633251752442339,0.10072127044516987,0.07194376460369356,-0.05755501168295263,13.928861117692962,8.738622116394724,-4.1450428146953175,-2.092677117573775,-0.26547515874771355,2.9487414987041802
2.69,1,0.3360834565103,0.4441438467879477,-0.5477437538068274,0.2827477185426924,-0.42482067514562927,0.22101043921753227,-0.15096193044212836,-0.12076954435369935,0.09057715826528145,0.10567335130948763,0.07548096522105863,-0.06038477217684968,16.42379677867161,9.572507890902106,-5.531393864107731,-5.627913313563236,-3.9474032577447726,3.014377782376881
2.7,1,0.3345043343165549,0.44288054903295154,-0.5467962804905803,0.283853104078314,-0.42403111404875665,0.2203787903400342,-0.1579122193745175,-0.12632977549961732,0.0947473316247116,0.11053855356216169,0.07895610968726152,-0.06316488774980866,10.777856187121934,10.028677531430876,-5.6985302658673485,-3.581011747284752,-1.3187055430658012,2.8589993269362814
2.71,1,0.33285695035650953,0.4415626418649153,-0.5458078501145531,0.28500627285034574,-0.42320742206873396,0.21971983675601606,-0.16473839600453233,-0.13179071680362586,0.09884303760271385,0.1153168772031754,0.08236919800226894,-0.06589535840181293,13.995835964898054,10.487235239244892,-9.473161213997642,-6.973146627797648,-4.1948034814094814,-0.03923579865745941
2.72,1,0.3311425457531876,0.4401911181822577,-0.5447792073525599,0.28620635607267114,-0.422350219767073,0.21903407491468727,-0.17144046033220062,-0.13715236826575827,0.10286427619932148,0.12000832223253988,0.08572023016609753,-0.06857618413287914,14.992977214832518,9.731941808658375,-5.6190341308546525,-7.444378928900418,-2.894133358274102,0.9529563726672385
2.73,1,0.32936236162961274,0.4387669708833978,-0.543711096878415,0.2874524849591735,-0.42146012770528557,0.2183220012652573,-0.1780184123574835,-0.14241472988599235,0.1068110474144901,0.12461288865023845,0.08900920617874175,-0.07120736494299618,13.340766402114427,9.010322985140728,-6.366979783614324,-7.637763732205505,-5.573517952737129,4.068385558835895
2.74,1,0.3275176391088085,0.4372911928667544,-0.5426042633659324,0.2887437907237365,-0.42053776644488344,0.2175841122569356,-0.1844722520804254,-0.1475778016643392,0.11068335124826412,0.12913057645629888,0.0922361260402127,-0.0737889008321696,14.556954339144431,12.381191169601406,-5.147466789856415,-7.876865451944553,-6.200426098282362,3.3770665617087685
2.75,1,0.3256096193137986,0.43576477703074656,-0.5414594514889265,0.2900794045802434,-0.4195837565473785,0.2168209043389317,-0.19080197950098188,-0.15264158360078217,0.11448118770058802,0.13356138565068787,0.09540098975049371,-0.07632079180039109,14.480335937177042,9.416920576896933,-3.4353344738168294,-6.604717516904912,-1.6994278300015557,2.6230688693648045
2.7600000000000002,1,0.3236395433676067,0.434188716273793,-0.5402774059212114,0.2914584577425777,-0.41859871857428255,0.21603287396045492,-0.19700759461919182,-0.15760607569535456,0.11820455677150621,0.13790531623343316,0.09850379730959591,-0.07880303784767728,15.847125445552154,9.267770809984908,-6.9976995968698485,-4.221595464220483,-3.417899771469941,0.7492725540796306
